;FLAVOR:RepRap
;TIME:9647
;Generated with Cura_SteamEngine 2.3.1
G21 ; set units to millimeters
G90 ; use absolute positioning
M82 ; absolute extrusion mode
G28 W ; home all without mesh bed level
G80 ; mesh bed leveling
M104 S200 ; set extruder temp
M140 S60 ; set bed temp
M190 S60 ; wait for bed temp
M109 S200 ; wait for extruder temp
G92 E0.0 ; reset extruder distance position
G1 Y-3.0 F1000.0 ; go outside print area
G1 X60.0 E9.0 F1000.0 ; intro line
G1 X100.0 E21.5 F1000.0 ; intro line
G92 E0.0 ; reset extruder distance position
;LAYER_COUNT:255
;LAYER:0
M107
G0 F3600 X71.999 Y29.379 Z.15
G0 X71.841 Y30.116
;TYPE:SKIRT
G1 F1800 X71.881 Y29.739 E0.00946
G1 X71.999 Y29.379 E0.01891
G1 X72.189 Y29.052 E0.02834
G1 X72.444 Y28.771 E0.03781
G1 X72.753 Y28.551 E0.04727
G1 X73.1 Y28.399 E0.05672
G1 X73.64 Y28.316 E0.07035
G1 X81.659 Y28.313 E0.27038
G1 X82.036 Y28.353 E0.27984
G1 X82.396 Y28.471 E0.28929
G1 X82.724 Y28.661 E0.29875
G1 X83.004 Y28.916 E0.30819
G1 X83.225 Y29.224 E0.31765
G1 X83.377 Y29.571 E0.3271
G1 X83.46 Y30.113 E0.34078
G1 X83.46 Y91.933 E1.88288
G1 X109.859 Y91.933 E2.54141
G1 X109.861 Y30.119 E4.08337
G1 X109.901 Y29.742 E4.09282
G1 X110.019 Y29.382 E4.10227
G1 X110.21 Y29.054 E4.11174
G1 X110.465 Y28.774 E4.12119
G1 X110.773 Y28.554 E4.13063
G1 X111.12 Y28.402 E4.14008
G1 X111.664 Y28.319 E4.15381
G1 X113.562 Y28.322 E4.20115
G1 X113.939 Y28.362 E4.21061
G1 X114.299 Y28.481 E4.22007
G1 X114.626 Y28.672 E4.22951
G1 X114.906 Y28.928 E4.23898
G1 X115.126 Y29.236 E4.24842
G1 X115.277 Y29.584 E4.25788
G1 X115.359 Y30.122 E4.27146
G1 X115.359 Y32.88 E4.34026
G1 X115.758 Y49.588 E4.75716
G1 X115.759 Y49.631 E4.75823
G1 X115.759 Y95.733 E5.90825
G1 X115.719 Y96.11 E5.91771
G1 X115.601 Y96.47 E5.92716
G1 X115.411 Y96.797 E5.93659
G1 X115.156 Y97.078 E5.94606
G1 X114.847 Y97.298 E5.95552
G1 X114.5 Y97.45 E5.96497
G1 X113.959 Y97.533 E5.97862
G1 X83.46 Y97.533 E6.73942
G1 X83.46 Y160.09 E8.29991
G1 X126.359 Y160.09 E9.37003
G1 X126.736 Y160.13 E9.37949
G1 X127.096 Y160.248 E9.38894
G1 X127.423 Y160.438 E9.39838
G1 X127.704 Y160.693 E9.40784
G1 X127.924 Y161.002 E9.4173
G1 X128.076 Y161.349 E9.42675
G1 X128.159 Y161.89 E9.44041
G1 X128.159 Y169.89 E9.63997
G1 X128.119 Y170.267 E9.64942
G1 X128.001 Y170.627 E9.65887
G1 X127.811 Y170.954 E9.66831
G1 X127.556 Y171.235 E9.67777
G1 X127.247 Y171.455 E9.68724
G1 X126.9 Y171.607 E9.69669
G1 X126.359 Y171.69 E9.71034
G1 X73.641 Y171.687 E11.0254
G1 X73.264 Y171.647 E11.03485
G1 X72.904 Y171.529 E11.0443
G1 X72.576 Y171.338 E11.05377
G1 X72.296 Y171.083 E11.06322
G1 X72.076 Y170.775 E11.07266
G1 X71.924 Y170.428 E11.08211
G1 X71.841 Y169.887 E11.09576
G1 X71.841 Y30.116 E14.58236
G0 F3600 X72.241 Y30.116
G1 F1800 X72.281 Y29.784 E14.59071
G1 X72.398 Y29.472 E14.59902
G1 X72.586 Y29.195 E14.60737
G1 X72.834 Y28.972 E14.61569
G1 X73.128 Y28.813 E14.62403
G1 X73.452 Y28.729 E14.63238
G1 X73.64 Y28.716 E14.63708
G1 X81.659 Y28.713 E14.83711
G1 X81.991 Y28.753 E14.84545
G1 X82.304 Y28.87 E14.85379
G1 X82.58 Y29.058 E14.86212
G1 X82.804 Y29.306 E14.87046
G1 X82.963 Y29.6 E14.87879
G1 X83.047 Y29.923 E14.88712
G1 X83.06 Y30.113 E14.89187
G1 X83.06 Y92.333 E16.44395
G1 X110.259 Y92.333 E17.12243
G1 X110.261 Y30.119 E18.67437
G1 X110.301 Y29.787 E18.68271
G1 X110.418 Y29.474 E18.69105
G1 X110.606 Y29.198 E18.69938
G1 X110.854 Y28.975 E18.7077
G1 X111.148 Y28.816 E18.71603
G1 X111.472 Y28.732 E18.72438
G1 X111.663 Y28.719 E18.72916
G1 X113.561 Y28.722 E18.77651
G1 X113.893 Y28.762 E18.78485
G1 X114.205 Y28.88 E18.79317
G1 X114.481 Y29.069 E18.80151
G1 X114.705 Y29.317 E18.80985
G1 X114.863 Y29.611 E18.81817
G1 X114.946 Y29.935 E18.82652
G1 X114.959 Y30.122 E18.83119
G1 X114.959 Y32.847 E18.89917
G1 X115.359 Y49.598 E19.31714
G1 X115.359 Y95.733 E20.46799
G1 X115.319 Y96.065 E20.47633
G1 X115.202 Y96.377 E20.48464
G1 X115.014 Y96.654 E20.49299
G1 X114.766 Y96.877 E20.50131
G1 X114.472 Y97.036 E20.50965
G1 X114.148 Y97.12 E20.518
G1 X113.959 Y97.133 E20.52272
G1 X83.06 Y97.133 E21.2935
G1 X83.06 Y160.49 E22.87395
G1 X126.359 Y160.49 E23.95405
G1 X126.691 Y160.53 E23.96239
G1 X127.003 Y160.647 E23.9707
G1 X127.28 Y160.835 E23.97905
G1 X127.503 Y161.083 E23.98737
G1 X127.662 Y161.377 E23.99571
G1 X127.746 Y161.701 E24.00406
G1 X127.759 Y161.89 E24.00878
G1 X127.759 Y169.89 E24.20834
G1 X127.719 Y170.222 E24.21669
G1 X127.602 Y170.534 E24.225
G1 X127.414 Y170.811 E24.23335
G1 X127.166 Y171.034 E24.24167
G1 X126.872 Y171.193 E24.25001
G1 X126.548 Y171.277 E24.25836
G1 X126.359 Y171.29 E24.26308
G1 X73.641 Y171.287 E25.57814
G1 X73.309 Y171.247 E25.58648
G1 X72.996 Y171.13 E25.59481
G1 X72.72 Y170.942 E25.60314
G1 X72.497 Y170.694 E25.61146
G1 X72.338 Y170.4 E25.6198
G1 X72.254 Y170.076 E25.62815
G1 X72.241 Y169.887 E25.63288
G1 X72.241 Y30.116 E29.11948
G0 F3600 X72.641 Y30.116
G1 F1800 X72.681 Y29.837 E29.12651
G1 X72.797 Y29.58 E29.13354
G1 X72.98 Y29.365 E29.14059
G1 X73.216 Y29.211 E29.14762
G1 X73.486 Y29.128 E29.15466
G1 X73.641 Y29.116 E29.15854
G1 X81.66 Y29.113 E29.35857
G1 X81.939 Y29.153 E29.36561
G1 X82.196 Y29.269 E29.37264
G1 X82.411 Y29.452 E29.37968
G1 X82.565 Y29.688 E29.38671
G1 X82.648 Y29.958 E29.39376
G1 X82.66 Y30.113 E29.39764
G1 X82.66 Y92.733 E30.9597
G1 X110.659 Y92.733 E31.65814
G1 X110.661 Y30.119 E33.22005
G1 X110.701 Y29.84 E33.22708
G1 X110.817 Y29.583 E33.23411
G1 X111 Y29.368 E33.24116
G1 X111.236 Y29.214 E33.24819
G1 X111.506 Y29.131 E33.25523
G1 X111.663 Y29.119 E33.25916
G1 X113.561 Y29.122 E33.30651
G1 X113.84 Y29.162 E33.31354
G1 X114.097 Y29.279 E33.32058
G1 X114.311 Y29.463 E33.32762
G1 X114.465 Y29.699 E33.33465
G1 X114.547 Y29.969 E33.34169
G1 X114.559 Y30.122 E33.34552
G1 X114.559 Y32.856 E33.41372
G1 X114.959 Y49.607 E33.83169
G1 X114.959 Y95.733 E34.98231
G1 X114.919 Y96.012 E34.98934
G1 X114.803 Y96.269 E34.99637
G1 X114.62 Y96.484 E35.00342
G1 X114.384 Y96.638 E35.01045
G1 X114.114 Y96.721 E35.01749
G1 X113.959 Y96.733 E35.02137
G1 X82.66 Y96.733 E35.80213
G1 X82.66 Y160.89 E37.40253
G1 X126.359 Y160.89 E38.49261
G1 X126.638 Y160.93 E38.49964
G1 X126.895 Y161.046 E38.50667
G1 X127.11 Y161.229 E38.51371
G1 X127.264 Y161.465 E38.52074
G1 X127.347 Y161.735 E38.52779
G1 X127.359 Y161.89 E38.53167
G1 X127.359 Y169.89 E38.73123
G1 X127.319 Y170.169 E38.73826
G1 X127.203 Y170.426 E38.74529
G1 X127.02 Y170.641 E38.75234
G1 X126.784 Y170.795 E38.75937
G1 X126.514 Y170.878 E38.76641
G1 X126.359 Y170.89 E38.77029
G1 X73.641 Y170.887 E40.08535
G1 X73.362 Y170.847 E40.09238
G1 X73.105 Y170.731 E40.09941
G1 X72.89 Y170.548 E40.10645
G1 X72.736 Y170.312 E40.11348
G1 X72.653 Y170.042 E40.12053
G1 X72.641 Y169.887 E40.12441
G1 X72.641 Y30.116 E43.61101
G0 F3600 X73.041 Y30.116
G1 F1800 X73.081 Y29.901 E43.61646
G1 X73.194 Y29.715 E43.62189
G1 X73.367 Y29.582 E43.62734
G1 X73.641 Y29.516 E43.63437
G1 X81.66 Y29.513 E43.8344
G1 X81.874 Y29.553 E43.83983
G1 X82.061 Y29.666 E43.84528
G1 X82.194 Y29.839 E43.85073
G1 X82.26 Y30.113 E43.85776
G1 X82.26 Y93.133 E45.4298
G1 X111.059 Y93.133 E46.14819
G1 X111.061 Y30.119 E47.72008
G1 X111.101 Y29.904 E47.72554
G1 X111.214 Y29.718 E47.73097
G1 X111.387 Y29.585 E47.73641
G1 X111.662 Y29.519 E47.74346
G1 X113.56 Y29.522 E47.79081
G1 X113.774 Y29.562 E47.79624
G1 X113.96 Y29.676 E47.80168
G1 X114.093 Y29.849 E47.80713
G1 X114.159 Y30.122 E47.81413
G1 X114.159 Y32.88 E47.88293
G1 X114.559 Y49.617 E48.30056
G1 X114.559 Y95.733 E49.45092
G1 X114.519 Y95.948 E49.45638
G1 X114.406 Y96.134 E49.46181
G1 X114.233 Y96.267 E49.46725
G1 X113.959 Y96.333 E49.47428
G1 X82.26 Y96.333 E50.26502
G1 X82.26 Y161.29 E51.88538
G1 X126.359 Y161.29 E52.98543
G1 X126.574 Y161.33 E52.99088
G1 X126.76 Y161.443 E52.99631
G1 X126.893 Y161.616 E53.00176
G1 X126.959 Y161.89 E53.00879
G1 X126.959 Y169.89 E53.20835
G1 X126.919 Y170.105 E53.2138
G1 X126.806 Y170.291 E53.21923
G1 X126.633 Y170.424 E53.22468
G1 X126.359 Y170.49 E53.23171
G1 X73.641 Y170.487 E54.54676
G1 X73.426 Y170.447 E54.55222
G1 X73.24 Y170.334 E54.55765
G1 X73.107 Y170.161 E54.56309
G1 X73.041 Y169.887 E54.57012
G1 X73.041 Y30.116 E58.05672
G0 F3600 X73.441 Y30.116
G1 F1800 X73.48 Y29.997 E58.05985
G1 X73.641 Y29.916 E58.06434
G1 X81.66 Y29.913 E58.26438
G1 X81.779 Y29.952 E58.2675
G1 X81.86 Y30.113 E58.272
G1 X81.86 Y93.533 E59.85401
G1 X111.459 Y93.533 E60.59236
G1 X111.461 Y30.119 E62.17423
G1 X111.5 Y30 E62.17736
G1 X111.661 Y29.919 E62.18185
G1 X113.559 Y29.922 E62.2292
G1 X113.678 Y29.961 E62.23232
G1 X113.759 Y30.122 E62.23682
G1 X113.759 Y32.88 E62.30562
G1 X114.159 Y49.626 E62.72347
G1 X114.159 Y95.733 E63.87361
G1 X114.12 Y95.852 E63.87673
G1 X113.959 Y95.933 E63.88123
G1 X81.86 Y95.933 E64.68194
G1 X81.86 Y161.69 E66.32226
G1 X126.359 Y161.69 E67.43229
G1 X126.478 Y161.729 E67.43541
G1 X126.559 Y161.89 E67.43991
G1 X126.559 Y169.89 E67.63947
G1 X126.52 Y170.009 E67.64259
G1 X126.359 Y170.09 E67.64709
G1 X73.641 Y170.087 E68.96215
G1 X73.522 Y170.048 E68.96527
G1 X73.441 Y169.887 E68.96977
G1 X73.441 Y30.116 E72.45637
G0 F3600 X73.841 Y30.316
;TYPE:WALL-OUTER
G1 F1800 X81.26 Y30.313 E72.64143
G1 X81.46 Y30.313 E72.64642
G1 X81.46 Y30.513 E72.64965
G1 X81.46 Y93.933 E74.23167
G1 X111.859 Y93.933 E74.98998
G1 X111.861 Y30.519 E76.57185
G1 X111.861 Y30.319 E76.57684
G1 X112.061 Y30.319 E76.58007
G1 X113.359 Y30.322 E76.61245
G1 X113.359 Y32.88 E76.67626
G1 X113.759 Y49.633 E77.09428
G1 X113.759 Y95.533 E78.23926
G1 X81.46 Y95.533 E79.04496
G1 X81.46 Y162.09 E80.70523
G1 X126.159 Y162.09 E81.82025
G1 X126.159 Y169.49 E82.00485
G1 X126.159 Y169.69 E82.00984
G1 X125.959 Y169.69 E82.01307
G1 X73.841 Y169.687 E83.31316
G1 X73.841 Y30.316 E86.78978
G0 F3600 X74.053 Y30.496
;TYPE:SKIN
G1 F1800 X81.279 Y37.722 E87.0447
G0 X81.349 Y37.792
G0 F3600 X81.279 Y38.287
G1 F1800 X74.019 Y31.027 E87.30081
G0 X73.949 Y30.957
G0 F3600 X74.019 Y31.593
G1 F1800 X81.279 Y38.853 E87.55693
G0 X81.349 Y38.923
G0 F3600 X81.279 Y39.419
G1 F1800 X74.019 Y32.159 E87.81304
G0 X73.949 Y32.089
G0 F3600 X74.019 Y32.724
G1 F1800 X81.279 Y39.984 E88.06916
G0 X81.349 Y40.054
G0 F3600 X81.279 Y40.55
G1 F1800 X74.019 Y33.29 E88.32528
G0 X73.949 Y33.22
G0 F3600 X74.019 Y33.856
G1 F1800 X81.279 Y41.116 E88.58139
G0 X81.349 Y41.186
G0 F3600 X81.279 Y41.681
G1 F1800 X74.019 Y34.421 E88.83751
G0 X73.949 Y34.351
G0 F3600 X74.019 Y34.987
G1 F1800 X81.279 Y42.247 E89.09363
G0 X81.349 Y42.317
G0 F3600 X81.279 Y42.813
G1 F1800 X74.019 Y35.553 E89.34974
G0 X73.949 Y35.483
G0 F3600 X74.019 Y36.119
G1 F1800 X81.279 Y43.378 E89.60584
G0 X81.349 Y43.448
G0 F3600 X81.279 Y43.944
G1 F1800 X74.019 Y36.684 E89.86196
G0 X73.949 Y36.614
G0 F3600 X74.019 Y37.25
G1 F1800 X81.279 Y44.51 E90.11807
G0 X81.349 Y44.58
G0 F3600 X81.279 Y45.075
G1 F1800 X74.019 Y37.816 E90.37417
G0 X73.949 Y37.746
G0 F3600 X74.019 Y38.381
G1 F1800 X81.279 Y45.641 E90.63029
G0 X81.349 Y45.711
G0 F3600 X81.279 Y46.207
G1 F1800 X74.019 Y38.947 E90.8864
G0 X73.949 Y38.877
G0 F3600 X74.019 Y39.513
G1 F1800 X81.279 Y46.772 E91.1425
G0 X81.349 Y46.842
G0 F3600 X81.279 Y47.338
G1 F1800 X74.019 Y40.078 E91.39862
G0 X73.949 Y40.008
G0 F3600 X74.019 Y40.644
G1 F1800 X81.279 Y47.904 E91.65473
G0 X81.349 Y47.974
G0 F3600 X81.279 Y48.47
G1 F1800 X74.019 Y41.21 E91.91085
G0 X73.949 Y41.14
G0 F3600 X74.019 Y41.775
G1 F1800 X81.279 Y49.035 E92.16697
G0 X81.349 Y49.105
G0 F3600 X81.279 Y49.601
G1 F1800 X74.019 Y42.341 E92.42308
G0 X73.949 Y42.271
G0 F3600 X74.019 Y42.907
G1 F1800 X81.279 Y50.167 E92.6792
G0 X81.349 Y50.237
G0 F3600 X81.279 Y50.732
G1 F1800 X74.019 Y43.472 E92.93531
G0 X73.949 Y43.402
G0 F3600 X74.019 Y44.038
G1 F1800 X81.279 Y51.298 E93.19143
G0 X81.349 Y51.368
G0 F3600 X81.279 Y51.864
G1 F1800 X74.019 Y44.604 E93.44755
G0 X73.949 Y44.534
G0 F3600 X74.019 Y45.169
G1 F1800 X81.279 Y52.429 E93.70366
G0 X81.349 Y52.499
G0 F3600 X81.279 Y52.995
G1 F1800 X74.019 Y45.735 E93.95978
G0 X73.949 Y45.665
G0 F3600 X74.019 Y46.301
G1 F1800 X81.279 Y53.561 E94.21589
G0 X81.349 Y53.631
G0 F3600 X81.279 Y54.126
G1 F1800 X74.019 Y46.867 E94.47199
G0 X73.949 Y46.797
G0 F3600 X74.019 Y47.432
G1 F1800 X81.279 Y54.692 E94.72811
G0 X81.349 Y54.762
G0 F3600 X81.279 Y55.258
G1 F1800 X74.019 Y47.998 E94.98422
G0 X73.949 Y47.928
G0 F3600 X74.019 Y48.564
G1 F1800 X81.279 Y55.823 E95.24032
G0 X81.349 Y55.893
G0 F3600 X81.279 Y56.389
G1 F1800 X74.019 Y49.129 E95.49644
G0 X73.949 Y49.059
G0 F3600 X74.019 Y49.695
G1 F1800 X81.279 Y56.955 E95.75256
G0 X81.349 Y57.025
G0 F3600 X81.279 Y57.521
G1 F1800 X74.019 Y50.261 E96.00867
G0 X73.949 Y50.191
G0 F3600 X74.019 Y50.826
G1 F1800 X81.279 Y58.086 E96.26479
G0 X81.349 Y58.156
G0 F3600 X81.279 Y58.652
G1 F1800 X74.019 Y51.392 E96.5209
G0 X73.949 Y51.322
G0 F3600 X74.019 Y51.958
G1 F1800 X81.279 Y59.218 E96.77702
G0 X81.349 Y59.288
G0 F3600 X81.279 Y59.783
G1 F1800 X74.019 Y52.523 E97.03314
G0 X73.949 Y52.453
G0 F3600 X74.019 Y53.089
G1 F1800 X81.279 Y60.349 E97.28925
G0 X81.349 Y60.419
G0 F3600 X81.279 Y60.915
G1 F1800 X74.019 Y53.655 E97.54537
G0 X73.949 Y53.585
G0 F3600 X74.019 Y54.22
G1 F1800 X81.279 Y61.48 E97.80148
G0 X81.349 Y61.55
G0 F3600 X81.279 Y62.046
G1 F1800 X74.019 Y54.786 E98.0576
G0 X73.949 Y54.716
G0 F3600 X74.019 Y55.352
G1 F1800 X81.279 Y62.612 E98.31372
G0 X81.349 Y62.682
G0 F3600 X81.279 Y63.177
G1 F1800 X74.019 Y55.918 E98.56982
G0 X73.949 Y55.848
G0 F3600 X74.019 Y56.483
G1 F1800 X81.279 Y63.743 E98.82593
G0 X81.349 Y63.813
G0 F3600 X81.279 Y64.309
G1 F1800 X74.019 Y57.049 E99.08205
G0 X73.949 Y56.979
G0 F3600 X74.019 Y57.615
G1 F1800 X81.279 Y64.874 E99.33815
G0 X81.349 Y64.944
G0 F3600 X81.279 Y65.44
G1 F1800 X74.019 Y58.18 E99.59426
G0 X73.949 Y58.11
G0 F3600 X74.019 Y58.746
G1 F1800 X81.279 Y66.006 E99.85038
G0 X81.349 Y66.076
G0 F3600 X81.279 Y66.571
G1 F1800 X74.019 Y59.312 E100.10648
G0 X73.949 Y59.242
G0 F3600 X74.019 Y59.877
G1 F1800 X81.279 Y67.137 E100.36259
G0 X81.349 Y67.207
G0 F3600 X81.279 Y67.703
G1 F1800 X74.019 Y60.443 E100.61871
G0 X73.949 Y60.373
G0 F3600 X74.019 Y61.009
G1 F1800 X81.279 Y68.269 E100.87482
G0 X81.349 Y68.339
G0 F3600 X81.279 Y68.834
G1 F1800 X74.019 Y61.574 E101.13094
G0 X73.949 Y61.504
G0 F3600 X74.019 Y62.14
G1 F1800 X81.279 Y69.4 E101.38706
G0 X81.349 Y69.47
G0 F3600 X81.279 Y69.966
G1 F1800 X74.019 Y62.706 E101.64317
G0 X73.949 Y62.636
G0 F3600 X74.019 Y63.271
G1 F1800 X81.279 Y70.531 E101.89929
G0 X81.349 Y70.601
G0 F3600 X81.279 Y71.097
G1 F1800 X74.019 Y63.837 E102.15541
G0 X73.949 Y63.767
G0 F3600 X74.019 Y64.403
G1 F1800 X81.279 Y71.663 E102.41152
G0 X81.349 Y71.733
G0 F3600 X81.279 Y72.228
G1 F1800 X74.019 Y64.968 E102.66764
G0 X73.949 Y64.898
G0 F3600 X74.019 Y65.534
G1 F1800 X81.279 Y72.794 E102.92375
G0 X81.349 Y72.864
G0 F3600 X81.279 Y73.36
G1 F1800 X74.019 Y66.1 E103.17987
G0 X73.949 Y66.03
G0 F3600 X74.019 Y66.666
G1 F1800 X81.279 Y73.925 E103.43597
G0 X81.349 Y73.995
G0 F3600 X81.279 Y74.491
G1 F1800 X74.019 Y67.231 E103.69208
G0 X73.949 Y67.161
G0 F3600 X74.019 Y67.797
G1 F1800 X81.279 Y75.057 E103.9482
G0 X81.349 Y75.127
G0 F3600 X81.279 Y75.622
G1 F1800 X74.019 Y68.363 E104.2043
G0 X73.949 Y68.293
G0 F3600 X74.019 Y68.928
G1 F1800 X81.279 Y76.188 E104.46041
G0 X81.349 Y76.258
G0 F3600 X81.279 Y76.754
G1 F1800 X74.019 Y69.494 E104.71653
G0 X73.949 Y69.424
G0 F3600 X74.019 Y70.06
G1 F1800 X81.279 Y77.32 E104.97265
G0 X81.349 Y77.39
G0 F3600 X81.279 Y77.885
G1 F1800 X74.019 Y70.625 E105.22876
G0 X73.949 Y70.555
G0 F3600 X74.019 Y71.191
G1 F1800 X81.279 Y78.451 E105.48488
G0 X81.349 Y78.521
G0 F3600 X81.279 Y79.017
G1 F1800 X74.019 Y71.757 E105.741
G0 X73.949 Y71.687
G0 F3600 X74.019 Y72.322
G1 F1800 X81.279 Y79.582 E105.99711
G0 X81.349 Y79.652
G0 F3600 X81.279 Y80.148
G1 F1800 X74.019 Y72.888 E106.25323
G0 X73.949 Y72.818
G0 F3600 X74.019 Y73.454
G1 F1800 X81.279 Y80.714 E106.50934
G0 X81.349 Y80.784
G0 F3600 X81.279 Y81.279
G1 F1800 X74.019 Y74.019 E106.76546
G0 X73.949 Y73.949
G0 F3600 X74.019 Y74.585
G1 F1800 X81.279 Y81.845 E107.02158
G0 X81.349 Y81.915
G0 F3600 X81.279 Y82.411
G1 F1800 X74.019 Y75.151 E107.27769
G0 X73.949 Y75.081
G0 F3600 X74.019 Y75.716
G1 F1800 X81.279 Y82.976 E107.53381
G0 X81.349 Y83.046
G0 F3600 X81.279 Y83.542
