;FLAVOR:RepRap
;TIME:9576
;Generated with Cura_SteamEngine 2.3.1
G21 ; set units to millimeters
G90 ; use absolute positioning
M82 ; absolute extrusion mode
G28 W ; home all without mesh bed level
G80 ; mesh bed leveling
M104 S200 ; set extruder temp
M140 S60 ; set bed temp
M190 S60 ; wait for bed temp
M109 S200 ; wait for extruder temp
G92 E0.0 ; reset extruder distance position
G1 Y-3.0 F1000.0 ; go outside print area
G1 X60.0 E9.0 F1000.0 ; intro line
G1 X100.0 E21.5 F1000.0 ; intro line
G92 E0.0 ; reset extruder distance position
;LAYER_COUNT:255
;LAYER:0
M107
G0 F3600 X70.406 Y28.567 Z.15
;TYPE:SKIRT
G1 F1800 X70.673 Y28.102 E0.01338
G1 X71.007 Y27.682 E0.02676
G1 X71.399 Y27.316 E0.04014
G1 X71.841 Y27.013 E0.05351
G1 X72.324 Y26.779 E0.0669
G1 X72.836 Y26.619 E0.08028
G1 X73.365 Y26.536 E0.09363
G1 X73.65 Y26.525 E0.10075
G1 X81.656 Y26.523 E0.30046
G1 X82.102 Y26.551 E0.31161
G1 X87.232 Y27.191 E0.44057
G1 X92.668 Y27.57 E0.5765
G1 X98.126 Y27.643 E0.71266
G1 X103.584 Y27.405 E0.84894
G1 X109.041 Y26.858 E0.98575
G1 X111.491 Y26.549 E1.04735
G1 X111.965 Y26.521 E1.05919
G1 X113.563 Y26.531 E1.09905
G1 X114.097 Y26.574 E1.11242
G1 X114.619 Y26.697 E1.1258
G1 X115.117 Y26.895 E1.13916
G1 X115.581 Y27.165 E1.15256
G1 X115.999 Y27.501 E1.16593
G1 X116.362 Y27.896 E1.17932
G1 X116.663 Y28.34 E1.1927
G1 X116.894 Y28.824 E1.20608
G1 X117.051 Y29.336 E1.21943
G1 X117.139 Y30.056 E1.23753
G1 X117.558 Y50.134 E1.73849
G1 X117.559 Y50.212 E1.74043
G1 X117.516 Y95.946 E2.88127
G1 X117.487 Y96.401 E2.89264
G1 X116.781 Y101.914 E3.03129
G1 X116.395 Y107.344 E3.16708
G1 X116.316 Y112.804 E3.3033
G1 X116.546 Y118.259 E3.43949
G1 X117.082 Y123.659 E3.57486
G1 X117.927 Y129.057 E3.71115
G1 X119.077 Y134.406 E3.84763
G1 X119.75 Y136.993 E3.91431
G1 X121.355 Y142.243 E4.05126
G1 X123.243 Y147.362 E4.18736
G1 X125.419 Y152.371 E4.32359
G1 X127.874 Y157.246 E4.45975
G1 X129.491 Y160.137 E4.54238
G1 X129.717 Y160.623 E4.55575
G1 X129.869 Y161.138 E4.56914
G1 X129.949 Y161.894 E4.58811
G1 X129.95 Y169.881 E4.78734
G1 X129.91 Y170.415 E4.8007
G1 X129.791 Y170.938 E4.81408
G1 X129.596 Y171.438 E4.82747
G1 X129.329 Y171.903 E4.84085
G1 X128.995 Y172.323 E4.85423
G1 X128.603 Y172.689 E4.86761
G1 X128.161 Y172.992 E4.88098
G1 X127.679 Y173.227 E4.89435
G1 X127.167 Y173.387 E4.90773
G1 X126.437 Y173.48 E4.92609
G1 X123.798 Y173.544 E4.99194
G1 X118.072 Y173.91 E5.13507
G1 X117.63 Y173.911 E5.14609
G1 X111.965 Y173.577 E5.28765
G1 X103.495 Y173.49 E5.49895
G1 X97.973 Y173.646 E5.63675
G1 X94.215 Y173.914 E5.73073
G1 X93.735 Y173.916 E5.74271
G1 X88.211 Y173.572 E5.88077
G1 X84.175 Y173.488 E5.98147
G1 X73.647 Y173.477 E6.24409
G1 X73.112 Y173.436 E6.25748
G1 X72.59 Y173.317 E6.27083
G1 X72.09 Y173.121 E6.28423
G1 X71.626 Y172.853 E6.2976
G1 X71.206 Y172.519 E6.31098
G1 X70.841 Y172.127 E6.32434
G1 X70.538 Y171.685 E6.33771
G1 X70.304 Y171.202 E6.3511
G1 X70.144 Y170.69 E6.36448
G1 X70.062 Y170.16 E6.37786
G1 X70.051 Y169.879 E6.38487
G1 X70.001 Y75.805 E8.73156
G1 X69.621 Y69.496 E8.88922
G1 X69.62 Y69.069 E8.89987
G1 X69.955 Y63.376 E9.04213
G1 X70.041 Y59.283 E9.14426
G1 X70.051 Y30.124 E9.87163
G1 X70.091 Y29.589 E9.88501
G1 X70.21 Y29.066 E9.89839
G1 X70.406 Y28.567 E9.91177
G0 F3600 X70.805 Y28.662
G1 F1800 X71.071 Y28.232 E9.92438
G1 X71.401 Y27.849 E9.93699
G1 X71.788 Y27.523 E9.94961
G1 X72.221 Y27.262 E9.96222
G1 X72.689 Y27.073 E9.97481
G1 X73.182 Y26.96 E9.98743
G1 X73.65 Y26.925 E9.99914
G1 X81.656 Y26.923 E10.19885
G1 X82.053 Y26.948 E10.20877
G1 X87.192 Y27.589 E10.33796
G1 X92.653 Y27.97 E10.47451
G1 X98.138 Y28.043 E10.61135
G1 X103.605 Y27.805 E10.74785
G1 X109.091 Y27.255 E10.88539
G1 X111.541 Y26.946 E10.94699
G1 X111.962 Y26.921 E10.95751
G1 X113.56 Y26.931 E10.99737
G1 X114.064 Y26.974 E11.00999
G1 X114.554 Y27.096 E11.02259
G1 X115.02 Y27.294 E11.03522
G1 X115.448 Y27.562 E11.04781
G1 X115.829 Y27.895 E11.06044
G1 X116.153 Y28.283 E11.07305
G1 X116.411 Y28.718 E11.08566
G1 X116.598 Y29.187 E11.09826
G1 X116.708 Y29.681 E11.11088
G1 X116.739 Y30.064 E11.12047
G1 X117.158 Y50.142 E11.62142
G1 X117.159 Y50.212 E11.62317
G1 X117.116 Y95.946 E12.76401
G1 X117.09 Y96.35 E12.77411
G1 X116.383 Y101.87 E12.91293
G1 X115.995 Y107.328 E13.04942
G1 X115.916 Y112.815 E13.18631
G1 X116.146 Y118.279 E13.32273
G1 X116.686 Y123.725 E13.45925
G1 X117.53 Y129.115 E13.59534
G1 X118.688 Y134.499 E13.73272
G1 X119.368 Y137.113 E13.80009
G1 X120.977 Y142.378 E13.93743
G1 X122.867 Y147.503 E14.07369
G1 X125.053 Y152.532 E14.21047
G1 X127.521 Y157.433 E14.34736
G1 X129.142 Y160.332 E14.43021
G1 X129.353 Y160.791 E14.44281
G1 X129.489 Y161.278 E14.45542
G1 X129.549 Y161.894 E14.47086
G1 X129.55 Y169.881 E14.6701
G1 X129.51 Y170.385 E14.68271
G1 X129.391 Y170.876 E14.69531
G1 X129.197 Y171.343 E14.70793
G1 X128.931 Y171.773 E14.72054
G1 X128.601 Y172.156 E14.73315
G1 X128.214 Y172.482 E14.74578
G1 X127.782 Y172.743 E14.75837
G1 X127.313 Y172.933 E14.77099
G1 X126.82 Y173.046 E14.78361
G1 X126.428 Y173.08 E14.79342
G1 X123.762 Y173.145 E14.85994
G1 X118.046 Y173.51 E15.00282
G1 X117.654 Y173.511 E15.0126
G1 X111.994 Y173.177 E15.15403
G1 X103.488 Y173.09 E15.36623
G1 X97.957 Y173.246 E15.50425
G1 X94.187 Y173.515 E15.59854
G1 X93.76 Y173.517 E15.60919
G1 X88.22 Y173.172 E15.74765
G1 X84.183 Y173.088 E15.84838
G1 X73.648 Y173.077 E16.11117
G1 X73.144 Y173.037 E16.12379
G1 X72.652 Y172.917 E16.13642
G1 X72.186 Y172.722 E16.14902
G1 X71.756 Y172.456 E16.16163
G1 X71.374 Y172.125 E16.17424
G1 X71.048 Y171.738 E16.18686
G1 X70.787 Y171.305 E16.19948
G1 X70.598 Y170.836 E16.21209
G1 X70.485 Y170.344 E16.22468
G1 X70.451 Y169.879 E16.23631
G1 X70.401 Y75.797 E18.5832
G1 X70.02 Y69.472 E18.74126
G1 X70.02 Y69.092 E18.75074
G1 X70.354 Y63.407 E18.8928
G1 X70.441 Y59.291 E18.99549
G1 X70.451 Y30.124 E19.72307
G1 X70.491 Y29.62 E19.73568
G1 X70.61 Y29.129 E19.74828
G1 X70.805 Y28.662 E19.76091
G0 F3600 X72.976 Y30.344
G0 X73.869 Y30.344
G0 X73.911 Y30.386
G0 X73.841 Y30.316
;TYPE:WALL-OUTER
G1 F1800 X81.26 Y30.313 E19.94597
G1 X81.46 Y30.313 E19.95096
G1 X81.46 Y30.513 E19.95419
G1 X81.46 Y93.933 E21.53621
G1 X111.859 Y93.933 E22.29452
G1 X111.861 Y30.519 E23.87639
G1 X111.861 Y30.319 E23.88138
G1 X112.061 Y30.319 E23.88461
G1 X113.359 Y30.322 E23.91699
G1 X113.359 Y32.88 E23.98079
G1 X113.759 Y49.633 E24.39882
G1 X113.759 Y95.533 E25.5438
G1 X81.46 Y95.533 E26.3495
G1 X81.46 Y162.09 E28.00977
G1 X126.159 Y162.09 E29.12479
G1 X126.159 Y169.49 E29.30939
G1 X126.159 Y169.69 E29.31438
G1 X125.959 Y169.69 E29.31761
G1 X73.841 Y169.687 E30.6177
G1 X73.841 Y30.316 E34.09432
G0 F3600 X74.053 Y30.496
;TYPE:SKIN
G1 F1800 X81.279 Y37.722 E34.34924
G0 X81.349 Y37.792
G0 F3600 X81.279 Y38.287
G1 F1800 X74.019 Y31.027 E34.60535
G0 X73.949 Y30.957
G0 F3600 X74.019 Y31.593
G1 F1800 X81.279 Y38.853 E34.86147
G0 X81.349 Y38.923
G0 F3600 X81.279 Y39.419
G1 F1800 X74.019 Y32.159 E35.11758
G0 X73.949 Y32.089
G0 F3600 X74.019 Y32.724
G1 F1800 X81.279 Y39.984 E35.3737
G0 X81.349 Y40.054
G0 F3600 X81.279 Y40.55
G1 F1800 X74.019 Y33.29 E35.62982
G0 X73.949 Y33.22
G0 F3600 X74.019 Y33.856
G1 F1800 X81.279 Y41.116 E35.88593
G0 X81.349 Y41.186
G0 F3600 X81.279 Y41.681
G1 F1800 X74.019 Y34.421 E36.14205
G0 X73.949 Y34.351
G0 F3600 X74.019 Y34.987
G1 F1800 X81.279 Y42.247 E36.39816
G0 X81.349 Y42.317
G0 F3600 X81.279 Y42.813
G1 F1800 X74.019 Y35.553 E36.65428
G0 X73.949 Y35.483
G0 F3600 X74.019 Y36.119
G1 F1800 X81.279 Y43.378 E36.91038
G0 X81.349 Y43.448
G0 F3600 X81.279 Y43.944
G1 F1800 X74.019 Y36.684 E37.1665
G0 X73.949 Y36.614
G0 F3600 X74.019 Y37.25
G1 F1800 X81.279 Y44.51 E37.42261
G0 X81.349 Y44.58
G0 F3600 X81.279 Y45.075
G1 F1800 X74.019 Y37.816 E37.67871
G0 X73.949 Y37.746
G0 F3600 X74.019 Y38.381
G1 F1800 X81.279 Y45.641 E37.93483
G0 X81.349 Y45.711
G0 F3600 X81.279 Y46.207
G1 F1800 X74.019 Y38.947 E38.19094
G0 X73.949 Y38.877
G0 F3600 X74.019 Y39.513
G1 F1800 X81.279 Y46.772 E38.44704
G0 X81.349 Y46.842
G0 F3600 X81.279 Y47.338
G1 F1800 X74.019 Y40.078 E38.70316
G0 X73.949 Y40.008
G0 F3600 X74.019 Y40.644
G1 F1800 X81.279 Y47.904 E38.95927
G0 X81.349 Y47.974
G0 F3600 X81.279 Y48.47
G1 F1800 X74.019 Y41.21 E39.21539
G0 X73.949 Y41.14
G0 F3600 X74.019 Y41.775
G1 F1800 X81.279 Y49.035 E39.4715
G0 X81.349 Y49.105
G0 F3600 X81.279 Y49.601
G1 F1800 X74.019 Y42.341 E39.72762
G0 X73.949 Y42.271
G0 F3600 X74.019 Y42.907
G1 F1800 X81.279 Y50.167 E39.98374
G0 X81.349 Y50.237
G0 F3600 X81.279 Y50.732
G1 F1800 X74.019 Y43.472 E40.23985
G0 X73.949 Y43.402
G0 F3600 X74.019 Y44.038
G1 F1800 X81.279 Y51.298 E40.49597
G0 X81.349 Y51.368
G0 F3600 X81.279 Y51.864
G1 F1800 X74.019 Y44.604 E40.75209
G0 X73.949 Y44.534
G0 F3600 X74.019 Y45.169
G1 F1800 X81.279 Y52.429 E41.0082
G0 X81.349 Y52.499
G0 F3600 X81.279 Y52.995
G1 F1800 X74.019 Y45.735 E41.26432
G0 X73.949 Y45.665
G0 F3600 X74.019 Y46.301
G1 F1800 X81.279 Y53.561 E41.52043
G0 X81.349 Y53.631
G0 F3600 X81.279 Y54.126
G1 F1800 X74.019 Y46.867 E41.77653
G0 X73.949 Y46.797
G0 F3600 X74.019 Y47.432
G1 F1800 X81.279 Y54.692 E42.03265
G0 X81.349 Y54.762
G0 F3600 X81.279 Y55.258
G1 F1800 X74.019 Y47.998 E42.28876
G0 X73.949 Y47.928
G0 F3600 X74.019 Y48.564
G1 F1800 X81.279 Y55.823 E42.54486
G0 X81.349 Y55.893
G0 F3600 X81.279 Y56.389
G1 F1800 X74.019 Y49.129 E42.80098
G0 X73.949 Y49.059
G0 F3600 X74.019 Y49.695
G1 F1800 X81.279 Y56.955 E43.0571
G0 X81.349 Y57.025
G0 F3600 X81.279 Y57.521
G1 F1800 X74.019 Y50.261 E43.31321
G0 X73.949 Y50.191
G0 F3600 X74.019 Y50.826
G1 F1800 X81.279 Y58.086 E43.56933
G0 X81.349 Y58.156
G0 F3600 X81.279 Y58.652
G1 F1800 X74.019 Y51.392 E43.82544
G0 X73.949 Y51.322
G0 F3600 X74.019 Y51.958
G1 F1800 X81.279 Y59.218 E44.08156
G0 X81.349 Y59.288
G0 F3600 X81.279 Y59.783
G1 F1800 X74.019 Y52.523 E44.33768
G0 X73.949 Y52.453
G0 F3600 X74.019 Y53.089
G1 F1800 X81.279 Y60.349 E44.59379
G0 X81.349 Y60.419
G0 F3600 X81.279 Y60.915
G1 F1800 X74.019 Y53.655 E44.84991
G0 X73.949 Y53.585
G0 F3600 X74.019 Y54.22
G1 F1800 X81.279 Y61.48 E45.10602
G0 X81.349 Y61.55
G0 F3600 X81.279 Y62.046
G1 F1800 X74.019 Y54.786 E45.36214
G0 X73.949 Y54.716
G0 F3600 X74.019 Y55.352
G1 F1800 X81.279 Y62.612 E45.61826
G0 X81.349 Y62.682
G0 F3600 X81.279 Y63.177
G1 F1800 X74.019 Y55.918 E45.87435
G0 X73.949 Y55.848
G0 F3600 X74.019 Y56.483
G1 F1800 X81.279 Y63.743 E46.13047
G0 X81.349 Y63.813
G0 F3600 X81.279 Y64.309
G1 F1800 X74.019 Y57.049 E46.38659
G0 X73.949 Y56.979
G0 F3600 X74.019 Y57.615
G1 F1800 X81.279 Y64.874 E46.64269
G0 X81.349 Y64.944
G0 F3600 X81.279 Y65.44
G1 F1800 X74.019 Y58.18 E46.8988
G0 X73.949 Y58.11
G0 F3600 X74.019 Y58.746
G1 F1800 X81.279 Y66.006 E47.15492
G0 X81.349 Y66.076
G0 F3600 X81.279 Y66.571
G1 F1800 X74.019 Y59.312 E47.41102
G0 X73.949 Y59.242
G0 F3600 X74.019 Y59.877
G1 F1800 X81.279 Y67.137 E47.66713
G0 X81.349 Y67.207
G0 F3600 X81.279 Y67.703
G1 F1800 X74.019 Y60.443 E47.92325
G0 X73.949 Y60.373
G0 F3600 X74.019 Y61.009
G1 F1800 X81.279 Y68.269 E48.17936
G0 X81.349 Y68.339
G0 F3600 X81.279 Y68.834
G1 F1800 X74.019 Y61.574 E48.43548
G0 X73.949 Y61.504
G0 F3600 X74.019 Y62.14
G1 F1800 X81.279 Y69.4 E48.6916
G0 X81.349 Y69.47
G0 F3600 X81.279 Y69.966
G1 F1800 X74.019 Y62.706 E48.94771
G0 X73.949 Y62.636
G0 F3600 X74.019 Y63.271
G1 F1800 X81.279 Y70.531 E49.20383
G0 X81.349 Y70.601
G0 F3600 X81.279 Y71.097
G1 F1800 X74.019 Y63.837 E49.45994
G0 X73.949 Y63.767
G0 F3600 X74.019 Y64.403
G1 F1800 X81.279 Y71.663 E49.71606
G0 X81.349 Y71.733
G0 F3600 X81.279 Y72.228
G1 F1800 X74.019 Y64.968 E49.97218
G0 X73.949 Y64.898
G0 F3600 X74.019 Y65.534
G1 F1800 X81.279 Y72.794 E50.22829
G0 X81.349 Y72.864
G0 F3600 X81.279 Y73.36
G1 F1800 X74.019 Y66.1 E50.48441
G0 X73.949 Y66.03
G0 F3600 X74.019 Y66.666
G1 F1800 X81.279 Y73.925 E50.74051
G0 X81.349 Y73.995
G0 F3600 X81.279 Y74.491
G1 F1800 X74.019 Y67.231 E50.99662
G0 X73.949 Y67.161
G0 F3600 X74.019 Y67.797
G1 F1800 X81.279 Y75.057 E51.25274
G0 X81.349 Y75.127
G0 F3600 X81.279 Y75.622
G1 F1800 X74.019 Y68.363 E51.50884
G0 X73.949 Y68.293
G0 F3600 X74.019 Y68.928
G1 F1800 X81.279 Y76.188 E51.76495
G0 X81.349 Y76.258
G0 F3600 X81.279 Y76.754
G1 F1800 X74.019 Y69.494 E52.02107
G0 X73.949 Y69.424
G0 F3600 X74.019 Y70.06
G1 F1800 X81.279 Y77.32 E52.27719
G0 X81.349 Y77.39
G0 F3600 X81.279 Y77.885
G1 F1800 X74.019 Y70.625 E52.5333
G0 X73.949 Y70.555
G0 F3600 X74.019 Y71.191
G1 F1800 X81.279 Y78.451 E52.78942
G0 X81.349 Y78.521
G0 F3600 X81.279 Y79.017
G1 F1800 X74.019 Y71.757 E53.04553
G0 X73.949 Y71.687
G0 F3600 X74.019 Y72.322
G1 F1800 X81.279 Y79.582 E53.30165
G0 X81.349 Y79.652
G0 F3600 X81.279 Y80.148
G1 F1800 X74.019 Y72.888 E53.55777
G0 X73.949 Y72.818
G0 F3600 X74.019 Y73.454
G1 F1800 X81.279 Y80.714 E53.81388
G0 X81.349 Y80.784
G0 F3600 X81.279 Y81.279
G1 F1800 X74.019 Y74.019 E54.07
G0 X73.949 Y73.949
G0 F3600 X74.019 Y74.585
G1 F1800 X81.279 Y81.845 E54.32612
G0 X81.349 Y81.915
G0 F3600 X81.279 Y82.411
G1 F1800 X74.019 Y75.151 E54.58223
G0 X73.949 Y75.081
G0 F3600 X74.019 Y75.716
G1 F1800 X81.279 Y82.976 E54.83835
G0 X81.349 Y83.046
G0 F3600 X81.279 Y83.542
G1 F1800 X74.019 Y76.282 E55.09446
G0 X73.949 Y76.212
G0 F3600 X74.019 Y76.848
G1 F1800 X81.279 Y84.108 E55.35058
G0 X81.349 Y84.178
G0 F3600 X81.279 Y84.673
G1 F1800 X74.019 Y77.414 E55.60668
G0 X73.949 Y77.344
G0 F3600 X74.019 Y77.979
G1 F1800 X81.279 Y85.239 E55.86279
G0 X81.349 Y85.309
G0 F3600 X81.279 Y85.805
G1 F1800 X74.019 Y78.545 E56.11891
G0 X73.949 Y78.475
G0 F3600 X74.019 Y79.111
G1 F1800 X81.279 Y86.37 E56.37501
G0 X81.349 Y86.44
G0 F3600 X81.279 Y86.936
G1 F1800 X74.019 Y79.676 E56.63113
G0 X73.949 Y79.606
G0 F3600 X74.019 Y80.242
G1 F1800 X81.279 Y87.502 E56.88724
G0 X81.349 Y87.572
G0 F3600 X81.279 Y88.068
G1 F1800 X74.019 Y80.808 E57.14336
G0 X73.949 Y80.738
G0 F3600 X74.019 Y81.373
G1 F1800 X81.279 Y88.633 E57.39947
G0 X81.349 Y88.703
G0 F3600 X81.279 Y89.199
G1 F1800 X74.019 Y81.939 E57.65559
G0 X73.949 Y81.869
G0 F3600 X74.019 Y82.505
G1 F1800 X81.279 Y89.765 E57.91171
G0 X81.349 Y89.835
G0 F3600 X81.279 Y90.33
G1 F1800 X74.019 Y83.07 E58.16782
G0 X73.949 Y83
G0 F3600 X74.019 Y83.636
G1 F1800 X81.279 Y90.896 E58.42394
G0 X81.349 Y90.966
G0 F3600 X81.279 Y91.462
G1 F1800 X74.019 Y84.202 E58.68005
G0 X73.949 Y84.132
G0 F3600 X74.019 Y84.767
G1 F1800 X81.279 Y92.027 E58.93617
G0 X81.349 Y92.097
G0 F3600 X81.279 Y92.593
G1 F1800 X74.019 Y85.333 E59.19229
G0 X73.949 Y85.263
G0 F3600 X74.019 Y85.899
G1 F1800 X81.279 Y93.159 E59.4484
G0 X81.349 Y93.229
G0 F3600 X81.279 Y93.724
G1 F1800 X74.019 Y86.465 E59.7045
G0 X73.949 Y86.395
G0 F3600 X74.019 Y87.03
G1 F1800 X82.341 Y95.352 E59.99808
G0 X82.411 Y95.422
G0 F3600 X81.776 Y95.352
G1 F1800 X74.019 Y87.596 E60.27171
G0 X73.949 Y87.526
G0 F3600 X74.019 Y88.162
G1 F1800 X81.279 Y95.421 E60.52781
G0 X81.349 Y95.491
G0 F3600 X81.279 Y95.987
G1 F1800 X74.019 Y88.727 E60.78393
G0 X73.949 Y88.657
G0 F3600 X74.019 Y89.293
G1 F1800 X81.279 Y96.553 E61.04004
G0 X81.349 Y96.623
G0 F3600 X81.279 Y97.118
G1 F1800 X74.019 Y89.859 E61.29614
G0 X73.949 Y89.789
G0 F3600 X74.019 Y90.424
G1 F1800 X81.279 Y97.684 E61.55226
G0 X81.349 Y97.754
G0 F3600 X81.279 Y98.25
G1 F1800 X74.019 Y90.99 E61.80837
G0 X73.949 Y90.92
G0 F3600 X74.019 Y91.556
G1 F1800 X81.279 Y98.816 E62.06449
G0 X81.349 Y98.886
G0 F3600 X81.279 Y99.381
G1 F1800 X74.019 Y92.121 E62.32061
G0 X73.949 Y92.051
G0 F3600 X74.019 Y92.687
G1 F1800 X81.279 Y99.947 E62.57672
G0 X81.349 Y100.017
G0 F3600 X81.279 Y100.513
G1 F1800 X74.019 Y93.253 E62.83284
G0 X73.949 Y93.183
G0 F3600 X74.019 Y93.818
G1 F1800 X81.279 Y101.078 E63.08896
G0 X81.349 Y101.148
G0 F3600 X81.279 Y101.644
G1 F1800 X74.019 Y94.384 E63.34507
G0 X73.949 Y94.314
G0 F3600 X74.019 Y94.95
G1 F1800 X81.279 Y102.21 E63.60119
G0 X81.349 Y102.28
G0 F3600 X81.279 Y102.775
G1 F1800 X74.019 Y95.515 E63.8573
G0 X73.949 Y95.445
G0 F3600 X74.019 Y96.081
G1 F1800 X81.279 Y103.341 E64.11342
G0 X81.349 Y103.411
G0 F3600 X81.279 Y103.907
G1 F1800 X74.019 Y96.647 E64.36954
G0 X73.949 Y96.577
G0 F3600 X74.019 Y97.213
G1 F1800 X81.279 Y104.472 E64.62563
G0 X81.349 Y104.542
G0 F3600 X81.279 Y105.038
G1 F1800 X74.019 Y97.778 E64.88175
