; generated by Slic3r 1.2.9 on 2017-02-06 at 14:51:20

; external perimeters extrusion width = 0.60mm
; perimeters extrusion width = 0.67mm
; infill extrusion width = 0.67mm
; solid infill extrusion width = 0.67mm
; top infill extrusion width = 0.67mm
; support material extrusion width = 0.40mm

M107
M190 S65 ; set bed temperature
M104 S205 ; set temperature
G28 ; home all axes
G1 Z5 F5000 ; lift nozzle
M92 X80
M92 Y80
M92 Z2565

M109 S205 ; wait for temperature to be reached
G21 ; set units to millimeters
G90 ; use absolute coordinates
M82 ; use absolute distances for extrusion
G92 E0
G1 Z0.350 F7800.000
G1 E-0.80000 F2400.00000
G92 E0
G1 X77.825 Y88.785 F7800.000
G1 E0.80000 F2400.00000
G1 X78.773 Y88.191 E0.90173 F1800.000
G1 X83.108 Y86.423 E1.32738
G1 X84.288 Y86.183 E1.43686
G1 X85.743 Y86.163 E1.56920
G1 X115.151 Y86.163 E4.24326
G1 X116.538 Y86.185 E4.36941 F1800.000
G1 X117.947 Y86.531 E4.50132
G1 X121.460 Y88.296 E4.85882
G1 X122.668 Y89.345 E5.00430
G1 X123.064 Y90.116 E5.08307
G1 X124.715 Y94.782 E5.53315
G1 X124.901 Y95.802 E5.62747
G1 X124.953 Y98.487 E5.87160
G1 X124.954 Y104.129 E6.38464
G1 X124.757 Y105.243 E6.48747
G1 X123.053 Y109.914 E6.93960
G1 X122.152 Y111.236 E7.08508
G1 X121.240 Y111.804 E7.18273
G1 X116.911 Y113.591 E7.60861
G1 X115.671 Y113.837 E7.72359
G1 X83.518 Y113.837 E10.64727
G1 X82.045 Y113.485 E10.78493
G1 X78.528 Y111.697 E11.14372
G1 X76.958 Y109.944 E11.35766
G1 X75.254 Y105.415 E11.79770
G1 X75.046 Y104.271 E11.90346
G1 X75.046 Y98.692 E12.41070
G1 X75.182 Y95.496 E12.70156
G1 X75.365 Y94.553 E12.78893
G1 X76.937 Y90.115 E13.21698
G1 X77.792 Y88.835 E13.35701
G1 X78.352 Y89.159 F7800.000
G1 X79.009 Y88.769 E13.42645 F1800.000
G1 X83.344 Y87.002 E13.85210
G1 X84.297 Y86.808 E13.94053
G1 X85.743 Y86.788 E14.07204
G1 X115.141 Y86.788 E16.74522
G1 X116.528 Y86.810 E16.87137 F1800.000
G1 X117.666 Y87.089 E16.97792
G1 X121.179 Y88.855 E17.33541
G1 X122.474 Y90.324 E17.51354
G1 X124.126 Y94.990 E17.96361
G1 X124.276 Y95.815 E18.03980
G1 X124.329 Y98.550 E18.28860
G1 X124.329 Y104.129 E18.79585
G1 X124.170 Y105.028 E18.87891
G1 X122.466 Y109.700 E19.33104
G1 X121.002 Y111.226 E19.52337
G1 X116.673 Y113.014 E19.94926
G1 X115.671 Y113.212 E20.04213
G1 X83.518 Y113.212 E22.96581
G1 X82.328 Y112.928 E23.07700
G1 X78.811 Y111.140 E23.43579
G1 X77.543 Y109.724 E23.60859
G1 X75.839 Y105.195 E24.04863
G1 X75.671 Y104.271 E24.13405
G1 X75.671 Y98.692 E24.64130
G1 X75.807 Y95.523 E24.92968
G1 X75.955 Y94.762 E25.00026
G1 X77.526 Y90.324 E25.42831
G1 X78.318 Y89.208 E25.55274
G1 E24.75274 F2400.00000
G92 E0
G1 X81.287 Y110.362 F7800.000
G1 E0.80000 F2400.00000
G1 X79.353 Y110.362 E0.97585 F1800.000
G1 X78.438 Y109.447 E1.09353
G1 X78.438 Y106.994 E1.31654
G1 X78.251 Y106.693 E1.34880
G1 X77.543 Y106.337 E1.42088
G1 X77.485 Y106.164 E1.43750
G1 X76.733 Y105.482 E1.52982
G1 X76.338 Y104.552 E1.62170
G1 X76.360 Y103.865 E1.68416
G1 X76.794 Y103.001 E1.77212
G1 X76.811 Y102.753 E1.79473
G1 X76.297 Y101.203 E1.94321
G1 X76.794 Y100.211 E2.04407
G1 X76.811 Y99.963 E2.06668
G1 X76.297 Y98.414 E2.21516
G1 X76.927 Y97.157 E2.34300
G1 X76.944 Y96.909 E2.36560
G1 X76.429 Y95.359 E2.51408
G1 X77.523 Y93.177 E2.73604
G1 X78.202 Y92.952 E2.80103
G1 X78.438 Y92.624 E2.83775
G1 X78.438 Y90.553 E3.02610
G1 X79.353 Y89.638 E3.14378
G1 X81.885 Y89.638 E3.37398
G1 X82.186 Y89.451 E3.40624
G1 X82.915 Y87.997 E3.55412
G1 X84.143 Y87.589 E3.67180
G1 X84.481 Y87.758 E3.70610
G1 X84.805 Y87.744 E3.73565
G1 X85.008 Y87.619 E3.75731
G1 X85.426 Y87.500 E3.79685
G1 X87.742 Y87.500 E4.00746
G1 X87.787 Y87.525 E4.01207
G1 X88.034 Y87.554 E4.03467
G1 X88.222 Y87.500 E4.05249
G1 X90.538 Y87.500 E4.26311
G1 X90.583 Y87.525 E4.26772
G1 X90.830 Y87.554 E4.29032
G1 X91.018 Y87.500 E4.30814
G1 X93.433 Y87.500 E4.52770
G1 X93.567 Y87.470 E4.54025
G1 X93.758 Y87.380 E4.55941
G1 X94.713 Y87.601 E4.64857
G1 X94.871 Y87.597 E4.66294
G1 X95.212 Y87.500 E4.69512
G1 X97.528 Y87.500 E4.90574
G1 X97.572 Y87.525 E4.91034
G1 X97.819 Y87.554 E4.93295
G1 X98.008 Y87.500 E4.95077
G1 X100.324 Y87.500 E5.16138
G1 X100.368 Y87.525 E5.16599
G1 X100.615 Y87.554 E5.18860
G1 X100.804 Y87.500 E5.20642
G1 X103.195 Y87.500 E5.42388
G1 X103.337 Y87.467 E5.43708
G1 X103.490 Y87.390 E5.45270
G1 X104.569 Y87.588 E5.55242
G1 X104.713 Y87.581 E5.56548
G1 X104.998 Y87.500 E5.59243
G1 X107.314 Y87.500 E5.80304
G1 X107.358 Y87.525 E5.80765
G1 X107.605 Y87.554 E5.83026
G1 X107.794 Y87.500 E5.84807
G1 X110.110 Y87.500 E6.05869
G1 X110.154 Y87.525 E6.06330
G1 X110.401 Y87.554 E6.08590
G1 X110.590 Y87.500 E6.10372
G1 X112.976 Y87.500 E6.32070
G1 X113.189 Y87.428 E6.34117
G1 X114.439 Y87.572 E6.45555
G1 X114.557 Y87.564 E6.46637
G1 X114.809 Y87.495 E6.49006
G1 X117.114 Y87.531 E6.69966
G1 X117.813 Y87.932 E6.77295
G1 X118.432 Y88.952 E6.88142
G1 X118.445 Y89.289 E6.91210
G1 X118.808 Y89.638 E6.95783
G1 X120.647 Y89.638 E7.12506
G1 X121.562 Y90.553 E7.24274
G1 X121.562 Y92.998 E7.46503
G1 X121.749 Y93.299 E7.49729
G1 X122.473 Y93.663 E7.57099
G1 X122.603 Y94.052 E7.60834
G1 X122.751 Y94.233 E7.62959
G1 X122.965 Y94.352 E7.65184
G1 X123.595 Y95.375 E7.76108
G1 X123.630 Y96.186 E7.83486
G1 X123.248 Y96.949 E7.91249
G1 X123.285 Y97.311 E7.94560
G1 X123.616 Y97.730 E7.99418
G1 X123.616 Y101.471 E8.33434
G1 X123.535 Y101.908 E8.37474
G1 X123.473 Y102.079 E8.39126
G1 X123.199 Y102.624 E8.44672
G1 X123.230 Y102.976 E8.47883
G1 X123.632 Y103.519 E8.54029
G1 X123.708 Y104.399 E8.62057
G1 X122.493 Y106.823 E8.86713
G1 X121.798 Y107.054 E8.93365
G1 X121.562 Y107.381 E8.97036
G1 X121.562 Y109.447 E9.15823
G1 X120.647 Y110.362 E9.27591
G1 X118.131 Y110.362 E9.50467
G1 X117.829 Y110.549 E9.53693
G1 X117.090 Y112.023 E9.68688
G1 X115.862 Y112.431 E9.80456
G1 X115.513 Y112.256 E9.84014
G1 X115.188 Y112.270 E9.86969
G1 X115.008 Y112.381 E9.88892
G1 X114.590 Y112.500 E9.92845
G1 X112.273 Y112.500 E10.13907
G1 X112.229 Y112.475 E10.14368
G1 X111.982 Y112.446 E10.16628
G1 X111.794 Y112.500 E10.18410
G1 X109.478 Y112.500 E10.39471
G1 X109.433 Y112.475 E10.39932
G1 X109.186 Y112.446 E10.42193
G1 X108.998 Y112.500 E10.43975
G1 X106.682 Y112.500 E10.65036
G1 X106.637 Y112.475 E10.65497
G1 X106.390 Y112.446 E10.67757
G1 X106.202 Y112.500 E10.69539
G1 X103.886 Y112.500 E10.90601
G1 X103.841 Y112.475 E10.91062
G1 X103.594 Y112.446 E10.93322
G1 X103.406 Y112.500 E10.95104
G1 X101.090 Y112.500 E11.16165
G1 X101.045 Y112.475 E11.16626
G1 X100.799 Y112.446 E11.18887
G1 X100.610 Y112.500 E11.20669
G1 X98.294 Y112.500 E11.41730
G1 X98.250 Y112.475 E11.42191
G1 X98.003 Y112.446 E11.44451
G1 X97.814 Y112.500 E11.46233
G1 X95.498 Y112.500 E11.67295
G1 X95.454 Y112.475 E11.67756
G1 X95.207 Y112.446 E11.70016
G1 X95.018 Y112.500 E11.71798
G1 X92.702 Y112.500 E11.92859
G1 X92.658 Y112.475 E11.93320
G1 X92.411 Y112.446 E11.95581
G1 X92.222 Y112.500 E11.97363
G1 X89.906 Y112.500 E12.18424
G1 X89.862 Y112.475 E12.18885
G1 X89.615 Y112.446 E12.21145
G1 X89.426 Y112.500 E12.22927
G1 X87.110 Y112.500 E12.43989
G1 X87.066 Y112.475 E12.44450
G1 X86.819 Y112.446 E12.46710
G1 X86.630 Y112.500 E12.48492
G1 X84.314 Y112.500 E12.69553
G1 X84.136 Y112.401 E12.71403
G1 X83.875 Y112.376 E12.73795
G1 X83.709 Y112.431 E12.75381
G1 X81.926 Y111.537 E12.93514
G1 X81.614 Y110.598 E13.02511
G1 X81.335 Y110.397 E13.05637
G1 X81.738 Y109.737 F7800.000
G1 X79.612 Y109.737 E13.24968 F1800.000
G1 X79.063 Y109.188 E13.32029
G1 X79.063 Y106.609 E13.55484
G1 X78.876 Y106.307 E13.58710
G1 X78.054 Y105.895 E13.67073
G1 X77.977 Y105.664 E13.69288
G1 X77.763 Y105.452 E13.72027
G1 X77.560 Y105.389 E13.73960
G1 X77.254 Y105.112 E13.77708
G1 X76.967 Y104.434 E13.84397
G1 X76.980 Y104.023 E13.88145
G1 X77.678 Y102.630 E14.02312
G1 X77.515 Y102.138 E14.07019
G1 X77.216 Y101.988 E14.10062
G1 X76.971 Y101.252 E14.17123
G1 X77.678 Y99.840 E14.31475
G1 X77.515 Y99.349 E14.36182
G1 X77.216 Y99.199 E14.39225
G1 X76.971 Y98.462 E14.46286
G1 X77.811 Y96.786 E14.63337
G1 X77.648 Y96.295 E14.68044
G1 X77.349 Y96.145 E14.71087
G1 X77.104 Y95.408 E14.78148
G1 X77.966 Y93.688 E14.95636
G1 X78.826 Y93.403 E15.03881
G1 X79.063 Y93.075 E15.07553
G1 X79.063 Y90.812 E15.28133
G1 X79.612 Y90.263 E15.35194
G1 X82.270 Y90.263 E15.59369
G1 X82.572 Y90.076 E15.62595
G1 X83.358 Y88.509 E15.78538
G1 X84.095 Y88.264 E15.85598
G1 X84.512 Y88.473 E15.89844
G1 X84.837 Y88.459 E15.92800
G1 X85.262 Y88.196 E15.97344
G1 X85.513 Y88.125 E15.99717
G1 X87.580 Y88.125 E16.18509
G1 X87.708 Y88.197 E16.19846
G1 X87.955 Y88.226 E16.22107
G1 X88.309 Y88.125 E16.25452
G1 X90.376 Y88.125 E16.44244
G1 X90.504 Y88.197 E16.45581
G1 X90.751 Y88.226 E16.47842
G1 X91.105 Y88.125 E16.51187
G1 X93.172 Y88.125 E16.69979
G1 X93.239 Y88.163 E16.70681
G1 X93.541 Y88.173 E16.73427
G1 X93.828 Y88.038 E16.76315
G1 X94.773 Y88.256 E16.85130
G1 X95.017 Y88.216 E16.87374
G1 X95.299 Y88.125 E16.90071
G1 X97.366 Y88.125 E17.08864
G1 X97.494 Y88.197 E17.10201
G1 X97.741 Y88.226 E17.12461
G1 X98.095 Y88.125 E17.15806
G1 X100.162 Y88.125 E17.34599
G1 X100.290 Y88.197 E17.35936
G1 X100.537 Y88.226 E17.38196
G1 X100.891 Y88.125 E17.41541
G1 X102.958 Y88.125 E17.60334
G1 X103.022 Y88.161 E17.61001
G1 X103.331 Y88.168 E17.63816
G1 X103.583 Y88.043 E17.66373
G1 X104.600 Y88.229 E17.75774
G1 X104.743 Y88.222 E17.77081
G1 X105.085 Y88.125 E17.80308
G1 X107.151 Y88.125 E17.99101
G1 X107.280 Y88.197 E18.00438
G1 X107.527 Y88.226 E18.02698
G1 X107.881 Y88.125 E18.06043
G1 X109.947 Y88.125 E18.24836
G1 X110.076 Y88.197 E18.26173
G1 X110.323 Y88.226 E18.28433
G1 X110.677 Y88.125 E18.31778
G1 X112.743 Y88.125 E18.50571
G1 X112.815 Y88.165 E18.51321
G1 X113.136 Y88.167 E18.54237
G1 X113.313 Y88.072 E18.56068
G1 X114.486 Y88.207 E18.66807
G1 X114.605 Y88.198 E18.67889
G1 X114.887 Y88.122 E18.70548
G1 X116.943 Y88.154 E18.89240
G1 X117.362 Y88.394 E18.93637
G1 X117.814 Y89.139 E19.01553
G1 X117.845 Y89.914 E19.08612
G1 X118.208 Y90.263 E19.13186
G1 X120.388 Y90.263 E19.33012
G1 X120.937 Y90.812 E19.40073
G1 X120.937 Y93.383 E19.63457
G1 X121.124 Y93.685 E19.66682
G1 X121.962 Y94.105 E19.75207
G1 X122.086 Y94.479 E19.78789
G1 X122.235 Y94.659 E19.80914
G1 X122.518 Y94.818 E19.83865
G1 X122.978 Y95.565 E19.91837
G1 X122.999 Y96.051 E19.96264
G1 X122.511 Y97.025 E20.06169
G1 X122.548 Y97.387 E20.09479
G1 X122.991 Y97.948 E20.15980
G1 X122.991 Y101.435 E20.47690
G1 X122.979 Y101.543 E20.48681
G1 X122.898 Y101.831 E20.51401
G1 X122.469 Y102.687 E20.60107
G1 X122.499 Y103.039 E20.63318
G1 X123.024 Y103.749 E20.71349
G1 X123.070 Y104.277 E20.76165
G1 X122.050 Y106.312 E20.96862
G1 X121.174 Y106.603 E21.05260
G1 X120.937 Y106.930 E21.08931
G1 X120.937 Y109.188 E21.29464
G1 X120.388 Y109.737 E21.36525
G1 X117.745 Y109.737 E21.60555
G1 X117.444 Y109.924 E21.63781
G1 X116.648 Y111.512 E21.79931
G1 X115.911 Y111.756 E21.86992
G1 X115.481 Y111.541 E21.91366
G1 X115.156 Y111.555 E21.94321
G1 X114.754 Y111.804 E21.98622
G1 X114.503 Y111.875 E22.00994
G1 X112.436 Y111.875 E22.19787
G1 X112.308 Y111.803 E22.21124
G1 X112.061 Y111.774 E22.23385
G1 X111.707 Y111.875 E22.26729
G1 X109.640 Y111.875 E22.45522
G1 X109.512 Y111.803 E22.46859
G1 X109.265 Y111.774 E22.49120
G1 X108.911 Y111.875 E22.52464
G1 X106.844 Y111.875 E22.71257
G1 X106.716 Y111.803 E22.72594
G1 X106.469 Y111.774 E22.74855
G1 X106.115 Y111.875 E22.78199
G1 X104.048 Y111.875 E22.96992
G1 X103.920 Y111.803 E22.98329
G1 X103.673 Y111.774 E23.00590
G1 X103.319 Y111.875 E23.03934
G1 X101.252 Y111.875 E23.22727
G1 X101.124 Y111.803 E23.24064
G1 X100.877 Y111.774 E23.26325
G1 X100.523 Y111.875 E23.29669
G1 X98.456 Y111.875 E23.48462
G1 X98.328 Y111.803 E23.49799
G1 X98.081 Y111.774 E23.52060
G1 X97.727 Y111.875 E23.55404
G1 X95.660 Y111.875 E23.74197
G1 X95.532 Y111.803 E23.75534
G1 X95.285 Y111.774 E23.77795
G1 X94.931 Y111.875 E23.81139
G1 X92.864 Y111.875 E23.99932
G1 X92.736 Y111.803 E24.01269
G1 X92.489 Y111.774 E24.03530
G1 X92.135 Y111.875 E24.06874
G1 X90.068 Y111.875 E24.25667
G1 X89.940 Y111.803 E24.27004
G1 X89.693 Y111.774 E24.29265
G1 X89.339 Y111.875 E24.32609
G1 X87.273 Y111.875 E24.51402
G1 X87.144 Y111.803 E24.52739
G1 X86.897 Y111.774 E24.55000
G1 X86.543 Y111.875 E24.58344
G1 X84.477 Y111.875 E24.77137
G1 X84.201 Y111.721 E24.80012
G1 X83.939 Y111.696 E24.82404
G1 X83.758 Y111.756 E24.84138
G1 X82.438 Y111.095 E24.97564
G1 X82.065 Y109.974 E25.08307
G1 X81.786 Y109.772 E25.11433
G1 E24.31433 F2400.00000
G92 E0
G1 X78.517 Y102.351 F7800.000
G1 E0.80000 F2400.00000
G1 X78.354 Y101.860 E0.84707 F1800.000
G1 X77.727 Y101.546 E0.91079
G1 X77.646 Y101.300 E0.93432
G1 X78.517 Y99.562 E1.11113
G1 X78.354 Y99.071 E1.15821
G1 X77.727 Y98.757 E1.22192
G1 X77.646 Y98.511 E1.24546
G1 X78.650 Y96.507 E1.44925
G1 X78.487 Y96.016 E1.49632
G1 X77.860 Y95.702 E1.56003
G1 X77.779 Y95.456 E1.58357
G1 X78.409 Y94.200 E1.71138
G1 X78.654 Y94.118 E1.73491
G1 X79.094 Y94.339 E1.77968
G1 X79.688 Y93.973 E1.84308
G1 X79.688 Y91.071 E2.10696
G1 X79.871 Y90.888 E2.13049
G1 X82.656 Y90.888 E2.38379
G1 X82.958 Y90.701 E2.41604
G1 X83.801 Y89.020 E2.58701
G1 X84.046 Y88.939 E2.61055
G1 X84.643 Y89.238 E2.67129
G1 X85.055 Y89.162 E2.70940
G1 X85.273 Y88.924 E2.73875
G1 X85.516 Y88.774 E2.76472
G1 X85.600 Y88.750 E2.77263
G1 X87.417 Y88.750 E2.93787
G1 X87.736 Y88.928 E2.97101
G1 X88.075 Y88.920 E3.00191
G1 X88.312 Y88.774 E3.02724
G1 X88.396 Y88.750 E3.03514
G1 X90.213 Y88.750 E3.20039
G1 X90.532 Y88.928 E3.23353
G1 X90.871 Y88.920 E3.26443
G1 X91.108 Y88.774 E3.28975
G1 X91.192 Y88.750 E3.29766
G1 X93.009 Y88.750 E3.46291
G1 X93.215 Y88.865 E3.48431
G1 X93.517 Y88.875 E3.51178
G1 X93.899 Y88.695 E3.55016
G1 X94.883 Y88.922 E3.64199
G1 X95.126 Y88.882 E3.66443
G1 X95.302 Y88.774 E3.68323
G1 X95.386 Y88.750 E3.69114
G1 X97.203 Y88.750 E3.85639
G1 X97.521 Y88.928 E3.88953
G1 X97.861 Y88.920 E3.92043
G1 X98.098 Y88.774 E3.94575
G1 X98.182 Y88.750 E3.95366
G1 X99.999 Y88.750 E4.11890
G1 X100.317 Y88.928 E4.15204
G1 X100.657 Y88.920 E4.18294
G1 X100.894 Y88.774 E4.20826
G1 X100.978 Y88.750 E4.21617
G1 X102.795 Y88.750 E4.38142
G1 X103.005 Y88.867 E4.40330
G1 X103.315 Y88.874 E4.43145
G1 X103.675 Y88.695 E4.46807
G1 X104.397 Y88.827 E4.53477
G1 X104.419 Y88.851 E4.53781
G1 X104.864 Y88.912 E4.57859
G1 X105.088 Y88.774 E4.60256
G1 X105.172 Y88.750 E4.61047
G1 X106.989 Y88.750 E4.77571
G1 X107.307 Y88.928 E4.80885
G1 X107.647 Y88.920 E4.83975
G1 X107.884 Y88.774 E4.86508
G1 X107.968 Y88.750 E4.87298
G1 X109.785 Y88.750 E5.03823
G1 X110.103 Y88.928 E5.07137
G1 X110.443 Y88.920 E5.10227
G1 X110.680 Y88.774 E5.12759
G1 X110.764 Y88.750 E5.13550
G1 X112.581 Y88.750 E5.30074
G1 X112.811 Y88.878 E5.32468
G1 X113.131 Y88.880 E5.35383
G1 X113.437 Y88.715 E5.38545
G1 X114.119 Y88.794 E5.44789
G1 X114.222 Y88.885 E5.46040
G1 X114.632 Y88.922 E5.49777
G1 X114.881 Y88.771 E5.52425
G1 X114.966 Y88.748 E5.53227
G1 X116.772 Y88.776 E5.69651
G1 X116.912 Y88.856 E5.71117
G1 X117.196 Y89.325 E5.76101
G1 X117.202 Y89.486 E5.77567
G1 X116.797 Y90.294 E5.85790
G1 X117.163 Y90.888 E5.92129
G1 X120.129 Y90.888 E6.19099
G1 X120.312 Y91.071 E6.21452
G1 X120.312 Y93.769 E6.45990
G1 X120.499 Y94.071 E6.49215
G1 X121.450 Y94.548 E6.58894
G1 X121.569 Y94.906 E6.62325
G1 X121.718 Y95.086 E6.64449
G1 X122.071 Y95.284 E6.68125
G1 X122.360 Y95.754 E6.73146
G1 X122.367 Y95.916 E6.74622
G1 X121.640 Y97.367 E6.89380
G1 X121.896 Y97.915 E6.94880
G1 X122.232 Y97.994 E6.98016
G1 X122.366 Y98.165 E6.99991
G1 X122.362 Y101.435 E7.29724
G1 X122.323 Y101.584 E7.31125
G1 X121.664 Y102.899 E7.44499
G1 X121.857 Y103.411 E7.49480
G1 X122.056 Y103.491 E7.51429
G1 X122.417 Y103.979 E7.56944
G1 X122.432 Y104.155 E7.58550
G1 X121.607 Y105.800 E7.75287
G1 X121.362 Y105.882 E7.77640
G1 X120.906 Y105.653 E7.82279
G1 X120.312 Y106.019 E7.88618
G1 X120.312 Y108.929 E8.15079
G1 X120.129 Y109.112 E8.17432
G1 X117.360 Y109.112 E8.42617
G1 X117.058 Y109.299 E8.45843
G1 X116.205 Y111.000 E8.63147
G1 X115.960 Y111.082 E8.65501
G1 X115.357 Y110.780 E8.71634
G1 X114.944 Y110.856 E8.75444
G1 X114.742 Y111.076 E8.78164
G1 X114.499 Y111.226 E8.80761
G1 X114.416 Y111.250 E8.81552
G1 X112.598 Y111.250 E8.98077
G1 X112.280 Y111.072 E9.01391
