; generated by Slic3r 1.2.9 on 2017-02-06 at 14:49:36

; external perimeters extrusion width = 0.60mm
; perimeters extrusion width = 0.67mm
; infill extrusion width = 0.67mm
; solid infill extrusion width = 0.67mm
; top infill extrusion width = 0.67mm
; support material extrusion width = 0.40mm

M107
M190 S65 ; set bed temperature
M104 S205 ; set temperature
G28 ; home all axes
G1 Z5 F5000 ; lift nozzle
M92 X80
M92 Y80
M92 Z2565

M109 S205 ; wait for temperature to be reached
G21 ; set units to millimeters
G90 ; use absolute coordinates
M82 ; use absolute distances for extrusion
G92 E0
G1 Z0.350 F7800.000
G1 E-0.80000 F2400.00000
G92 E0
G1 X82.689 Y88.916 F7800.000
G1 E0.80000 F2400.00000
G1 X84.117 Y88.072 E0.95084 F1800.000
G1 X90.450 Y86.285 E1.54918
G1 X91.333 Y86.163 E1.63022
G1 X110.904 Y86.163 E3.40985
G1 X112.204 Y86.434 E3.53061
G1 X116.300 Y88.222 E3.93695 F1800.000
G1 X117.919 Y89.772 E4.14080
G1 X119.597 Y93.201 E4.48792
G1 X119.927 Y94.598 E4.61841
G1 X119.954 Y97.366 E4.87010
G1 X119.954 Y102.944 E5.37735
G1 X119.824 Y103.852 E5.46075
G1 X118.120 Y109.708 E6.01532
G1 X117.309 Y111.087 E6.16080
G1 X116.109 Y111.855 E6.29032
G1 X111.186 Y113.642 E6.76655
G1 X110.077 Y113.837 E6.86896
G1 X89.108 Y113.837 E8.77571
G1 X87.811 Y113.567 E8.89616
G1 X83.703 Y111.780 E9.30349
G1 X82.082 Y110.231 E9.50732
G1 X80.408 Y106.819 E9.85294
G1 X80.076 Y105.423 E9.98337
G1 X80.046 Y102.658 E10.23482
G1 X80.046 Y97.080 E10.74206
G1 X80.175 Y96.175 E10.82514
G1 X81.879 Y90.295 E11.38179
G1 X82.658 Y88.967 E11.52181
G1 X83.236 Y89.258 F7800.000
G1 X84.287 Y88.674 E11.63113 F1800.000
G1 X90.620 Y86.886 E12.22947
G1 X91.333 Y86.788 E12.29493
G1 X110.904 Y86.788 E14.07456
G1 X111.954 Y87.007 E14.17209
G1 X116.050 Y88.794 E14.57844 F1800.000
G1 X117.358 Y90.047 E14.74308
G1 X119.035 Y93.476 E15.09020
G1 X119.302 Y94.604 E15.19561
G1 X119.329 Y97.366 E15.44675
G1 X119.329 Y102.944 E15.95400
G1 X119.224 Y103.677 E16.02136
G1 X117.520 Y109.533 E16.57593
G1 X116.758 Y110.749 E16.70643
G1 X115.896 Y111.267 E16.79787
G1 X110.973 Y113.055 E17.27411
G1 X110.077 Y113.212 E17.35682
G1 X89.108 Y113.212 E19.26357
G1 X88.060 Y112.994 E19.36086
G1 X83.953 Y111.207 E19.76819
G1 X82.643 Y109.956 E19.93283
G1 X80.969 Y106.544 E20.27845
G1 X80.701 Y105.416 E20.38380
G1 X80.671 Y102.658 E20.63462
G1 X80.671 Y97.080 E21.14187
G1 X80.775 Y96.349 E21.20897
G1 X82.479 Y90.469 E21.76562
G1 X83.205 Y89.309 E21.89005
G1 E21.09005 F2400.00000
G92 E0
G1 X86.877 Y110.362 F7800.000
G1 E0.80000 F2400.00000
G1 X84.353 Y110.362 E1.02949 F1800.000
G1 X83.438 Y109.447 E1.14717
G1 X83.438 Y107.655 E1.31015
G1 X83.166 Y107.313 E1.34983
G1 X82.101 Y107.067 E1.44924
G1 X81.423 Y106.225 E1.54759
G1 X81.382 Y102.544 E1.88224
G1 X81.402 Y102.360 E1.89915
G1 X81.463 Y102.097 E1.92367
G1 X81.526 Y101.922 E1.94058
G1 X81.752 Y101.470 E1.98651
G1 X81.715 Y101.108 E2.01962
G1 X81.384 Y100.689 E2.06820
G1 X81.384 Y96.948 E2.40837
G1 X81.405 Y96.768 E2.42488
G1 X81.527 Y96.341 E2.46528
G1 X83.084 Y93.234 E2.78124
G1 X83.202 Y93.195 E2.79246
G1 X83.438 Y92.868 E2.82917
G1 X83.438 Y90.553 E3.03968
G1 X84.353 Y89.638 E3.15736
G1 X88.872 Y89.638 E3.56832
G1 X89.174 Y89.451 E3.60057
G1 X89.765 Y88.272 E3.72049
G1 X90.059 Y87.952 E3.76003
G1 X90.598 Y87.619 E3.81763
G1 X91.016 Y87.500 E3.85717
G1 X93.332 Y87.500 E4.06778
G1 X93.377 Y87.525 E4.07239
G1 X93.623 Y87.554 E4.09499
G1 X93.812 Y87.500 E4.11281
G1 X96.128 Y87.500 E4.32343
G1 X96.173 Y87.525 E4.32803
G1 X96.419 Y87.554 E4.35064
G1 X96.608 Y87.500 E4.36846
G1 X98.924 Y87.500 E4.57907
G1 X99.620 Y87.888 E4.65150
G1 X99.959 Y87.881 E4.68240
G1 X100.384 Y87.619 E4.72771
G1 X100.802 Y87.500 E4.76725
G1 X103.118 Y87.500 E4.97786
G1 X103.162 Y87.525 E4.98247
G1 X103.409 Y87.554 E5.00508
G1 X103.598 Y87.500 E5.02290
G1 X105.914 Y87.500 E5.23351
G1 X105.958 Y87.525 E5.23812
G1 X106.205 Y87.554 E5.26072
G1 X106.394 Y87.500 E5.27854
G1 X108.710 Y87.500 E5.48916
G1 X109.409 Y87.890 E5.56199
G1 X109.671 Y87.915 E5.58591
G1 X110.713 Y87.569 E5.68571
G1 X112.496 Y88.463 E5.86705
G1 X112.808 Y89.402 E5.95701
G1 X113.135 Y89.638 E5.99373
G1 X115.647 Y89.638 E6.22214
G1 X116.562 Y90.553 E6.33982
G1 X116.562 Y92.615 E6.52737
G1 X116.749 Y92.917 E6.55962
G1 X118.269 Y93.679 E6.71426
G1 X118.677 Y94.907 E6.83194
G1 X118.248 Y95.764 E6.91908
G1 X118.285 Y96.126 E6.95219
G1 X118.616 Y96.545 E7.00077
G1 X118.616 Y100.286 E7.34093
G1 X118.535 Y100.723 E7.38133
G1 X118.473 Y100.894 E7.39785
G1 X118.225 Y101.387 E7.44803
G1 X118.307 Y101.806 E7.48684
G1 X118.569 Y102.035 E7.51840
G1 X118.774 Y103.082 E7.61543
G1 X116.916 Y106.789 E7.99254
G1 X116.798 Y106.828 E8.00376
G1 X116.562 Y107.156 E8.04048
G1 X116.562 Y109.447 E8.24882
G1 X115.647 Y110.362 E8.36650
G1 X112.537 Y110.362 E8.64926
G1 X112.236 Y110.549 E8.68152
G1 X111.497 Y112.023 E8.83147
G1 X110.268 Y112.431 E8.94915
G1 X109.919 Y112.256 E8.98473
G1 X109.594 Y112.270 E9.01428
G1 X109.414 Y112.381 E9.03351
G1 X108.996 Y112.500 E9.07304
G1 X106.680 Y112.500 E9.28366
G1 X106.635 Y112.475 E9.28826
G1 X106.388 Y112.446 E9.31087
G1 X106.200 Y112.500 E9.32869
G1 X103.884 Y112.500 E9.53930
G1 X103.839 Y112.475 E9.54391
G1 X103.592 Y112.446 E9.56652
G1 X103.404 Y112.500 E9.58434
G1 X101.088 Y112.500 E9.79495
G1 X101.043 Y112.475 E9.79956
G1 X100.797 Y112.446 E9.82216
G1 X100.608 Y112.500 E9.83998
G1 X98.292 Y112.500 E10.05060
G1 X98.248 Y112.475 E10.05520
G1 X98.001 Y112.446 E10.07781
G1 X97.812 Y112.500 E10.09563
G1 X95.496 Y112.500 E10.30624
G1 X95.452 Y112.475 E10.31085
G1 X95.205 Y112.446 E10.33346
G1 X95.016 Y112.500 E10.35127
G1 X92.700 Y112.500 E10.56189
G1 X92.656 Y112.475 E10.56650
G1 X92.409 Y112.446 E10.58910
G1 X92.220 Y112.500 E10.60692
G1 X89.904 Y112.500 E10.81754
G1 X89.726 Y112.401 E10.83604
G1 X89.464 Y112.376 E10.85995
G1 X89.299 Y112.431 E10.87581
G1 X87.516 Y111.537 E11.05714
G1 X87.204 Y110.598 E11.14711
G1 X86.925 Y110.397 E11.17837
G1 X87.328 Y109.737 F7800.000
G1 X84.612 Y109.737 E11.42532 F1800.000
G1 X84.063 Y109.188 E11.49593
G1 X84.063 Y107.158 E11.68057
G1 X83.791 Y106.816 E11.72026
G1 X82.452 Y106.507 E11.84520
G1 X82.045 Y106.001 E11.90420
G1 X82.008 Y102.575 E12.21581
G1 X82.064 Y102.274 E12.24366
G1 X82.101 Y102.169 E12.25381
G1 X82.489 Y101.395 E12.33254
G1 X82.452 Y101.032 E12.36564
G1 X82.009 Y100.472 E12.43064
G1 X82.021 Y96.876 E12.75759
G1 X82.102 Y96.588 E12.78480
G1 X83.527 Y93.746 E13.07391
G1 X83.826 Y93.646 E13.10259
G1 X84.063 Y93.319 E13.13931
G1 X84.063 Y90.812 E13.36727
G1 X84.612 Y90.263 E13.43788
G1 X89.258 Y90.263 E13.86039
G1 X89.560 Y90.076 E13.89264
G1 X90.285 Y88.630 E14.03973
G1 X90.461 Y88.438 E14.06345
G1 X90.852 Y88.196 E14.10524
G1 X91.103 Y88.125 E14.12896
G1 X93.170 Y88.125 E14.31689
G1 X93.298 Y88.197 E14.33026
G1 X93.545 Y88.226 E14.35286
G1 X93.899 Y88.125 E14.38631
G1 X95.966 Y88.125 E14.57424
G1 X96.094 Y88.197 E14.58761
G1 X96.341 Y88.226 E14.61021
G1 X96.695 Y88.125 E14.64366
G1 X98.762 Y88.125 E14.83159
G1 X99.187 Y88.363 E14.87592
G1 X99.371 Y88.660 E14.90767
G1 X99.990 Y88.718 E14.96424
G1 X100.247 Y88.438 E14.99880
G1 X100.638 Y88.196 E15.04059
G1 X100.889 Y88.125 E15.06431
G1 X102.956 Y88.125 E15.25224
G1 X103.084 Y88.197 E15.26561
G1 X103.331 Y88.226 E15.28821
G1 X103.685 Y88.125 E15.32166
G1 X105.751 Y88.125 E15.50959
G1 X105.880 Y88.197 E15.52296
G1 X106.127 Y88.226 E15.54556
G1 X106.481 Y88.125 E15.57901
G1 X108.547 Y88.125 E15.76694
G1 X108.973 Y88.363 E15.81127
G1 X109.139 Y88.631 E15.83997
G1 X109.872 Y88.599 E15.90671
G1 X109.927 Y88.488 E15.91792
G1 X110.664 Y88.244 E15.98853
G1 X111.984 Y88.905 E16.12278
G1 X112.357 Y90.026 E16.23021
G1 X112.684 Y90.263 E16.26693
G1 X115.388 Y90.263 E16.51280
G1 X115.937 Y90.812 E16.58340
G1 X115.937 Y93.001 E16.78250
G1 X116.124 Y93.303 E16.81475
G1 X117.758 Y94.122 E16.98093
G1 X118.002 Y94.859 E17.05154
G1 X117.511 Y95.840 E17.15132
G1 X117.548 Y96.202 E17.18443
G1 X117.991 Y96.763 E17.24943
G1 X117.991 Y100.250 E17.56653
G1 X117.979 Y100.358 E17.57644
G1 X117.898 Y100.646 E17.60365
G1 X117.450 Y101.539 E17.69446
G1 X117.532 Y101.958 E17.73328
G1 X117.996 Y102.364 E17.78937
G1 X118.120 Y102.993 E17.84759
G1 X116.473 Y106.278 E18.18175
G1 X116.174 Y106.378 E18.21043
G1 X115.937 Y106.705 E18.24715
G1 X115.937 Y109.188 E18.47295
G1 X115.388 Y109.737 E18.54356
G1 X112.152 Y109.737 E18.83786
G1 X111.850 Y109.924 E18.87012
G1 X111.054 Y111.512 E19.03162
G1 X110.317 Y111.756 E19.10223
G1 X109.887 Y111.541 E19.14596
G1 X109.562 Y111.555 E19.17552
G1 X109.160 Y111.804 E19.21853
G1 X108.909 Y111.875 E19.24225
G1 X106.842 Y111.875 E19.43018
G1 X106.714 Y111.803 E19.44355
G1 X106.467 Y111.774 E19.46616
G1 X106.113 Y111.875 E19.49960
G1 X104.046 Y111.875 E19.68753
G1 X103.918 Y111.803 E19.70090
G1 X103.671 Y111.774 E19.72351
G1 X103.317 Y111.875 E19.75695
G1 X101.250 Y111.875 E19.94488
G1 X101.122 Y111.803 E19.95825
G1 X100.875 Y111.774 E19.98086
G1 X100.521 Y111.875 E20.01430
G1 X98.454 Y111.875 E20.20223
G1 X98.326 Y111.803 E20.21560
G1 X98.079 Y111.774 E20.23821
G1 X97.725 Y111.875 E20.27165
G1 X95.658 Y111.875 E20.45958
G1 X95.530 Y111.803 E20.47295
G1 X95.283 Y111.774 E20.49556
G1 X94.929 Y111.875 E20.52900
G1 X92.862 Y111.875 E20.71693
G1 X92.734 Y111.803 E20.73030
G1 X92.487 Y111.774 E20.75291
G1 X92.133 Y111.875 E20.78635
G1 X90.067 Y111.875 E20.97428
G1 X89.790 Y111.721 E21.00303
G1 X89.529 Y111.696 E21.02694
G1 X89.348 Y111.756 E21.04429
G1 X88.028 Y111.095 E21.17855
G1 X87.655 Y109.974 E21.28598
G1 X87.376 Y109.772 E21.31724
G1 E20.51724 F2400.00000
G92 E0
G1 X83.360 Y101.052 F7800.000
G1 E0.80000 F2400.00000
G1 X83.104 Y100.504 E0.85500 F1800.000
G1 X82.768 Y100.425 E0.88636
G1 X82.634 Y100.255 E0.90611
G1 X82.638 Y96.985 E1.20344
G1 X82.677 Y96.836 E1.21745
G1 X83.970 Y94.257 E1.47973
G1 X84.451 Y94.097 E1.52587
G1 X84.688 Y93.770 E1.56259
G1 X84.688 Y91.071 E1.80801
G1 X84.871 Y90.888 E1.83154
G1 X89.129 Y90.888 E2.21880
G1 X89.225 Y90.983 E2.23105
G1 X89.856 Y90.881 E2.28919
G1 X90.805 Y88.988 E2.48171
G1 X90.863 Y88.924 E2.48962
G1 X91.106 Y88.774 E2.51559
G1 X91.190 Y88.750 E2.52350
G1 X93.007 Y88.750 E2.68874
G1 X93.326 Y88.928 E2.72188
G1 X93.665 Y88.920 E2.75278
G1 X93.902 Y88.774 E2.77811
G1 X93.986 Y88.750 E2.78601
G1 X95.803 Y88.750 E2.95126
G1 X96.122 Y88.928 E2.98440
G1 X96.461 Y88.920 E3.01530
G1 X96.698 Y88.774 E3.04062
G1 X96.782 Y88.750 E3.04853
G1 X98.599 Y88.750 E3.21378
G1 X98.741 Y88.829 E3.22855
G1 X99.032 Y89.300 E3.27884
G1 X99.044 Y89.576 E3.30403
G1 X99.311 Y89.899 E3.34214
G1 X99.777 Y90.010 E3.38565
G1 X100.170 Y89.826 E3.42517
G1 X100.590 Y88.988 E3.51038
G1 X100.649 Y88.924 E3.51828
G1 X100.892 Y88.774 E3.54426
G1 X100.976 Y88.750 E3.55216
G1 X102.793 Y88.750 E3.71741
G1 X103.111 Y88.928 E3.75055
G1 X103.451 Y88.920 E3.78145
G1 X103.688 Y88.774 E3.80677
G1 X103.772 Y88.750 E3.81468
G1 X105.589 Y88.750 E3.97992
G1 X105.907 Y88.928 E4.01306
G1 X106.247 Y88.920 E4.04396
G1 X106.484 Y88.774 E4.06929
G1 X106.568 Y88.750 E4.07719
G1 X108.385 Y88.750 E4.24244
G1 X108.527 Y88.829 E4.25722
G1 X108.787 Y89.250 E4.30220
G1 X108.988 Y89.396 E4.32481
G1 X109.777 Y89.582 E4.39848
G1 X110.170 Y89.398 E4.43799
G1 X110.370 Y89.000 E4.47850
G1 X110.616 Y88.918 E4.50204
G1 X111.473 Y89.348 E4.58923
G1 X111.555 Y89.594 E4.61276
G1 X111.203 Y90.294 E4.68404
G1 X111.570 Y90.888 E4.74744
G1 X115.129 Y90.888 E5.07113
G1 X115.312 Y91.071 E5.09467
G1 X115.312 Y93.946 E5.35615
G1 X115.831 Y94.320 E5.41429
G1 X116.389 Y94.135 E5.46775
G1 X117.246 Y94.565 E5.55494
G1 X117.328 Y94.810 E5.57848
G1 X116.640 Y96.182 E5.71801
G1 X116.896 Y96.730 E5.77302
G1 X117.232 Y96.810 E5.80437
G1 X117.366 Y96.980 E5.82413
G1 X117.362 Y100.250 E6.12145
G1 X117.323 Y100.399 E6.13547
G1 X116.675 Y101.691 E6.26692
G1 X116.757 Y102.110 E6.30573
G1 X117.424 Y102.694 E6.38635
G1 X117.465 Y102.903 E6.40576
G1 X116.030 Y105.767 E6.69698
G1 X115.549 Y105.927 E6.74312
G1 X115.312 Y106.254 E6.77984
G1 X115.312 Y108.929 E7.02310
G1 X115.129 Y109.112 E7.04663
G1 X111.766 Y109.112 E7.35248
G1 X111.464 Y109.299 E7.38474
G1 X110.611 Y111.000 E7.55778
G1 X110.366 Y111.082 E7.58132
G1 X109.763 Y110.780 E7.64265
G1 X109.351 Y110.856 E7.68075
G1 X109.149 Y111.076 E7.70795
G1 X108.906 Y111.226 E7.73393
G1 X108.822 Y111.250 E7.74183
G1 X107.005 Y111.250 E7.90708
G1 X106.686 Y111.072 E7.94022
G1 X106.347 Y111.080 E7.97112
G1 X106.110 Y111.226 E7.99644
G1 X106.026 Y111.250 E8.00435
G1 X104.209 Y111.250 E8.16959
G1 X103.890 Y111.072 E8.20273
G1 X103.551 Y111.080 E8.23363
G1 X103.314 Y111.226 E8.25896
G1 X103.230 Y111.250 E8.26686
G1 X101.413 Y111.250 E8.43211
G1 X101.094 Y111.072 E8.46525
G1 X100.755 Y111.080 E8.49615
G1 X100.518 Y111.226 E8.52147
G1 X100.434 Y111.250 E8.52938
G1 X98.617 Y111.250 E8.69462
G1 X98.299 Y111.072 E8.72776
G1 X97.959 Y111.080 E8.75866
G1 X97.722 Y111.226 E8.78399
G1 X97.638 Y111.250 E8.79189
G1 X95.821 Y111.250 E8.95714
G1 X95.503 Y111.072 E8.99028
G1 X95.163 Y111.080 E9.02118
G1 X94.926 Y111.226 E9.04650
G1 X94.842 Y111.250 E9.05441
G1 X93.025 Y111.250 E9.21966
G1 X92.707 Y111.072 E9.25280
G1 X92.367 Y111.080 E9.28370
G1 X92.130 Y111.226 E9.30902
G1 X92.046 Y111.250 E9.31693
G1 X90.229 Y111.250 E9.48217
G1 X89.855 Y111.041 E9.52116
G1 X89.593 Y111.016 E9.54508
G1 X89.396 Y111.082 E9.56391
G1 X88.539 Y110.652 E9.65110
G1 X88.457 Y110.406 E9.67463
G1 X88.809 Y109.706 E9.74591
G1 X88.442 Y109.112 E9.80931
G1 X84.871 Y109.112 E10.13408
G1 X84.688 Y108.929 E10.15762
G1 X84.688 Y106.226 E10.40348
G1 X84.108 Y105.857 E10.46595
G1 X83.551 Y106.119 E10.52191
G1 X82.803 Y105.947 E10.59164
G1 X82.668 Y105.778 E10.61131
G1 X82.637 Y102.568 E10.90322
G1 X82.677 Y102.415 E10.91757
G1 X83.333 Y101.106 E11.05076
G1 E10.25076 F2400.00000
G92 E0
G1 X114.650 Y108.450 F7800.000
G1 E0.80000 F2400.00000
G1 X111.350 Y108.450 E1.10007 F1800.000
G1 X111.350 Y105.150 E1.40014
G1 X114.650 Y105.150 E1.70020
G1 X114.650 Y108.390 E1.99482
G1 X114.304 Y108.250 F7800.000
G1 X114.025 Y107.825 F7800.000
G1 X111.975 Y107.825 E2.18124 F1800.000
G1 X111.975 Y105.775 E2.36767
G1 X114.025 Y105.775 E2.55409
G1 X114.025 Y107.765 E2.73506
G1 X113.400 Y107.200 F7800.000
G1 X112.600 Y107.200 E2.80785 F1800.000
G1 X112.600 Y106.400 E2.88063
G1 X113.400 Y106.400 E2.95341
G1 X113.400 Y107.140 E3.02074
G1 E2.22074 F2400.00000
G92 E0
G1 X114.650 Y94.850 F7800.000
G1 E0.80000 F2400.00000
G1 X111.350 Y94.850 E1.10007 F1800.000
G1 X111.350 Y91.550 E1.40014
G1 X114.650 Y91.550 E1.70020
G1 X114.650 Y94.790 E1.99482
G1 X114.304 Y94.650 F7800.000
G1 X114.025 Y94.225 F7800.000
G1 X111.975 Y94.225 E2.18124 F1800.000
G1 X111.975 Y92.175 E2.36767
G1 X114.025 Y92.175 E2.55409
G1 X114.025 Y94.165 E2.73506
G1 X113.400 Y93.600 F7800.000
G1 X112.600 Y93.600 E2.80785 F1800.000
G1 X112.600 Y92.800 E2.88063
G1 X113.400 Y92.800 E2.95341
G1 X113.400 Y93.540 E3.02074
G1 E2.22074 F2400.00000
G92 E0
G1 X88.650 Y94.850 F7800.000
G1 E0.80000 F2400.00000
G1 X85.350 Y94.850 E1.10007 F1800.000
G1 X85.350 Y91.550 E1.40014
G1 X88.650 Y91.550 E1.70020
G1 X88.650 Y94.790 E1.99482
G1 X88.304 Y94.650 F7800.000
G1 X88.025 Y94.225 F7800.000
G1 X85.975 Y94.225 E2.18124 F1800.000
G1 X85.975 Y92.175 E2.36767
G1 X88.025 Y92.175 E2.55409
G1 X88.025 Y94.165 E2.73506
G1 X87.400 Y93.600 F7800.000
G1 X86.600 Y93.600 E2.80785 F1800.000
G1 X86.600 Y92.800 E2.88063
G1 X87.400 Y92.800 E2.95341
G1 X87.400 Y93.540 E3.02074
G1 E2.22074 F2400.00000
G92 E0
G1 X88.650 Y105.150 F7800.000
G1 E0.80000 F2400.00000
G1 X88.650 Y108.450 E1.10007 F1800.000
G1 X85.350 Y108.450 E1.40014
G1 X85.350 Y105.150 E1.70020
G1 X88.590 Y105.150 E1.99482
G1 X88.450 Y105.496 F7800.000
G1 X88.025 Y105.775 F7800.000
G1 X88.025 Y107.825 E2.18124 F1800.000
G1 X85.975 Y107.825 E2.36767
G1 X85.975 Y105.775 E2.55409
G1 X87.965 Y105.775 E2.73506
G1 X87.400 Y106.400 F7800.000
G1 X87.400 Y107.200 E2.80785 F1800.000
G1 X86.600 Y107.200 E2.88063
G1 X86.600 Y106.400 E2.95341
G1 X87.340 Y106.400 E3.02074
G1 Z0.350 F7800.000
G1 E2.22074 F2400.00000
G92 E0
G1 X88.021 Y104.388 F7800.000
G1 E0.80000 F2400.00000
G1 X89.154 Y102.127 E1.02990 F1800.000
G1 X89.154 Y99.338 E1.28352
G1 X86.623 Y104.388 E1.79712
