; generated by Slic3r 1.2.9 on 2017-02-06 at 14:16:03

; external perimeters extrusion width = 0.60mm
; perimeters extrusion width = 0.67mm
; infill extrusion width = 0.67mm
; solid infill extrusion width = 0.67mm
; top infill extrusion width = 0.67mm
; support material extrusion width = 0.40mm

M107
M190 S65 ; set bed temperature
M104 S205 ; set temperature
G28 ; home all axes
G1 Z5 F5000 ; lift nozzle
M92 X80
M92 Y80
M92 Z2565

M109 S205 ; wait for temperature to be reached
G21 ; set units to millimeters
G90 ; use absolute coordinates
M82 ; use absolute distances for extrusion
G92 E0
G1 Z0.350 F7800.000
G1 E-0.80000 F2400.00000
G92 E0
G1 X19.372 Y22.696 F7800.000
G1 E0.80000 F2400.00000
G1 X21.230 Y22.112 E0.97712 F1800.000
G1 X32.414 Y22.112 E1.99405
G1 X175.541 Y23.900 E15.00952 F1800.000
G1 X177.086 Y24.313 E15.15501
G1 X178.247 Y25.414 E15.30049
G1 X178.750 Y27.149 E15.46479
G1 X178.750 Y134.851 E25.25802
G1 X178.356 Y136.401 E25.40351
G1 X177.270 Y137.576 E25.54899
G1 X175.727 Y138.092 E25.69691
G1 X149.990 Y139.888 E28.04290
G1 X47.938 Y139.888 E37.32241
G1 X47.564 Y139.866 E37.35645
G1 X32.126 Y138.079 E38.76961
G1 X30.631 Y137.509 E38.91509
G1 X29.589 Y136.295 E39.06058
G1 X29.299 Y135.412 E39.14514
G1 X17.595 Y68.627 E45.31036
G1 X17.546 Y68.066 E45.36157
G1 X17.546 Y26.228 E49.16591
G1 X17.891 Y24.772 E49.30197
G1 X18.325 Y23.906 E49.39007
G1 X19.332 Y22.741 E49.53010
G1 X19.848 Y23.132 F7800.000
G1 X21.230 Y22.737 E49.66079 F1800.000
G1 X32.414 Y22.737 E50.67772
G1 X175.533 Y24.525 E63.69248 F1800.000
G1 X176.908 Y24.934 E63.82298
G1 X177.863 Y26.006 E63.95349
G1 X178.125 Y27.149 E64.06014
G1 X178.125 Y134.851 E73.85338
G1 X177.733 Y136.231 E73.98388
G1 X176.673 Y137.199 E74.11439
G1 X175.683 Y137.469 E74.20763
G1 X149.990 Y139.263 E76.54964
G1 X47.938 Y139.263 E85.82915
G1 X47.636 Y139.246 E85.85665
G1 X32.198 Y137.458 E87.26981
G1 X30.872 Y136.910 E87.40031
G1 X29.915 Y135.304 E87.57031
G1 X18.211 Y68.519 E93.73553
G1 X18.171 Y68.066 E93.77689
G1 X18.171 Y26.228 E97.58123
G1 X18.449 Y25.052 E97.69113
G1 X18.883 Y24.186 E97.77923
G1 X19.808 Y23.176 E97.90366
G1 E97.10366 F2400.00000
G92 E0
G1 X45.278 Y60.425 F7800.000
G1 E0.80000 F2400.00000
G1 X110.755 Y60.425 E6.75378 F1800.000
G1 X111.121 Y60.059 E6.80086
G1 X111.121 Y26.502 E9.85213
G1 X112.036 Y25.587 E9.96981
G1 X115.330 Y25.587 E10.26935
G1 X116.245 Y26.502 E10.38703
G1 X116.245 Y82.063 E15.43915
G1 X116.611 Y82.429 E15.48622
G1 X166.327 Y82.429 E20.00681
G1 X166.693 Y82.063 E20.05388
G1 X166.693 Y26.502 E25.10600
G1 X167.608 Y25.587 E25.22368
G1 X176.147 Y25.587 E26.00016
G1 X177.062 Y26.502 E26.11784
G1 X177.062 Y135.498 E36.02876
G1 X176.147 Y136.413 E36.14644
G1 X152.450 Y136.413 E38.30120
G1 X152.148 Y136.599 E38.33346
G1 X151.409 Y138.074 E38.48341
G1 X150.181 Y138.482 E38.60109
G1 X149.831 Y138.306 E38.63667
G1 X149.507 Y138.321 E38.66622
G1 X149.327 Y138.432 E38.68545
G1 X148.908 Y138.550 E38.72498
G1 X146.592 Y138.550 E38.93560
G1 X146.548 Y138.526 E38.94020
G1 X146.301 Y138.497 E38.96281
G1 X146.113 Y138.550 E38.98063
G1 X143.796 Y138.550 E39.19124
G1 X143.752 Y138.526 E39.19585
G1 X143.505 Y138.497 E39.21846
G1 X143.317 Y138.550 E39.23627
G1 X141.000 Y138.550 E39.44689
G1 X140.956 Y138.526 E39.45150
G1 X140.709 Y138.497 E39.47410
G1 X140.521 Y138.550 E39.49192
G1 X138.204 Y138.550 E39.70254
G1 X138.160 Y138.526 E39.70714
G1 X137.913 Y138.497 E39.72975
G1 X137.725 Y138.550 E39.74757
G1 X135.408 Y138.550 E39.95818
G1 X135.364 Y138.526 E39.96279
G1 X135.117 Y138.497 E39.98540
G1 X134.929 Y138.550 E40.00321
G1 X132.613 Y138.550 E40.21383
G1 X132.435 Y138.451 E40.23233
G1 X132.173 Y138.427 E40.25624
G1 X132.008 Y138.482 E40.27210
G1 X130.225 Y137.588 E40.45343
G1 X129.913 Y136.649 E40.54340
G1 X129.585 Y136.413 E40.58012
G1 X92.337 Y136.413 E43.96705
G1 X92.036 Y136.599 E43.99930
G1 X91.297 Y138.074 E44.14926
G1 X90.069 Y138.482 E44.26694
G1 X89.719 Y138.306 E44.30252
G1 X89.394 Y138.321 E44.33207
G1 X89.214 Y138.432 E44.35129
G1 X88.796 Y138.550 E44.39083
G1 X86.480 Y138.550 E44.60144
G1 X86.435 Y138.526 E44.60605
G1 X86.188 Y138.497 E44.62866
G1 X86.000 Y138.550 E44.64648
G1 X83.684 Y138.550 E44.85709
G1 X83.639 Y138.526 E44.86170
G1 X83.393 Y138.497 E44.88430
G1 X83.204 Y138.550 E44.90212
G1 X80.888 Y138.550 E45.11274
G1 X80.844 Y138.526 E45.11735
G1 X80.597 Y138.497 E45.13995
G1 X80.408 Y138.550 E45.15777
G1 X78.092 Y138.550 E45.36838
G1 X78.048 Y138.526 E45.37299
G1 X77.801 Y138.497 E45.39560
G1 X77.612 Y138.550 E45.41342
G1 X75.296 Y138.550 E45.62403
G1 X75.252 Y138.526 E45.62864
G1 X75.005 Y138.497 E45.65124
G1 X74.816 Y138.550 E45.66906
G1 X72.500 Y138.550 E45.87968
G1 X72.456 Y138.526 E45.88428
G1 X72.209 Y138.497 E45.90689
G1 X72.020 Y138.550 E45.92471
G1 X69.704 Y138.550 E46.13532
G1 X69.660 Y138.526 E46.13993
G1 X69.413 Y138.497 E46.16254
G1 X69.224 Y138.550 E46.18036
G1 X66.908 Y138.550 E46.39097
G1 X66.864 Y138.526 E46.39558
G1 X66.617 Y138.497 E46.41818
G1 X66.428 Y138.550 E46.43600
G1 X64.112 Y138.550 E46.64662
G1 X64.068 Y138.526 E46.65122
G1 X63.821 Y138.497 E46.67383
G1 X63.632 Y138.550 E46.69165
G1 X61.316 Y138.550 E46.90226
G1 X61.272 Y138.526 E46.90687
G1 X61.025 Y138.497 E46.92948
G1 X60.837 Y138.550 E46.94730
G1 X58.520 Y138.550 E47.15791
G1 X58.476 Y138.526 E47.16252
G1 X58.229 Y138.497 E47.18512
G1 X58.041 Y138.550 E47.20294
G1 X55.724 Y138.550 E47.41356
G1 X55.680 Y138.526 E47.41816
G1 X55.433 Y138.497 E47.44077
G1 X55.245 Y138.550 E47.45859
G1 X52.928 Y138.550 E47.66920
G1 X52.884 Y138.526 E47.67381
G1 X52.637 Y138.497 E47.69642
G1 X52.449 Y138.550 E47.71424
G1 X50.132 Y138.550 E47.92485
G1 X50.088 Y138.526 E47.92946
G1 X49.841 Y138.497 E47.95206
G1 X49.653 Y138.550 E47.96988
G1 X47.337 Y138.550 E48.18050
G1 X46.627 Y138.155 E48.25438
G1 X45.995 Y137.131 E48.36377
G1 X45.979 Y136.760 E48.39757
G1 X45.616 Y136.413 E48.44318
G1 X31.853 Y136.413 E49.69466
G1 X30.938 Y135.498 E49.81234
G1 X30.938 Y70.308 E55.74005
G1 X30.751 Y70.006 E55.77230
G1 X30.381 Y69.820 E55.81003
G1 X30.056 Y69.834 E55.83958
G1 X29.876 Y69.945 E55.85880
G1 X29.458 Y70.064 E55.89834
G1 X27.141 Y70.064 E56.10895
G1 X26.964 Y69.965 E56.12746
G1 X26.702 Y69.940 E56.15137
G1 X26.536 Y69.995 E56.16723
G1 X26.216 Y69.835 E56.19984
G1 X25.959 Y69.819 E56.22321
G1 X24.923 Y70.194 E56.32342
G1 X24.207 Y70.012 E56.39058
G1 X24.042 Y70.014 E56.40559
G1 X23.866 Y70.064 E56.42223
G1 X21.335 Y70.064 E56.65235
G1 X21.154 Y70.116 E56.66949
G1 X19.558 Y69.738 E56.81862
G1 X18.884 Y68.886 E56.91740
G1 X18.884 Y65.145 E57.25756
G1 X18.965 Y64.709 E57.29796
G1 X19.027 Y64.538 E57.31448
G1 X19.294 Y64.007 E57.36847
G1 X19.311 Y63.759 E57.39108
G1 X18.797 Y62.209 E57.53956
G1 X19.226 Y61.353 E57.62671
G1 X19.244 Y61.106 E57.64917
G1 X18.909 Y60.082 E57.74721
G1 X18.873 Y59.778 E57.77501
G1 X18.906 Y59.335 E57.81540
G1 X18.987 Y59.040 E57.84320
G1 X19.252 Y58.511 E57.89707
G1 X19.215 Y58.148 E57.93018
G1 X18.884 Y57.729 E57.97876
G1 X18.884 Y53.988 E58.31893
G1 X18.965 Y53.552 E58.35932
G1 X19.027 Y53.381 E58.37584
G1 X19.252 Y52.932 E58.42150
G1 X19.215 Y52.570 E58.45460
G1 X18.884 Y52.151 E58.50318
G1 X18.884 Y48.410 E58.84335
G1 X18.965 Y47.973 E58.88374
G1 X19.027 Y47.803 E58.90026
G1 X19.252 Y47.354 E58.94592
G1 X19.215 Y46.992 E58.97902
G1 X18.884 Y46.573 E59.02761
G1 X18.884 Y42.832 E59.36777
G1 X18.965 Y42.395 E59.40816
G1 X19.027 Y42.224 E59.42468
G1 X19.299 Y41.683 E59.47974
G1 X19.280 Y41.350 E59.51003
G1 X19.031 Y40.968 E59.55150
G1 X18.904 Y40.579 E59.58872
G1 X18.870 Y39.984 E59.64289
G1 X18.953 Y39.584 E59.68011
G1 X19.252 Y38.986 E59.74088
G1 X19.215 Y38.624 E59.77398
G1 X18.884 Y38.205 E59.82257
G1 X18.884 Y34.464 E60.16273
G1 X18.905 Y34.283 E60.17925
G1 X19.027 Y33.856 E60.21965
G1 X19.462 Y32.989 E60.30792
G1 X19.410 Y32.605 E60.34308
G1 X19.171 Y32.341 E60.37549
G1 X18.877 Y29.030 E60.67777
G1 X18.888 Y28.814 E60.69745
G1 X18.947 Y28.505 E60.72598
G1 X19.016 Y28.301 E60.74565
G1 X19.294 Y27.747 E60.80194
G1 X19.311 Y27.499 E60.82454
G1 X18.797 Y25.950 E60.97302
G1 X19.663 Y24.222 E61.14876
G1 X19.956 Y23.901 E61.18829
G1 X20.495 Y23.568 E61.24590
G1 X20.913 Y23.450 E61.28543
G1 X23.230 Y23.450 E61.49605
G1 X23.274 Y23.474 E61.50066
G1 X23.521 Y23.503 E61.52326
G1 X23.709 Y23.450 E61.54108
G1 X26.026 Y23.450 E61.75169
G1 X26.484 Y23.692 E61.79886
G1 X26.932 Y23.798 E61.84071
G1 X27.178 Y23.758 E61.86332
G1 X27.485 Y23.568 E61.89616
G1 X27.903 Y23.450 E61.93570
G1 X30.219 Y23.450 E62.14631
G1 X30.264 Y23.474 E62.15092
G1 X30.511 Y23.503 E62.17353
G1 X30.699 Y23.450 E62.19135
G1 X33.015 Y23.450 E62.40196
G1 X33.725 Y23.845 E62.47585
G1 X34.357 Y24.869 E62.58524
G1 X34.373 Y25.240 E62.61904
G1 X34.736 Y25.587 E62.66464
G1 X41.902 Y25.587 E63.31625
G1 X42.817 Y26.502 E63.43393
G1 X42.817 Y30.188 E63.76905
G1 X43.003 Y30.490 E63.80131
G1 X44.550 Y31.265 E63.95864
G1 X44.958 Y32.493 E64.07632
G1 X44.491 Y33.425 E64.17107
G1 X44.483 Y33.699 E64.19606
G1 X44.917 Y34.722 E64.29712
G1 X44.895 Y35.409 E64.35958
G1 X44.491 Y36.214 E64.44144
G1 X44.483 Y36.488 E64.46642
G1 X44.917 Y37.512 E64.56748
G1 X44.895 Y38.198 E64.62995
G1 X44.491 Y39.003 E64.71180
G1 X44.483 Y39.278 E64.73679
G1 X44.917 Y40.301 E64.83785
G1 X44.895 Y40.988 E64.90031
G1 X44.491 Y41.792 E64.98216
G1 X44.483 Y42.067 E65.00715
G1 X44.917 Y43.090 E65.10821
G1 X44.895 Y43.777 E65.17067
G1 X44.491 Y44.582 E65.25253
G1 X44.483 Y44.856 E65.27751
G1 X44.917 Y45.879 E65.37857
G1 X44.895 Y46.566 E65.44104
G1 X44.491 Y47.371 E65.52289
G1 X44.483 Y47.645 E65.54788
G1 X44.917 Y48.669 E65.64894
G1 X44.895 Y49.355 E65.71140
G1 X44.420 Y50.302 E65.80769
G1 X44.402 Y50.550 E65.83030
G1 X44.917 Y52.100 E65.97878
G1 X44.491 Y52.949 E66.06520
G1 X44.483 Y53.224 E66.09019
G1 X44.917 Y54.247 E66.19125
G1 X44.895 Y54.934 E66.25371
G1 X44.491 Y55.738 E66.33557
G1 X44.483 Y56.013 E66.36055
G1 X44.917 Y57.036 E66.46161
G1 X44.895 Y57.723 E66.52408
G1 X44.491 Y58.528 E66.60593
G1 X44.483 Y58.802 E66.63091
G1 X44.917 Y59.825 E66.73198
G1 X44.910 Y60.045 E66.75190
G1 X45.236 Y60.382 E66.79458
G1 E65.99458 F2400.00000
G92 E0
G1 X31.563 Y69.607 F7800.000
G1 E0.80000 F2400.00000
G1 X31.044 Y69.232 E0.85814 F1800.000
G1 X30.779 Y69.321 E0.88356
G1 X30.349 Y69.105 E0.92729
G1 X30.024 Y69.119 E0.95685
G1 X29.622 Y69.368 E0.99986
G1 X29.371 Y69.439 E1.02358
G1 X27.304 Y69.439 E1.21151
G1 X27.028 Y69.285 E1.24026
G1 X26.766 Y69.260 E1.26417
G1 X26.585 Y69.321 E1.28152
G1 X26.256 Y69.156 E1.31499
G1 X25.999 Y69.140 E1.33836
G1 X24.891 Y69.541 E1.44554
G1 X24.198 Y69.365 E1.51054
G1 X24.033 Y69.367 E1.52555
G1 X23.779 Y69.439 E1.54956
G1 X21.712 Y69.439 E1.73749
G1 X21.593 Y69.373 E1.74992
G1 X21.292 Y69.362 E1.77730
G1 X21.086 Y69.458 E1.79793
G1 X19.913 Y69.180 E1.90755
G1 X19.509 Y68.669 E1.96682
G1 X19.521 Y65.073 E2.29377
G1 X19.602 Y64.785 E2.32097
G1 X20.178 Y63.636 E2.43786
G1 X20.015 Y63.145 E2.48493
G1 X19.716 Y62.995 E2.51536
G1 X19.471 Y62.258 E2.58597
G1 X19.900 Y61.403 E2.67296
G1 X19.918 Y61.157 E2.69542
G1 X19.522 Y59.946 E2.81127
G1 X19.500 Y59.763 E2.82795
G1 X19.524 Y59.442 E2.85721
G1 X19.573 Y59.266 E2.87389
G1 X19.989 Y58.435 E2.95838
G1 X19.952 Y58.073 E2.99149
G1 X19.509 Y57.512 E3.05649
G1 X19.509 Y54.025 E3.37359
G1 X19.521 Y53.917 E3.38350
G1 X19.602 Y53.629 E3.41071
G1 X19.989 Y52.857 E3.48923
G1 X19.952 Y52.494 E3.52234
G1 X19.509 Y51.934 E3.58734
G1 X19.509 Y48.446 E3.90444
G1 X19.521 Y48.338 E3.91435
G1 X19.602 Y48.050 E3.94156
G1 X19.989 Y47.278 E4.02008
G1 X19.952 Y46.916 E4.05319
G1 X19.509 Y46.355 E4.11819
G1 X19.509 Y42.868 E4.43529
G1 X19.521 Y42.760 E4.44520
G1 X19.602 Y42.472 E4.47241
G1 X20.018 Y41.642 E4.55677
G1 X19.999 Y41.310 E4.58706
G1 X19.599 Y40.696 E4.65370
G1 X19.523 Y40.462 E4.67602
G1 X19.499 Y40.031 E4.71532
G1 X19.548 Y39.790 E4.73765
G1 X19.989 Y38.910 E4.82715
G1 X19.952 Y38.548 E4.86025
G1 X19.509 Y37.988 E4.92526
G1 X19.509 Y34.500 E5.24236
G1 X19.521 Y34.392 E5.25227
G1 X19.602 Y34.104 E5.27947
G1 X20.213 Y32.886 E5.40333
G1 X20.161 Y32.503 E5.43849
G1 X19.775 Y32.077 E5.49072
G1 X19.504 Y29.018 E5.77002
G1 X19.510 Y28.888 E5.78182
G1 X19.594 Y28.542 E5.81421
G1 X20.178 Y27.376 E5.93277
G1 X20.015 Y26.885 E5.97984
G1 X19.716 Y26.735 E6.01027
G1 X19.471 Y25.998 E6.08088
G1 X20.182 Y24.580 E6.22517
G1 X20.358 Y24.387 E6.24889
G1 X20.749 Y24.146 E6.29068
G1 X21.000 Y24.074 E6.31440
G1 X23.067 Y24.074 E6.50233
G1 X23.195 Y24.146 E6.51570
G1 X23.442 Y24.175 E6.53830
G1 X23.796 Y24.074 E6.57175
G1 X25.863 Y24.074 E6.75968
G1 X26.256 Y24.280 E6.79998
G1 X27.040 Y24.465 E6.87328
G1 X27.286 Y24.426 E6.89588
G1 X27.739 Y24.146 E6.94436
G1 X27.990 Y24.074 E6.96808
G1 X30.057 Y24.074 E7.15601
G1 X30.185 Y24.146 E7.16938
G1 X30.432 Y24.175 E7.19198
G1 X30.786 Y24.074 E7.22543
G1 X32.853 Y24.074 E7.41336
G1 X33.279 Y24.312 E7.45769
G1 X33.740 Y25.059 E7.53753
G1 X33.776 Y25.865 E7.61091
G1 X34.138 Y26.212 E7.65652
G1 X41.643 Y26.212 E8.33895
G1 X42.192 Y26.761 E8.40956
G1 X42.192 Y30.574 E8.75622
G1 X42.378 Y30.875 E8.78848
G1 X44.039 Y31.707 E8.95735
G1 X44.284 Y32.444 E9.02796
G1 X43.721 Y33.566 E9.14206
G1 X43.799 Y33.980 E9.18030
G1 X44.000 Y34.163 E9.20507
G1 X44.288 Y34.840 E9.27196
G1 X44.274 Y35.252 E9.30944
G1 X43.721 Y36.355 E9.42168
G1 X43.799 Y36.769 E9.45992
G1 X44.000 Y36.952 E9.48470
G1 X44.288 Y37.629 E9.55159
G1 X44.274 Y38.041 E9.58906
G1 X43.721 Y39.145 E9.70130
G1 X43.799 Y39.558 E9.73955
G1 X44.000 Y39.741 E9.76432
G1 X44.288 Y40.418 E9.83121
G1 X44.274 Y40.830 E9.86869
G1 X43.721 Y41.934 E9.98093
G1 X43.799 Y42.347 E10.01917
G1 X44.000 Y42.530 E10.04395
G1 X44.288 Y43.208 E10.11083
G1 X44.274 Y43.620 E10.14831
G1 X43.721 Y44.723 E10.26055
G1 X43.799 Y45.137 E10.29879
G1 X44.000 Y45.320 E10.32357
G1 X44.288 Y45.997 E10.39046
G1 X44.274 Y46.409 E10.42794
G1 X43.721 Y47.512 E10.54017
G1 X43.799 Y47.926 E10.57842
G1 X44.000 Y48.109 E10.60319
G1 X44.288 Y48.786 E10.67008
G1 X44.274 Y49.198 E10.70756
G1 X43.535 Y50.673 E10.85756
G1 X43.699 Y51.164 E10.90463
G1 X43.998 Y51.314 E10.93506
G1 X44.243 Y52.051 E11.00567
G1 X43.721 Y53.091 E11.11143
G1 X43.799 Y53.504 E11.14968
G1 X44.000 Y53.687 E11.17445
G1 X44.288 Y54.365 E11.24134
G1 X44.274 Y54.776 E11.27882
G1 X43.721 Y55.880 E11.39106
G1 X43.799 Y56.293 E11.42930
G1 X44.000 Y56.477 E11.45408
G1 X44.288 Y57.154 E11.52096
G1 X44.274 Y57.566 E11.55844
G1 X43.721 Y58.669 E11.67068
G1 X43.799 Y59.083 E11.70893
G1 X44.000 Y59.266 E11.73370
G1 X44.288 Y59.943 E11.80059
G1 X44.264 Y60.669 E11.86668
G1 X44.633 Y61.050 E11.91481
G1 X111.380 Y61.050 E17.98407
G1 X111.746 Y60.684 E18.03114
G1 X111.746 Y26.761 E21.11570
G1 X112.295 Y26.212 E21.18631
G1 X115.071 Y26.212 E21.43878
G1 X115.620 Y26.761 E21.50939
G1 X115.620 Y82.688 E26.59479
G1 X115.986 Y83.054 E26.64186
G1 X166.951 Y83.054 E31.27609
G1 X167.317 Y82.688 E31.32316
G1 X167.317 Y26.761 E36.40857
G1 X167.867 Y26.212 E36.47918
G1 X175.888 Y26.212 E37.20859
G1 X176.437 Y26.761 E37.27920
G1 X176.437 Y135.239 E47.14304
G1 X175.888 Y135.788 E47.21365
G1 X152.064 Y135.788 E49.37995
G1 X151.762 Y135.974 E49.41221
G1 X150.967 Y137.562 E49.57371
G1 X150.230 Y137.807 E49.64432
G1 X149.800 Y137.591 E49.68806
G1 X149.475 Y137.606 E49.71761
G1 X149.072 Y137.854 E49.76062
G1 X148.822 Y137.926 E49.78434
G1 X146.755 Y137.926 E49.97227
G1 X146.626 Y137.854 E49.98564
G1 X146.379 Y137.825 E50.00825
G1 X146.026 Y137.926 E50.04169
G1 X143.959 Y137.926 E50.22962
G1 X143.830 Y137.854 E50.24299
G1 X143.583 Y137.825 E50.26560
G1 X143.230 Y137.926 E50.29904
G1 X141.163 Y137.926 E50.48697
G1 X141.034 Y137.854 E50.50034
G1 X140.788 Y137.825 E50.52295
G1 X140.434 Y137.926 E50.55639
G1 X138.367 Y137.926 E50.74432
G1 X138.239 Y137.854 E50.75769
G1 X137.992 Y137.825 E50.78030
G1 X137.638 Y137.926 E50.81374
G1 X135.571 Y137.926 E51.00167
G1 X135.443 Y137.854 E51.01504
G1 X135.196 Y137.825 E51.03765
G1 X134.842 Y137.926 E51.07109
G1 X132.775 Y137.926 E51.25902
G1 X132.499 Y137.772 E51.28777
G1 X132.237 Y137.747 E51.31169
G1 X132.056 Y137.807 E51.32903
G1 X130.736 Y137.145 E51.46329
G1 X130.364 Y136.024 E51.57072
G1 X130.036 Y135.788 E51.60743
G1 X91.952 Y135.788 E55.07044
