; generated by Slic3r 1.2.9 on 2017-02-06 at 14:30:21

; external perimeters extrusion width = 0.60mm
; perimeters extrusion width = 0.67mm
; infill extrusion width = 0.67mm
; solid infill extrusion width = 0.67mm
; top infill extrusion width = 0.67mm
; support material extrusion width = 0.40mm

M107
M190 S65 ; set bed temperature
M104 S205 ; set temperature
G28 ; home all axes
G1 Z5 F5000 ; lift nozzle
M92 X80
M92 Y80
M92 Z2565

M109 S205 ; wait for temperature to be reached
G21 ; set units to millimeters
G90 ; use absolute coordinates
M82 ; use absolute distances for extrusion
G92 E0
G1 Z0.350 F7800.000
G1 E-0.80000 F2400.00000
G92 E0
G1 X29.176 Y24.579 F7800.000
G1 E0.80000 F2400.00000
G1 X30.542 Y23.745 E0.94548 F1800.000
G1 X31.414 Y23.602 E1.02579
G1 X98.580 Y21.814 E7.13533
G1 X154.585 Y21.813 E12.22785
G1 X154.875 Y21.826 E12.25430
G1 X174.791 Y23.614 E14.07247 F1800.000
G1 X176.300 Y24.145 E14.21795
G1 X177.373 Y25.332 E14.36344
G1 X177.750 Y26.851 E14.50576
G1 X177.750 Y135.149 E24.35331
G1 X177.356 Y136.700 E24.49879
G1 X176.270 Y137.875 E24.64428
G1 X174.541 Y138.399 E24.80858
G1 X31.451 Y140.186 E37.82064
G1 X20.227 Y140.187 E38.84126
G1 X18.676 Y139.793 E38.98675
G1 X17.501 Y138.707 E39.13223
G1 X17.055 Y137.645 E39.23692
G1 X16.624 Y135.716 E39.41667
G1 X16.546 Y135.008 E39.48149
G1 X16.546 Y68.066 E45.56844
G1 X16.670 Y67.178 E45.64994
G1 X28.374 Y25.963 E49.54583
G1 X29.146 Y24.631 E49.68586
G1 X29.726 Y24.918 F7800.000
G1 X31.430 Y24.227 E49.85310 F1800.000
G1 X98.596 Y22.439 E55.96263
G1 X154.819 Y22.449 E61.07499
G1 X174.735 Y24.236 E62.89316 F1800.000
G1 X176.075 Y24.750 E63.02366
G1 X176.944 Y25.893 E63.15417
G1 X177.125 Y26.851 E63.24283
G1 X177.125 Y135.149 E73.09038
G1 X176.733 Y136.530 E73.22089
G1 X175.673 Y137.498 E73.35139
G1 X174.533 Y137.774 E73.45804
G1 X31.444 Y139.562 E86.47011
G1 X20.227 Y139.562 E87.49002
G1 X18.846 Y139.169 E87.62053
G1 X17.665 Y137.509 E87.80580
G1 X17.234 Y135.580 E87.98556
G1 X17.171 Y135.008 E88.03791
G1 X17.171 Y68.066 E94.12486
G1 X17.271 Y67.349 E94.19069
G1 X28.975 Y26.134 E98.08658
G1 X29.694 Y24.970 E98.21102
G1 X30.474 Y25.667 F7800.000
G1 X30.853 Y25.288 E98.25969 F1800.000
G1 X96.206 Y25.288 E104.20218
G1 X96.507 Y25.102 E104.23444
G1 X97.098 Y23.923 E104.35436
G1 X97.392 Y23.602 E104.39389
G1 X97.931 Y23.270 E104.45149
G1 X98.349 Y23.151 E104.49103
G1 X100.665 Y23.151 E104.70164
G1 X100.710 Y23.176 E104.70625
G1 X100.957 Y23.204 E104.72886
G1 X101.145 Y23.151 E104.74668
G1 X103.461 Y23.151 E104.95729
G1 X103.505 Y23.175 E104.96187
G1 X103.748 Y23.205 E104.98408
G1 X103.970 Y23.145 E105.00501
G1 X106.273 Y23.186 E105.21447
G1 X106.398 Y23.259 E105.22760
G1 X106.664 Y23.285 E105.25192
G1 X106.862 Y23.220 E105.27088
G1 X107.212 Y23.395 E105.30646
G1 X107.537 Y23.381 E105.33601
G1 X107.717 Y23.270 E105.35523
G1 X108.135 Y23.151 E105.39477
G1 X110.451 Y23.151 E105.60538
G1 X110.495 Y23.176 E105.60999
G1 X110.742 Y23.204 E105.63260
G1 X110.931 Y23.151 E105.65042
G1 X113.247 Y23.151 E105.86103
G1 X113.291 Y23.176 E105.86564
G1 X113.538 Y23.204 E105.88825
G1 X113.727 Y23.151 E105.90606
G1 X116.043 Y23.151 E106.11668
G1 X116.221 Y23.250 E106.13518
G1 X116.483 Y23.275 E106.15909
G1 X116.648 Y23.220 E106.17495
G1 X116.998 Y23.395 E106.21053
G1 X117.323 Y23.381 E106.24008
G1 X117.502 Y23.270 E106.25930
G1 X117.921 Y23.151 E106.29884
G1 X120.237 Y23.151 E106.50945
G1 X120.281 Y23.176 E106.51406
G1 X120.528 Y23.204 E106.53667
G1 X120.717 Y23.151 E106.55449
G1 X123.033 Y23.151 E106.76510
G1 X123.077 Y23.176 E106.76971
G1 X123.324 Y23.204 E106.79231
G1 X123.513 Y23.151 E106.81013
G1 X125.829 Y23.151 E107.02075
G1 X125.873 Y23.176 E107.02536
G1 X126.120 Y23.204 E107.04796
G1 X126.309 Y23.151 E107.06578
G1 X128.625 Y23.151 E107.27639
G1 X129.334 Y23.547 E107.35028
G1 X129.966 Y24.570 E107.45967
G1 X129.983 Y24.942 E107.49347
G1 X130.345 Y25.288 E107.53908
G1 X139.543 Y25.288 E108.37539
G1 X139.844 Y25.102 E108.40764
G1 X140.583 Y23.628 E108.55760
G1 X141.812 Y23.220 E108.67528
G1 X142.161 Y23.395 E108.71086
G1 X142.486 Y23.381 E108.74041
G1 X142.666 Y23.270 E108.75963
G1 X143.084 Y23.151 E108.79917
G1 X145.400 Y23.151 E109.00978
G1 X146.100 Y23.541 E109.08262
G1 X146.362 Y23.566 E109.10653
G1 X147.403 Y23.220 E109.20634
G1 X147.753 Y23.395 E109.24192
G1 X148.078 Y23.381 E109.27147
G1 X148.258 Y23.270 E109.29069
G1 X148.676 Y23.151 E109.33023
G1 X150.992 Y23.151 E109.54084
G1 X151.037 Y23.176 E109.54545
G1 X151.283 Y23.204 E109.56806
G1 X151.472 Y23.151 E109.58587
G1 X153.788 Y23.151 E109.79649
G1 X153.849 Y23.185 E109.80287
G1 X154.097 Y23.214 E109.82552
G1 X154.523 Y23.092 E109.86582
G1 X155.173 Y23.181 E109.92550
G1 X157.020 Y24.313 E110.12245 F1800.000
G1 X157.375 Y24.781 E110.17582
G1 X157.448 Y25.036 E110.20000
G1 X157.782 Y25.288 E110.23806
G1 X175.147 Y25.288 E111.81707
G1 X176.062 Y26.204 E111.93475
G1 X176.062 Y135.796 E121.89998
G1 X175.147 Y136.712 E122.01766
G1 X166.608 Y136.712 E122.79414
G1 X165.693 Y135.796 E122.91182
G1 X165.693 Y123.180 E124.05899
G1 X165.327 Y122.814 E124.10607
G1 X137.183 Y122.814 E126.66513
G1 X136.817 Y123.180 E126.71221
G1 X136.817 Y126.899 E127.05036
G1 X135.902 Y127.814 E127.16804
G1 X132.608 Y127.814 E127.46758
G1 X131.693 Y126.899 E127.58526
G1 X131.693 Y108.083 E129.29625
G1 X131.327 Y107.717 E129.34332
G1 X115.611 Y107.716 E130.77230
G1 X115.245 Y108.082 E130.81938
G1 X115.245 Y135.796 E133.33947
G1 X114.330 Y136.712 E133.45715
G1 X111.036 Y136.712 E133.75669
G1 X110.121 Y135.796 E133.87437
G1 X110.121 Y108.082 E136.39448
G1 X109.755 Y107.715 E136.44155
G1 X42.183 Y107.715 E142.58581
G1 X41.817 Y108.082 E142.63288
G1 X41.817 Y135.796 E145.15299
G1 X40.902 Y136.712 E145.27067
G1 X33.871 Y136.712 E145.90998
G1 X33.569 Y136.898 E145.94224
G1 X32.830 Y138.372 E146.09220
G1 X31.602 Y138.780 E146.20988
G1 X31.252 Y138.605 E146.24545
G1 X30.928 Y138.619 E146.27501
G1 X30.748 Y138.730 E146.29423
G1 X30.329 Y138.849 E146.33376
G1 X28.013 Y138.849 E146.54438
G1 X27.969 Y138.824 E146.54899
G1 X27.722 Y138.796 E146.57159
G1 X27.534 Y138.849 E146.58941
G1 X25.217 Y138.849 E146.80002
G1 X25.173 Y138.824 E146.80463
G1 X24.926 Y138.796 E146.82724
G1 X24.738 Y138.849 E146.84506
G1 X22.421 Y138.849 E147.05567
G1 X22.377 Y138.824 E147.06028
G1 X22.130 Y138.796 E147.08288
G1 X21.942 Y138.849 E147.10070
G1 X19.625 Y138.849 E147.31132
G1 X18.916 Y138.453 E147.38520
G1 X18.284 Y137.430 E147.49459
G1 X18.237 Y136.372 E147.59088
G1 X18.168 Y136.187 E147.60878
G1 X17.884 Y135.828 E147.65048
G1 X17.884 Y132.087 E147.99064
G1 X17.965 Y131.650 E148.03104
G1 X18.027 Y131.479 E148.04756
G1 X18.233 Y131.070 E148.08923
G1 X18.250 Y130.819 E148.11208
G1 X17.913 Y129.833 E148.20678
G1 X17.873 Y129.525 E148.23505
G1 X17.903 Y129.074 E148.27613
G1 X17.985 Y128.774 E148.30440
G1 X18.252 Y128.241 E148.35862
G1 X18.215 Y127.879 E148.39172
G1 X17.884 Y127.460 E148.44031
G1 X17.884 Y123.719 E148.78047
G1 X17.965 Y123.282 E148.82087
G1 X18.027 Y123.112 E148.83739
G1 X18.252 Y122.663 E148.88304
G1 X18.215 Y122.301 E148.91615
G1 X17.884 Y121.882 E148.96473
G1 X17.884 Y118.141 E149.30489
G1 X17.965 Y117.704 E149.34529
G1 X18.027 Y117.533 E149.36181
G1 X18.252 Y117.084 E149.40746
G1 X18.215 Y116.722 E149.44057
G1 X17.884 Y116.303 E149.48915
G1 X17.884 Y112.562 E149.82931
G1 X17.965 Y112.125 E149.86971
G1 X18.027 Y111.955 E149.88623
G1 X18.300 Y111.411 E149.94152
G1 X18.277 Y111.072 E149.97241
G1 X18.044 Y110.729 E150.01019
G1 X17.908 Y110.334 E150.04811
G1 X17.868 Y109.728 E150.10334
G1 X17.950 Y109.319 E150.14127
G1 X18.252 Y108.717 E150.20256
G1 X18.215 Y108.354 E150.23567
G1 X17.884 Y107.935 E150.28425
G1 X17.884 Y104.194 E150.62442
G1 X17.905 Y104.014 E150.64093
G1 X18.027 Y103.587 E150.68133
G1 X18.477 Y102.690 E150.77253
G1 X18.423 Y102.306 E150.80786
G1 X18.193 Y102.053 E150.83895
G1 X17.877 Y98.772 E151.13866
G1 X17.887 Y98.553 E151.15859
G1 X17.945 Y98.241 E151.18750
G1 X18.015 Y98.033 E151.20744
G1 X18.252 Y97.560 E151.25558
G1 X18.215 Y97.198 E151.28868
G1 X17.884 Y96.779 E151.33726
G1 X17.884 Y93.038 E151.67743
G1 X17.965 Y92.601 E151.71782
G1 X18.027 Y92.430 E151.73434
G1 X18.252 Y91.981 E151.78000
G1 X18.215 Y91.619 E151.81310
G1 X17.884 Y91.200 E151.86168
G1 X17.884 Y87.459 E152.20185
G1 X17.965 Y87.022 E152.24224
G1 X18.027 Y86.852 E152.25876
G1 X18.252 Y86.403 E152.30442
G1 X18.215 Y86.041 E152.33752
G1 X17.884 Y85.622 E152.38611
G1 X17.884 Y81.881 E152.72627
G1 X17.965 Y81.444 E152.76666
G1 X18.027 Y81.273 E152.78318
G1 X18.180 Y80.970 E152.81405
G1 X18.204 Y80.748 E152.83438
G1 X17.892 Y79.489 E152.95232
G1 X17.873 Y79.212 E152.97753
G1 X17.918 Y78.812 E153.01413
G1 X17.996 Y78.546 E153.03934
G1 X18.252 Y78.035 E153.09132
G1 X18.215 Y77.673 E153.12442
G1 X17.884 Y77.254 E153.17301
G1 X17.884 Y73.513 E153.51317
G1 X17.965 Y73.076 E153.55357
G1 X18.027 Y72.906 E153.57008
G1 X18.252 Y72.457 E153.61574
G1 X18.215 Y72.095 E153.64884
G1 X17.884 Y71.675 E153.69743
G1 X17.884 Y67.935 E154.03759
G1 X17.905 Y67.754 E154.05411
G1 X18.027 Y67.327 E154.09450
G1 X18.671 Y66.043 E154.22508
G1 X19.899 Y65.635 E154.34276
G1 X20.249 Y65.811 E154.37833
G1 X20.574 Y65.796 E154.40789
G1 X20.753 Y65.685 E154.42711
G1 X21.172 Y65.566 E154.46664
G1 X23.488 Y65.566 E154.67726
G1 X23.531 Y65.590 E154.68170
G1 X23.767 Y65.622 E154.70339
G1 X24.035 Y65.555 E154.72848
G1 X26.403 Y65.652 E154.94404
G1 X26.764 Y65.566 E154.97772
G1 X29.080 Y65.566 E155.18833
G1 X29.321 Y65.701 E155.21343
G1 X29.938 Y65.339 E155.27848
G1 X29.938 Y26.204 E158.83702
G1 X30.432 Y25.709 E158.90057
G1 E158.10057 F2400.00000
G92 E0
G1 X30.563 Y65.808 F7800.000
G1 E0.80000 F2400.00000
G1 X30.563 Y26.462 E4.37769 F1800.000
G1 X31.112 Y25.913 E4.44830
G1 X96.591 Y25.913 E10.40234
G1 X96.893 Y25.727 E10.43459
G1 X97.618 Y24.281 E10.58168
G1 X97.794 Y24.088 E10.60541
G1 X98.185 Y23.847 E10.64719
G1 X98.436 Y23.776 E10.67091
G1 X100.503 Y23.776 E10.85884
G1 X100.631 Y23.847 E10.87221
G1 X100.878 Y23.876 E10.89482
G1 X101.232 Y23.776 E10.92826
G1 X103.299 Y23.776 E11.11619
G1 X103.423 Y23.845 E11.12908
G1 X103.665 Y23.875 E11.15129
G1 X104.047 Y23.772 E11.18728
G1 X106.101 Y23.808 E11.37406
G1 X106.330 Y23.940 E11.39804
G1 X106.596 Y23.967 E11.42235
G1 X106.814 Y23.894 E11.44326
G1 X107.244 Y24.110 E11.48699
G1 X107.568 Y24.095 E11.51655
G1 X107.971 Y23.847 E11.55956
G1 X108.222 Y23.776 E11.58328
G1 X110.289 Y23.776 E11.77121
G1 X110.417 Y23.847 E11.78458
G1 X110.664 Y23.876 E11.80718
G1 X111.018 Y23.776 E11.84063
G1 X113.085 Y23.776 E12.02856
G1 X113.213 Y23.847 E12.04193
G1 X113.460 Y23.876 E12.06453
G1 X113.814 Y23.776 E12.09798
G1 X115.881 Y23.776 E12.28591
G1 X116.157 Y23.930 E12.31466
G1 X116.419 Y23.954 E12.33857
G1 X116.600 Y23.894 E12.35592
G1 X117.030 Y24.110 E12.39966
G1 X117.354 Y24.095 E12.42921
G1 X117.757 Y23.847 E12.47222
G1 X118.008 Y23.776 E12.49594
G1 X120.074 Y23.776 E12.68387
G1 X120.203 Y23.847 E12.69724
G1 X120.450 Y23.876 E12.71985
G1 X120.804 Y23.776 E12.75329
G1 X122.870 Y23.776 E12.94122
G1 X122.999 Y23.847 E12.95459
G1 X123.246 Y23.876 E12.97720
G1 X123.600 Y23.776 E13.01064
G1 X125.666 Y23.776 E13.19857
G1 X125.795 Y23.847 E13.21194
G1 X126.042 Y23.876 E13.23455
G1 X126.396 Y23.776 E13.26799
G1 X128.462 Y23.776 E13.45592
G1 X128.888 Y24.013 E13.50025
G1 X129.349 Y24.760 E13.58009
G1 X129.385 Y25.567 E13.65348
G1 X129.747 Y25.913 E13.69908
G1 X139.928 Y25.913 E14.62483
G1 X140.230 Y25.727 E14.65709
G1 X141.026 Y24.139 E14.81859
G1 X141.763 Y23.894 E14.88920
G1 X142.193 Y24.110 E14.93294
G1 X142.518 Y24.095 E14.96249
G1 X142.920 Y23.847 E15.00550
G1 X143.171 Y23.776 E15.02922
G1 X145.238 Y23.776 E15.21715
G1 X145.664 Y24.013 E15.26148
G1 X145.829 Y24.282 E15.29019
G1 X146.563 Y24.249 E15.35692
G1 X146.618 Y24.139 E15.36813
G1 X147.355 Y23.894 E15.43874
G1 X147.785 Y24.110 E15.48248
G1 X148.110 Y24.095 E15.51203
G1 X148.512 Y23.847 E15.55504
G1 X148.763 Y23.776 E15.57877
G1 X150.830 Y23.776 E15.76670
G1 X150.958 Y23.847 E15.78006
G1 X151.205 Y23.876 E15.80267
G1 X151.559 Y23.776 E15.83612
G1 X153.626 Y23.776 E16.02405
G1 X153.772 Y23.857 E16.03923
G1 X154.019 Y23.886 E16.06188
G1 X154.568 Y23.729 E16.11384
G1 X154.959 Y23.782 E16.14965
G1 X156.593 Y24.785 E16.32399
G1 X156.806 Y25.065 E16.35601
G1 X156.976 Y25.661 E16.41239
G1 X157.310 Y25.913 E16.45046
G1 X174.888 Y25.913 E18.04879
G1 X175.437 Y26.462 E18.11940
G1 X175.437 Y135.538 E28.03757
G1 X174.888 Y136.087 E28.10817
G1 X166.867 Y136.087 E28.83758
G1 X166.317 Y135.538 E28.90819
G1 X166.317 Y122.556 E30.08865
G1 X165.951 Y122.189 E30.13572
G1 X136.558 Y122.189 E32.80843
G1 X136.192 Y122.556 E32.85550
G1 X136.192 Y126.640 E33.22694
G1 X135.643 Y127.189 E33.29755
G1 X132.867 Y127.189 E33.55001
G1 X132.317 Y126.640 E33.62062
G1 X132.317 Y107.458 E35.36489
G1 X131.951 Y107.092 E35.41196
G1 X114.986 Y107.091 E36.95459
G1 X114.620 Y107.457 E37.00166
G1 X114.620 Y135.538 E39.55505
G1 X114.071 Y136.087 E39.62566
G1 X111.295 Y136.087 E39.87813
G1 X110.746 Y135.538 E39.94873
G1 X110.746 Y107.457 E42.50213
G1 X110.380 Y107.091 E42.54920
G1 X41.558 Y107.091 E48.80710
G1 X41.192 Y107.457 E48.85417
G1 X41.192 Y135.538 E51.40756
G1 X40.643 Y136.087 E51.47817
G1 X33.485 Y136.087 E52.12903
G1 X33.183 Y136.273 E52.16128
G1 X32.388 Y137.861 E52.32278
G1 X31.651 Y138.106 E52.39339
G1 X31.221 Y137.890 E52.43713
G1 X30.896 Y137.905 E52.46668
G1 X30.494 Y138.153 E52.50969
G1 X30.243 Y138.224 E52.53342
G1 X28.176 Y138.224 E52.72134
G1 X28.047 Y138.153 E52.73471
G1 X27.800 Y138.124 E52.75732
G1 X27.447 Y138.224 E52.79077
G1 X25.380 Y138.224 E52.97870
G1 X25.251 Y138.153 E52.99206
G1 X25.005 Y138.124 E53.01467
G1 X24.651 Y138.224 E53.04812
G1 X22.584 Y138.224 E53.23605
G1 X22.456 Y138.153 E53.24941
G1 X22.209 Y138.124 E53.27202
G1 X21.855 Y138.224 E53.30547
G1 X19.788 Y138.224 E53.49340
G1 X19.362 Y137.987 E53.53773
G1 X18.901 Y137.240 E53.61756
G1 X18.879 Y136.753 E53.66190
G1 X18.989 Y136.533 E53.68421
G1 X18.952 Y136.171 E53.71732
G1 X18.509 Y135.610 E53.78232
G1 X18.509 Y132.123 E54.09942
G1 X18.521 Y132.015 E54.10933
G1 X18.602 Y131.727 E54.13654
G1 X18.909 Y131.115 E54.19872
G1 X18.926 Y130.865 E54.22156
G1 X18.525 Y129.690 E54.33442
G1 X18.501 Y129.505 E54.35138
G1 X18.523 Y129.179 E54.38115
G1 X18.572 Y128.999 E54.39811
G1 X18.989 Y128.166 E54.48285
G1 X18.952 Y127.803 E54.51595
G1 X18.509 Y127.243 E54.58096
G1 X18.509 Y123.755 E54.89806
G1 X18.521 Y123.647 E54.90797
G1 X18.602 Y123.359 E54.93518
G1 X18.989 Y122.587 E55.01370
G1 X18.952 Y122.225 E55.04680
G1 X18.509 Y121.664 E55.11181
G1 X18.509 Y118.177 E55.42891
G1 X18.521 Y118.069 E55.43882
G1 X18.602 Y117.781 E55.46603
G1 X18.989 Y117.009 E55.54455
G1 X18.952 Y116.646 E55.57766
G1 X18.509 Y116.086 E55.64266
G1 X18.509 Y112.598 E55.95976
G1 X18.521 Y112.490 E55.96967
G1 X18.602 Y112.202 E55.99688
G1 X19.023 Y111.363 E56.08222
G1 X19.000 Y111.024 E56.11311
G1 X18.608 Y110.446 E56.17666
G1 X18.526 Y110.210 E56.19942
G1 X18.497 Y109.770 E56.23947
G1 X18.546 Y109.525 E56.26223
G1 X18.989 Y108.641 E56.35212
G1 X18.952 Y108.279 E56.38522
G1 X18.509 Y107.718 E56.45022
G1 X18.509 Y104.231 E56.76732
G1 X18.521 Y104.123 E56.77724
G1 X18.602 Y103.835 E56.80444
G1 X19.228 Y102.586 E56.93145
G1 X19.175 Y102.201 E56.96678
G1 X18.795 Y101.786 E57.01798
G1 X18.504 Y98.756 E57.29471
G1 X18.552 Y98.398 E57.32753
G1 X18.594 Y98.274 E57.33949
G1 X18.989 Y97.484 E57.41982
G1 X18.952 Y97.122 E57.45292
G1 X18.509 Y96.561 E57.51792
G1 X18.509 Y93.074 E57.83502
G1 X18.521 Y92.966 E57.84494
G1 X18.602 Y92.678 E57.87214
G1 X18.989 Y91.906 E57.95067
G1 X18.952 Y91.543 E57.98377
G1 X18.509 Y90.983 E58.04877
G1 X18.509 Y87.495 E58.36587
G1 X18.521 Y87.387 E58.37579
G1 X18.602 Y87.099 E58.40299
G1 X18.989 Y86.327 E58.48152
G1 X18.952 Y85.965 E58.51462
G1 X18.509 Y85.404 E58.57962
G1 X18.509 Y81.917 E58.89673
G1 X18.565 Y81.623 E58.92393
G1 X18.602 Y81.521 E58.93384
G1 X18.842 Y81.043 E58.98241
G1 X18.866 Y80.821 E59.00273
G1 X18.511 Y79.392 E59.13664
G1 X18.500 Y79.226 E59.15176
G1 X18.533 Y78.936 E59.17828
G1 X18.580 Y78.777 E59.19340
G1 X18.989 Y77.959 E59.27651
G1 X18.952 Y77.597 E59.30962
