;FLAVOR:RepRap
;TIME:11850
;Generated with Cura_SteamEngine 2.3.1
G21 ; set units to millimeters
G90 ; use absolute positioning
M82 ; absolute extrusion mode
G28 W ; home all without mesh bed level
G80 ; mesh bed leveling
M104 S200 ; set extruder temp
M140 S60 ; set bed temp
M190 S60 ; wait for bed temp
M109 S200 ; wait for extruder temp
G92 E0.0 ; reset extruder distance position
G1 Y-3.0 F1000.0 ; go outside print area
G1 X60.0 E9.0 F1000.0 ; intro line
G1 X100.0 E21.5 F1000.0 ; intro line
G92 E0.0 ; reset extruder distance position
;LAYER_COUNT:340
;LAYER:0
M107
G1 F2100 E-0.8
G0 F3600 X73.527 Y28.578 Z.15
;TYPE:SKIRT
G1 F2100 E0
G1 F1800 X73.783 Y28.107 E0.01337
G1 X74.107 Y27.68 E0.02674
G1 X74.491 Y27.305 E0.04013
G1 X74.926 Y26.992 E0.0535
G1 X75.403 Y26.746 E0.06689
G1 X75.911 Y26.574 E0.08027
G1 X76.438 Y26.48 E0.09362
G1 X76.807 Y26.461 E0.10284
G1 X92.68 Y26.459 E0.49879
G1 X93.214 Y26.499 E0.51215
G1 X93.737 Y26.618 E0.52553
G1 X94.237 Y26.813 E0.53892
G1 X94.702 Y27.08 E0.55229
G1 X95.122 Y27.414 E0.56568
G1 X95.488 Y27.806 E0.57906
G1 X95.791 Y28.248 E0.59242
G1 X96.026 Y28.73 E0.6058
G1 X96.186 Y29.242 E0.61918
G1 X96.269 Y29.772 E0.63256
G1 X96.28 Y30.041 E0.63928
G1 X96.321 Y38.166 E0.84196
G1 X96.284 Y38.701 E0.85534
G1 X96.167 Y39.224 E0.86871
G1 X96.06 Y39.53 E0.87679
G1 X93.505 Y45.869 E1.04728
G1 X92.647 Y48.337 E1.11246
G1 X91.061 Y53.598 E1.24953
G1 X89.783 Y58.9 E1.38558
G1 X88.81 Y64.255 E1.52135
G1 X88.139 Y69.676 E1.6576
G1 X87.776 Y75.11 E1.79346
G1 X87.721 Y80.571 E1.92969
G1 X87.973 Y86.009 E2.06549
G1 X88.535 Y91.441 E2.20171
G1 X89.404 Y96.839 E2.3381
G1 X89.941 Y99.462 E2.40489
G1 X90.563 Y102.119 E2.47296
G1 X92.039 Y107.391 E2.60953
G1 X93.806 Y112.564 E2.74589
G1 X95.85 Y117.595 E2.88135
G1 X98.192 Y122.539 E3.01782
G1 X100.799 Y127.322 E3.1537
G1 X103.674 Y131.954 E3.28969
G1 X106.804 Y136.41 E3.42553
G1 X110.209 Y140.721 E3.56257
G1 X111.936 Y142.726 E3.62858
G1 X115.699 Y146.735 E3.76573
G1 X119.654 Y150.5 E3.90195
G1 X123.799 Y154.021 E4.03761
G1 X128.157 Y157.316 E4.1739
G1 X132.68 Y160.352 E4.30979
G1 X137.373 Y163.128 E4.4458
G1 X142.514 Y165.788 E4.5902
G1 X142.971 Y166.069 E4.60358
G1 X143.381 Y166.415 E4.61696
G1 X143.735 Y166.818 E4.63034
G1 X144.025 Y167.269 E4.64372
G1 X144.244 Y167.758 E4.65708
G1 X144.389 Y168.274 E4.67045
G1 X144.46 Y168.989 E4.68838
G1 X144.459 Y169.941 E4.71212
G1 X144.418 Y170.476 E4.72551
G1 X144.299 Y170.998 E4.73886
G1 X144.103 Y171.498 E4.75226
G1 X143.835 Y171.962 E4.76563
G1 X143.501 Y172.382 E4.77901
G1 X143.109 Y172.747 E4.79237
G1 X142.666 Y173.05 E4.80576
G1 X142.184 Y173.284 E4.81913
G1 X141.672 Y173.444 E4.83251
G1 X141.142 Y173.526 E4.84589
G1 X140.859 Y173.537 E4.85295
G1 X59.143 Y173.527 E6.89137
G1 X58.608 Y173.487 E6.90475
G1 X58.085 Y173.368 E6.91813
G1 X57.585 Y173.173 E6.93152
G1 X57.121 Y172.905 E6.94488
G1 X56.701 Y172.572 E6.95825
G1 X56.335 Y172.18 E6.97163
G1 X56.031 Y171.737 E6.98503
G1 X55.797 Y171.255 E6.9984
G1 X55.637 Y170.743 E7.01178
G1 X55.554 Y170.213 E7.02516
G1 X55.571 Y169.482 E7.0434
G1 X56.39 Y162.908 E7.20866
G1 X56.931 Y157.372 E7.34741
G1 X57.172 Y153.831 E7.43595
G1 X57.212 Y153.488 E7.44456
G1 X58.397 Y146.327 E7.62562
G1 X59.198 Y140.669 E7.76817
G1 X59.733 Y135.181 E7.90572
G1 X59.909 Y132.127 E7.98203
G1 X59.958 Y131.705 E7.99262
G1 X61.177 Y124.84 E8.16655
G1 X62.268 Y116.361 E8.3798
G1 X62.803 Y110.873 E8.51735
G1 X62.982 Y107.783 E8.59456
G1 X63.018 Y107.442 E8.60311
G1 X63.984 Y101.18 E8.76117
G1 X65.53 Y89.026 E9.06679
G1 X65.545 Y88.92 E9.06946
G1 X66.501 Y82.844 E9.22289
G1 X66.869 Y79.629 E9.30362
G1 X67.321 Y73.46 E9.45792
G1 X67.366 Y73.094 E9.46711
G1 X68.59 Y66.198 E9.64182
G1 X73.236 Y29.608 E10.56189
G1 X73.343 Y29.082 E10.57528
G1 X73.527 Y28.578 E10.58867
G0 F3600 X73.915 Y28.69
G1 F1800 X74.167 Y28.252 E10.60127
G1 X74.485 Y27.859 E10.61388
G1 X74.861 Y27.521 E10.6265
G1 X75.285 Y27.246 E10.6391
G1 X75.748 Y27.041 E10.65173
G1 X76.236 Y26.912 E10.66433
G1 X76.807 Y26.861 E10.67863
G1 X92.68 Y26.859 E11.07458
G1 X93.184 Y26.899 E11.08719
G1 X93.675 Y27.018 E11.09979
G1 X94.142 Y27.212 E11.11241
G1 X94.572 Y27.478 E11.12502
G1 X94.955 Y27.808 E11.13763
G1 X95.281 Y28.195 E11.15025
G1 X95.542 Y28.627 E11.16285
G1 X95.732 Y29.096 E11.17547
G1 X95.845 Y29.589 E11.18808
G1 X95.88 Y30.043 E11.19944
G1 X95.921 Y38.168 E11.40212
G1 X95.884 Y38.672 E11.41473
G1 X95.689 Y39.38 E11.43305
G1 X93.138 Y45.708 E11.60325
G1 X92.261 Y48.231 E11.66988
G1 X90.674 Y53.494 E11.807
G1 X89.39 Y58.824 E11.94376
G1 X88.415 Y64.189 E12.07979
G1 X87.741 Y69.637 E12.21672
G1 X87.376 Y75.097 E12.35323
G1 X87.321 Y80.568 E12.48971
G1 X87.575 Y86.05 E12.6266
G1 X88.138 Y91.491 E12.76305
G1 X89.011 Y96.913 E12.90005
G1 X89.547 Y99.536 E12.96683
G1 X90.177 Y102.221 E13.03563
G1 X91.659 Y107.518 E13.17284
G1 X93.425 Y112.686 E13.30907
G1 X95.492 Y117.774 E13.44607
G1 X97.829 Y122.709 E13.58228
G1 X100.454 Y127.524 E13.71908
G1 X103.342 Y132.177 E13.85569
G1 X106.487 Y136.654 E13.99217
G1 X109.897 Y140.972 E14.12942
G1 X111.646 Y143.003 E14.19628
G1 X115.413 Y147.016 E14.33358
G1 X119.383 Y150.795 E14.4703
G1 X123.553 Y154.336 E14.60677
G1 X127.918 Y157.638 E14.7433
G1 X132.467 Y160.69 E14.87995
G1 X137.178 Y163.477 E15.01649
G1 X142.33 Y166.143 E15.16119
G1 X142.76 Y166.41 E15.17382
G1 X143.142 Y166.741 E15.18643
G1 X143.467 Y167.129 E15.19905
G1 X143.726 Y167.562 E15.21164
G1 X143.915 Y168.032 E15.22427
G1 X144.027 Y168.525 E15.23689
G1 X144.06 Y168.988 E15.24846
G1 X144.059 Y169.94 E15.27221
G1 X144.019 Y170.444 E15.28482
G1 X143.899 Y170.936 E15.29746
G1 X143.704 Y171.402 E15.31006
G1 X143.438 Y171.832 E15.32267
G1 X143.107 Y172.214 E15.33528
G1 X142.72 Y172.54 E15.3479
G1 X142.287 Y172.801 E15.36051
G1 X141.818 Y172.99 E15.37313
G1 X141.326 Y173.103 E15.38572
G1 X140.859 Y173.137 E15.3974
G1 X59.143 Y173.127 E17.43581
G1 X58.639 Y173.087 E17.44843
G1 X58.147 Y172.968 E17.46105
G1 X57.681 Y172.773 E17.47365
G1 X57.251 Y172.508 E17.48625
G1 X56.868 Y172.177 E17.49888
G1 X56.542 Y171.791 E17.51148
G1 X56.281 Y171.358 E17.5241
G1 X56.091 Y170.889 E17.53672
G1 X55.978 Y170.397 E17.54931
G1 X55.943 Y169.892 E17.56194
G1 X55.968 Y169.531 E17.57097
G1 X56.787 Y162.956 E17.73625
G1 X57.33 Y157.403 E17.87543
G1 X57.571 Y153.859 E17.96404
G1 X57.607 Y153.554 E17.9717
G1 X58.787 Y146.421 E18.15205
G1 X59.595 Y140.719 E18.29571
G1 X60.131 Y135.215 E18.43366
G1 X60.308 Y132.15 E18.51024
G1 X60.352 Y131.774 E18.51968
G1 X61.573 Y124.895 E18.69396
G1 X62.664 Y116.421 E18.90709
G1 X63.201 Y110.907 E19.04529
G1 X63.381 Y107.806 E19.12277
G1 X63.413 Y107.503 E19.13037
G1 X64.384 Y101.207 E19.28929
G1 X65.927 Y89.076 E19.59433
G1 X65.94 Y88.982 E19.5967
G1 X66.901 Y82.879 E19.75082
G1 X67.266 Y79.681 E19.83111
G1 X67.72 Y73.489 E19.98598
G1 X67.76 Y73.164 E19.99415
G1 X68.982 Y66.279 E20.16858
G1 X73.632 Y29.658 E21.08943
G1 X73.736 Y29.163 E21.10205
G1 X73.915 Y28.69 E21.11467
G1 F2100 E20.31467
G0 F3600 X76.114 Y30.168
G0 X77.001 Y30.279
G0 X77.041 Y30.324
G0 X76.975 Y30.249
;TYPE:WALL-OUTER
G1 F2100 E21.11467
G1 F1800 X92.5 Y30.249 E21.50194
G1 X92.53 Y37.784 E21.6899
G1 X92.53 Y37.984 E21.69489
G1 X92.33 Y37.984 E21.69812
G1 X83.855 Y37.984 E21.90953
G1 X67.141 Y168.952 E25.20304
G1 X67.113 Y169.177 E25.20869
G1 X67.339 Y169.177 E25.21222
G1 X67.34 Y169.177 E25.21224
G1 X140.669 Y169.177 E27.04144
G1 X140.669 Y169.549 E27.05072
G1 X140.669 Y169.749 E27.05571
G1 X140.469 Y169.749 E27.05894
G1 X59.583 Y169.737 E29.07665
G1 X59.582 Y169.737 E29.07667
G1 X59.357 Y169.737 E29.08229
G1 X59.385 Y169.513 E29.08581
G1 X76.975 Y30.249 E32.58736
G0 F3600 X77.38 Y30.428
;TYPE:SKIN
G1 F1800 X84.755 Y37.804 E32.84756
G0 X84.825 Y37.874
G0 F3600 X84.19 Y37.804
G1 F1800 X77.095 Y30.709 E33.09785
G0 X77.025 Y30.639
G0 F3600 X77.032 Y31.212
G1 F1800 X83.688 Y37.868 E33.33266
G0 X83.758 Y37.938
G0 F3600 X83.624 Y38.369
G1 F1800 X76.969 Y31.714 E33.56743
G0 X76.899 Y31.644
G0 F3600 X76.905 Y32.216
G1 F1800 X83.56 Y38.871 E33.80221
G0 X83.63 Y38.941
G0 F3600 X83.496 Y39.373
G1 F1800 X76.842 Y32.718 E34.03696
G0 X76.772 Y32.648
G0 F3600 X76.779 Y33.221
G1 F1800 X83.432 Y39.875 E34.27168
G0 X83.502 Y39.945
G0 F3600 X83.368 Y40.376
G1 F1800 X76.715 Y33.723 E34.50638
G0 X76.645 Y33.653
G0 F3600 X76.651 Y34.225
G1 F1800 X83.304 Y40.878 E34.74109
G0 X83.374 Y40.948
G0 F3600 X83.24 Y41.379
G1 F1800 X76.588 Y34.728 E34.97574
G0 X76.518 Y34.658
G0 F3600 X76.525 Y35.23
G1 F1800 X83.176 Y41.881 E35.21037
G0 X83.246 Y41.951
G0 F3600 X83.112 Y42.383
G1 F1800 X76.461 Y35.732 E35.445
G0 X76.391 Y35.662
G0 F3600 X76.397 Y36.234
G1 F1800 X83.048 Y42.885 E35.67963
G0 X83.118 Y42.955
G0 F3600 X82.984 Y43.386
G1 F1800 X76.335 Y36.737 E35.91419
G0 X76.265 Y36.667
G0 F3600 X76.271 Y37.239
G1 F1800 X82.92 Y43.888 E36.14875
G0 X82.99 Y43.958
G0 F3600 X82.856 Y44.39
G1 F1800 X76.207 Y37.741 E36.38332
G0 X76.137 Y37.671
G0 F3600 X76.144 Y38.243
G1 F1800 X82.792 Y44.891 E36.61784
G0 X82.862 Y44.961
G0 F3600 X82.728 Y45.393
G1 F1800 X76.081 Y38.745 E36.85235
G0 X76.011 Y38.675
G0 F3600 X76.017 Y39.247
G1 F1800 X82.664 Y45.894 E37.08684
G0 X82.734 Y45.964
G0 F3600 X82.6 Y46.396
G1 F1800 X75.954 Y39.75 E37.3213
G0 X75.884 Y39.68
G0 F3600 X75.89 Y40.252
G1 F1800 X82.536 Y46.898 E37.55575
G0 X82.606 Y46.968
G0 F3600 X82.472 Y47.4
G1 F1800 X75.827 Y40.754 E37.79019
G0 X75.757 Y40.684
G0 F3600 X75.763 Y41.256
G1 F1800 X82.408 Y47.901 E38.02461
G0 X82.478 Y47.971
G0 F3600 X82.344 Y48.403
G1 F1800 X75.7 Y41.759 E38.259
G0 X75.63 Y41.689
G0 F3600 X75.637 Y42.261
G1 F1800 X82.28 Y48.904 E38.49335
G0 X82.35 Y48.974
G0 F3600 X82.216 Y49.406
G1 F1800 X75.573 Y42.763 E38.7277
G0 X75.503 Y42.693
G0 F3600 X75.51 Y43.266
G1 F1800 X82.152 Y49.908 E38.96201
G0 X82.222 Y49.978
G0 F3600 X82.088 Y50.41
G1 F1800 X75.446 Y43.768 E39.19632
G0 X75.376 Y43.698
G0 F3600 X75.383 Y44.27
G1 F1800 X82.024 Y50.911 E39.4306
G0 X82.094 Y50.981
G0 F3600 X81.96 Y51.413
G1 F1800 X75.319 Y44.772 E39.66488
G0 X75.249 Y44.702
G0 F3600 X75.256 Y45.275
G1 F1800 X81.896 Y51.915 E39.89913
G0 X81.966 Y51.985
G0 F3600 X81.832 Y52.416
G1 F1800 X75.193 Y45.777 E40.13334
G0 X75.123 Y45.707
G0 F3600 X75.129 Y46.279
G1 F1800 X81.768 Y52.918 E40.36754
G0 X81.838 Y52.988
G0 F3600 X81.704 Y53.419
G1 F1800 X75.066 Y46.782 E40.6017
G0 X74.996 Y46.712
G0 F3600 X75.002 Y47.284
G1 F1800 X81.64 Y53.921 E40.83586
G0 X81.71 Y53.991
G0 F3600 X81.576 Y54.423
G1 F1800 X74.939 Y47.786 E41.06999
G0 X74.869 Y47.716
G0 F3600 X74.875 Y48.288
G1 F1800 X81.512 Y54.925 E41.30413
G0 X81.582 Y54.995
G0 F3600 X81.448 Y55.426
G1 F1800 X74.812 Y48.791 E41.53822
G0 X74.742 Y48.721
G0 F3600 X74.748 Y49.293
G1 F1800 X81.384 Y55.928 E41.7723
G0 X81.454 Y55.998
G0 F3600 X81.32 Y56.429
G1 F1800 X74.685 Y49.795 E42.00635
G0 X74.615 Y49.725
G0 F3600 X74.622 Y50.297
G1 F1800 X81.256 Y56.931 E42.24038
G0 X81.326 Y57.001
G0 F3600 X81.192 Y57.433
G1 F1800 X74.558 Y50.799 E42.47442
G0 X74.488 Y50.729
G0 F3600 X74.495 Y51.302
G1 F1800 X81.128 Y57.935 E42.70841
G0 X81.198 Y58.005
G0 F3600 X81.064 Y58.436
G1 F1800 X74.431 Y51.804 E42.94239
G0 X74.361 Y51.734
G0 F3600 X74.368 Y52.306
G1 F1800 X80.999 Y58.938 E43.17634
G0 X81.069 Y59.008
G0 F3600 X80.936 Y59.44
G1 F1800 X74.304 Y52.808 E43.4103
G0 X74.234 Y52.738
G0 F3600 X74.241 Y53.31
G1 F1800 X80.871 Y59.941 E43.64421
G0 X80.941 Y60.011
G0 F3600 X80.808 Y60.443
G1 F1800 X74.178 Y53.813 E43.8781
G0 X74.108 Y53.743
G0 F3600 X74.114 Y54.315
G1 F1800 X80.743 Y60.944 E44.11195
G0 X80.813 Y61.014
G0 F3600 X80.68 Y61.446
G1 F1800 X74.051 Y54.817 E44.34581
G0 X73.981 Y54.747
G0 F3600 X73.988 Y55.32
G1 F1800 X80.615 Y61.948 E44.57961
G0 X80.685 Y62.018
G0 F3600 X80.552 Y62.45
G1 F1800 X73.924 Y55.822 E44.81343
G0 X73.854 Y55.752
G0 F3600 X73.86 Y56.324
G1 F1800 X80.487 Y62.951 E45.04722
G0 X80.557 Y63.021
G0 F3600 X80.424 Y63.453
G1 F1800 X73.797 Y56.826 E45.281
G0 X73.727 Y56.756
G0 F3600 X73.734 Y57.329
G1 F1800 X80.359 Y63.954 E45.51472
G0 X80.429 Y64.024
G0 F3600 X80.296 Y64.457
G1 F1800 X73.67 Y57.831 E45.74847
G0 X73.6 Y57.761
G0 F3600 X73.606 Y58.333
G1 F1800 X80.231 Y64.958 E45.98218
G0 X80.301 Y65.028
G0 F3600 X80.168 Y65.46
G1 F1800 X73.544 Y58.836 E46.21586
G0 X73.474 Y58.766
G0 F3600 X73.48 Y59.338
G1 F1800 X80.103 Y65.961 E46.44951
G0 X80.173 Y66.031
G0 F3600 X80.039 Y66.463
G1 F1800 X73.416 Y59.84 E46.68315
G0 X73.346 Y59.77
G0 F3600 X73.353 Y60.342
G1 F1800 X79.975 Y66.965 E46.91678
G0 X80.045 Y67.035
G0 F3600 X79.911 Y67.466
G1 F1800 X73.29 Y60.845 E47.15035
G0 X73.22 Y60.775
G0 F3600 X73.226 Y61.347
G1 F1800 X79.847 Y67.968 E47.38393
G0 X79.917 Y68.038
G0 F3600 X79.783 Y68.469
G1 F1800 X73.162 Y61.849 E47.61748
G0 X73.092 Y61.779
G0 F3600 X73.099 Y62.351
G1 F1800 X79.719 Y68.971 E47.85102
G0 X79.789 Y69.041
G0 F3600 X79.655 Y69.473
G1 F1800 X73.036 Y62.854 E48.08452
G0 X72.966 Y62.784
G0 F3600 X72.972 Y63.356
G1 F1800 X79.591 Y69.975 E48.31803
G0 X79.661 Y70.045
G0 F3600 X79.527 Y70.476
G1 F1800 X72.909 Y63.858 E48.55149
G0 X72.839 Y63.788
G0 F3600 X72.846 Y64.36
G1 F1800 X79.463 Y70.978 E48.78494
G0 X79.533 Y71.048
G0 F3600 X79.399 Y71.48
G1 F1800 X72.782 Y64.862 E49.01839
G0 X72.712 Y64.792
G0 F3600 X72.718 Y65.364
G1 F1800 X79.335 Y71.982 E49.25184
G0 X79.405 Y72.052
G0 F3600 X79.271 Y72.483
G1 F1800 X72.655 Y65.867 E49.48524
G0 X72.585 Y65.797
G0 F3600 X72.592 Y66.369
G1 F1800 X79.207 Y72.985 E49.71862
G0 X79.277 Y73.055
G0 F3600 X79.143 Y73.486
G1 F1800 X72.528 Y66.871 E49.95198
G0 X72.458 Y66.801
G0 F3600 X72.465 Y67.374
G1 F1800 X79.079 Y73.988 E50.18531
G0 X79.149 Y74.058
G0 F3600 X79.015 Y74.49
G1 F1800 X72.402 Y67.876 E50.41862
G0 X72.332 Y67.806
G0 F3600 X72.338 Y68.378
G1 F1800 X78.951 Y74.991 E50.65191
G0 X79.021 Y75.061
G0 F3600 X78.887 Y75.493
G1 F1800 X72.274 Y68.88 E50.8852
G0 X72.204 Y68.81
G0 F3600 X72.211 Y69.383
G1 F1800 X78.823 Y75.994 E51.11844
G0 X78.893 Y76.064
G0 F3600 X78.759 Y76.496
G1 F1800 X72.148 Y69.885 E51.35166
G0 X72.078 Y69.815
G0 F3600 X72.084 Y70.387
G1 F1800 X78.695 Y76.998 E51.58488
G0 X78.765 Y77.068
G0 F3600 X78.631 Y77.5
G1 F1800 X72.021 Y70.89 E51.81807
G0 X71.951 Y70.82
G0 F3600 X71.958 Y71.392
G1 F1800 X78.567 Y78.001 E52.05122
G0 X78.637 Y78.071
G0 F3600 X78.503 Y78.503
G1 F1800 X71.894 Y71.894 E52.28437
G0 X71.824 Y71.824
G0 F3600 X71.83 Y72.396
G1 F1800 X78.439 Y79.005 E52.51752
G0 X78.509 Y79.075
G0 F3600 X78.375 Y79.507
G1 F1800 X71.767 Y72.899 E52.75063
G0 X71.697 Y72.829
G0 F3600 X71.704 Y73.401
G1 F1800 X78.311 Y80.008 E52.98371
G0 X78.381 Y80.078
G0 F3600 X78.247 Y80.509
G1 F1800 X71.64 Y73.903 E53.21678
G0 X71.57 Y73.833
G0 F3600 X71.577 Y74.406
G1 F1800 X78.183 Y81.011 E53.4498
G0 X78.253 Y81.081
G0 F3600 X78.119 Y81.513
G1 F1800 X71.513 Y74.908 E53.68283
G0 X71.443 Y74.838
G0 F3600 X71.45 Y75.41
G1 F1800 X78.055 Y82.015 E53.91584
G0 X78.125 Y82.085
G0 F3600 X77.991 Y82.516
G1 F1800 X71.386 Y75.912 E54.14883
G0 X71.316 Y75.842
G0 F3600 X71.323 Y76.414
G1 F1800 X77.927 Y83.018 E54.3818
G0 X77.997 Y83.088
G0 F3600 X77.863 Y83.519
G1 F1800 X71.26 Y76.916 E54.61474
G0 X71.19 Y76.846
G0 F3600 X71.196 Y77.419
G1 F1800 X77.799 Y84.021 E54.84766
G0 X77.869 Y84.091
G0 F3600 X77.735 Y84.523
G1 F1800 X71.133 Y77.921 E55.08057
G0 X71.063 Y77.851
G0 F3600 X71.069 Y78.423
G1 F1800 X77.671 Y85.025 E55.31347
G0 X77.741 Y85.095
G0 F3600 X77.607 Y85.526
G1 F1800 X71.006 Y78.925 E55.54634
G0 X70.936 Y78.855
G0 F3600 X70.943 Y79.428
G1 F1800 X77.543 Y86.028 E55.77917
G0 X77.613 Y86.098
G0 F3600 X77.479 Y86.53
G1 F1800 X70.879 Y79.93 E56.012
G0 X70.809 Y79.86
G0 F3600 X70.816 Y80.432
G1 F1800 X77.415 Y87.032 E56.24482
G0 X77.485 Y87.102
G0 F3600 X77.351 Y87.533
G1 F1800 X70.752 Y80.934 E56.47762
G0 X70.682 Y80.864
G0 F3600 X70.689 Y81.437
G1 F1800 X77.286 Y88.034 E56.71034
G0 X77.356 Y88.104
G0 F3600 X77.223 Y88.536
G1 F1800 X70.625 Y81.939 E56.94309
G0 X70.555 Y81.869
G0 F3600 X70.562 Y82.441
G1 F1800 X77.158 Y89.038 E57.1758
G0 X77.228 Y89.108
G0 F3600 X77.095 Y89.54
G1 F1800 X70.499 Y82.944 E57.40849
G0 X70.429 Y82.874
G0 F3600 X70.435 Y83.446
G1 F1800 X77.03 Y90.041 E57.64115
G0 X77.1 Y90.111
G0 F3600 X76.967 Y90.543
