;FLAVOR:RepRap
;TIME:15564
;Generated with Cura_SteamEngine 2.3.1
G21 ; set units to millimeters
G90 ; use absolute positioning
M82 ; absolute extrusion mode
G28 W ; home all without mesh bed level
G80 ; mesh bed leveling
M104 S200 ; set extruder temp
M140 S60 ; set bed temp
M190 S60 ; wait for bed temp
M109 S200 ; wait for extruder temp
G92 E0.0 ; reset extruder distance position
G1 Y-3.0 F1000.0 ; go outside print area
G1 X60.0 E9.0 F1000.0 ; intro line
G1 X100.0 E21.5 F1000.0 ; intro line
G92 E0.0 ; reset extruder distance position
;LAYER_COUNT:340
;LAYER:0
M107
G1 F2100 E-0.8
G0 F3600 X76.609 Y26.886 Z.15
;TYPE:SKIRT
G1 F2100 E0
G1 F1800 X76.804 Y26.387 E0.01336
G1 X77.071 Y25.922 E0.02674
G1 X77.405 Y25.502 E0.04013
G1 X77.797 Y25.136 E0.0535
G1 X78.239 Y24.833 E0.06687
G1 X78.721 Y24.598 E0.08025
G1 X79.233 Y24.438 E0.09363
G1 X79.763 Y24.355 E0.10701
G1 X80.139 Y24.345 E0.11639
G1 X82.479 Y24.403 E0.17478
G1 X82.838 Y24.43 E0.18376
G1 X87.346 Y24.996 E0.2971
G1 X92.791 Y25.385 E0.43327
G1 X98.25 Y25.467 E0.56946
G1 X103.689 Y25.239 E0.70526
G1 X109.166 Y24.699 E0.84254
G1 X111.458 Y24.383 E0.90026
G1 X111.952 Y24.349 E0.91261
G1 X119.951 Y24.353 E1.11215
G1 X120.486 Y24.393 E1.12553
G1 X121.008 Y24.512 E1.13889
G1 X121.508 Y24.708 E1.15228
G1 X121.973 Y24.976 E1.16567
G1 X122.392 Y25.309 E1.17902
G1 X122.758 Y25.702 E1.19242
G1 X123.061 Y26.144 E1.20579
G1 X123.296 Y26.626 E1.21916
G1 X123.456 Y27.138 E1.23254
G1 X123.538 Y27.668 E1.24592
G1 X123.549 Y27.951 E1.25299
G1 X123.559 Y49.038 E1.779
G1 X123.717 Y54.62 E1.9183
G1 X123.92 Y58.131 E2.00603
G1 X123.922 Y58.518 E2.01569
G1 X123.824 Y60.488 E2.06489
G1 X123.751 Y66.002 E2.20245
G1 X123.924 Y71.337 E2.3356
G1 X123.919 Y71.679 E2.34413
G1 X123.644 Y76.073 E2.45395
G1 X123.559 Y80.138 E2.55538
G1 X123.599 Y130.036 E3.80009
G1 X123.927 Y135.873 E3.94592
G1 X123.931 Y136.204 E3.95418
G1 X123.749 Y141.297 E4.08131
G1 X123.747 Y144.001 E4.14876
G1 X123.924 Y149.541 E4.28703
G1 X123.919 Y149.881 E4.29551
G1 X123.644 Y154.274 E4.40531
G1 X123.559 Y158.341 E4.50678
G1 X123.549 Y172.059 E4.84898
G1 X123.509 Y172.593 E4.86234
G1 X123.389 Y173.116 E4.87572
G1 X123.194 Y173.616 E4.88911
G1 X122.926 Y174.08 E4.90247
G1 X122.592 Y174.5 E4.91586
G1 X122.2 Y174.866 E4.92924
G1 X121.758 Y175.169 E4.94261
G1 X121.275 Y175.403 E4.95599
G1 X120.763 Y175.563 E4.96938
G1 X120.233 Y175.645 E4.98275
G1 X119.94 Y175.656 E4.99007
G1 X111.729 Y175.635 E5.19489
G1 X111.194 Y175.594 E5.20828
G1 X110.671 Y175.473 E5.22167
G1 X110.173 Y175.277 E5.23502
G1 X109.708 Y175.008 E5.24842
G1 X109.466 Y174.827 E5.25596
G1 X106.442 Y172.366 E5.35321
G1 X102.054 Y169.124 E5.48931
G1 X97.486 Y166.134 E5.6255
G1 X91.981 Y162.982 E5.78374
G1 X91.537 Y162.682 E5.7971
G1 X91.142 Y162.319 E5.81049
G1 X90.806 Y161.901 E5.82386
G1 X90.535 Y161.438 E5.83725
G1 X90.336 Y160.94 E5.85062
G1 X90.214 Y160.418 E5.864
G1 X90.17 Y159.858 E5.87801
G1 X90.17 Y152.819 E6.0536
G1 X90.252 Y152.054 E6.07279
G1 X91.528 Y146.186 E6.22259
G1 X91.975 Y143.568 E6.28884
G1 X92.671 Y138.133 E6.42552
G1 X93.057 Y132.703 E6.56132
G1 X93.136 Y127.241 E6.69758
G1 X92.906 Y121.787 E6.83375
G1 X92.371 Y116.389 E6.96907
G1 X91.517 Y110.941 E7.10663
G1 X91 Y108.354 E7.17244
G1 X89.696 Y103.033 E7.3091
G1 X88.097 Y97.803 E7.44552
G1 X86.207 Y92.677 E7.5818
G1 X85.173 Y90.202 E7.64871
G1 X82.839 Y85.222 E7.78591
G1 X80.266 Y80.452 E7.9211
G1 X76.99 Y75.155 E8.07647
G1 X76.743 Y74.679 E8.08984
G1 X76.569 Y74.172 E8.10321
G1 X76.472 Y73.644 E8.11661
G1 X76.452 Y73.261 E8.12617
G1 X76.45 Y27.944 E9.25661
G1 X76.49 Y27.409 E9.26999
G1 X76.609 Y26.886 E9.28337
G0 F3600 X77.009 Y26.949
G1 F1800 X77.203 Y26.482 E9.29599
G1 X77.469 Y26.052 E9.3086
G1 X77.799 Y25.669 E9.32121
G1 X78.186 Y25.343 E9.33383
G1 X78.619 Y25.082 E9.34645
G1 X79.087 Y24.892 E9.35905
G1 X79.58 Y24.779 E9.37166
G1 X80.129 Y24.745 E9.38538
G1 X82.469 Y24.803 E9.44377
G1 X82.788 Y24.827 E9.45175
G1 X87.304 Y25.394 E9.56529
G1 X92.774 Y25.785 E9.70209
G1 X98.261 Y25.867 E9.83898
G1 X103.71 Y25.639 E9.97502
G1 X109.206 Y25.097 E10.11278
G1 X111.512 Y24.779 E10.17085
G1 X111.952 Y24.749 E10.18185
G1 X119.951 Y24.753 E10.38139
G1 X120.455 Y24.793 E10.394
G1 X120.946 Y24.912 E10.4066
G1 X121.412 Y25.107 E10.4192
G1 X121.842 Y25.373 E10.43182
G1 X122.225 Y25.704 E10.44445
G1 X122.551 Y26.09 E10.45705
G1 X122.812 Y26.523 E10.46966
G1 X123.001 Y26.992 E10.48227
G1 X123.115 Y27.485 E10.4949
G1 X123.149 Y27.951 E10.50655
G1 X123.159 Y49.049 E11.03284
G1 X123.317 Y54.62 E11.17187
G1 X123.521 Y58.154 E11.26017
G1 X123.522 Y58.498 E11.26875
G1 X123.424 Y60.463 E11.31783
G1 X123.351 Y66.009 E11.45619
G1 X123.524 Y71.35 E11.58949
G1 X123.52 Y71.654 E11.59707
G1 X123.244 Y76.064 E11.7073
G1 X123.159 Y80.108 E11.8082
G1 X123.199 Y130.041 E13.05378
G1 X123.528 Y135.895 E13.20004
G1 X123.531 Y136.189 E13.20737
G1 X123.349 Y141.282 E13.3345
G1 X123.347 Y144.014 E13.40265
G1 X123.524 Y149.554 E13.54092
G1 X123.52 Y149.856 E13.54845
G1 X123.244 Y154.265 E13.65865
G1 X123.159 Y158.314 E13.75967
G1 X123.149 Y172.058 E14.10252
G1 X123.109 Y172.562 E14.11513
G1 X122.99 Y173.054 E14.12776
G1 X122.794 Y173.52 E14.14037
G1 X122.528 Y173.95 E14.15298
G1 X122.198 Y174.333 E14.16559
G1 X121.811 Y174.658 E14.1782
G1 X121.378 Y174.919 E14.19081
G1 X120.909 Y175.108 E14.20343
G1 X120.417 Y175.222 E14.21602
G1 X119.941 Y175.256 E14.22793
G1 X111.73 Y175.235 E14.43275
G1 X111.226 Y175.194 E14.44537
G1 X110.735 Y175.074 E14.45797
G1 X110.269 Y174.878 E14.47059
G1 X109.718 Y174.517 E14.48702
G1 X106.695 Y172.057 E14.58424
G1 X102.265 Y168.784 E14.72164
G1 X97.698 Y165.794 E14.8578
G1 X92.18 Y162.635 E15.01641
G1 X91.763 Y162.35 E15.02901
G1 X91.395 Y162.003 E15.04163
G1 X91.087 Y161.602 E15.05424
G1 X90.846 Y161.158 E15.06684
G1 X90.678 Y160.681 E15.07946
G1 X90.587 Y160.184 E15.09206
G1 X90.57 Y159.858 E15.10021
G1 X90.57 Y152.819 E15.27579
G1 X90.643 Y152.139 E15.29285
G1 X91.924 Y146.247 E15.44326
G1 X92.369 Y143.64 E15.50924
G1 X93.069 Y138.177 E15.64663
G1 X93.457 Y132.719 E15.78312
G1 X93.536 Y127.231 E15.92003
G1 X93.306 Y121.766 E16.05648
G1 X92.766 Y116.323 E16.19292
G1 X91.915 Y110.893 E16.33003
G1 X91.393 Y108.276 E16.39659
G1 X90.077 Y102.91 E16.53442
G1 X88.475 Y97.668 E16.67115
G1 X86.588 Y92.553 E16.80715
G1 X85.538 Y90.038 E16.87513
G1 X83.196 Y85.04 E17.01282
G1 X80.605 Y80.236 E17.14897
G1 X77.331 Y74.944 E17.3042
G1 X77.099 Y74.495 E17.31681
G1 X76.942 Y74.014 E17.32943
G1 X76.862 Y73.515 E17.34204
G1 X76.852 Y73.261 E17.34838
G1 X76.85 Y27.944 E18.47882
G1 X76.89 Y27.44 E18.49143
G1 X77.009 Y26.949 E18.50403
G1 F2100 E17.70403
G0 F3600 X79.376 Y28.163
G0 X80.269 Y28.163
G0 X80.311 Y28.205
G0 X80.241 Y28.135
;TYPE:WALL-OUTER
G1 F2100 E18.50403
G1 F1800 X81.741 Y28.135 E18.54145
G1 X81.741 Y39.676 E18.82934
G1 X112.14 Y39.676 E19.58765
G1 X112.14 Y28.34 E19.87042
G1 X112.14 Y28.14 E19.87541
G1 X112.34 Y28.14 E19.87864
G1 X119.759 Y28.142 E20.06371
G1 X119.759 Y171.865 E23.6489
G1 X111.959 Y171.865 E23.84347
G1 X111.959 Y159.665 E24.1478
G1 X93.96 Y159.665 E24.59679
G1 X93.96 Y153.009 E24.76282
G1 X111.959 Y153.009 E25.21181
G1 X112.159 Y153.009 E25.2168
G1 X112.159 Y152.809 E25.22003
G1 X112.142 Y137.155 E25.61052
G1 X112.14 Y73.064 E27.20927
G1 X80.241 Y73.064 E28.005
G1 X80.241 Y28.135 E29.12576
G0 F3600 X80.311 Y28.205
G0 X81.671 Y40.806
G0 X81.741 Y40.876
G1 F1800 X81.741 Y71.364 E29.88628
G1 X112.14 Y71.364 E30.64459
G1 X112.14 Y40.876 E31.40511
G1 X81.741 Y40.876 E32.16342
G0 F3600 X81.56 Y40.831
;TYPE:SKIN
G1 F1800 X80.419 Y39.69 E32.20367
G0 X80.349 Y39.62
G0 F3600 X80.419 Y39.124
G1 F1800 X81.991 Y40.696 E32.25913
G0 X82.061 Y40.766
G0 F3600 X82.556 Y40.696
G1 F1800 X81.716 Y39.856 E32.28876
G0 X81.646 Y39.786
G0 F3600 X81.56 Y39.699
G1 F1800 X80.419 Y38.559 E32.329
G0 X80.349 Y38.489
G0 F3600 X80.419 Y37.993
G1 F1800 X81.56 Y39.134 E32.36925
G0 X81.63 Y39.204
G0 F3600 X81.56 Y38.568
G1 F1800 X80.419 Y37.427 E32.4095
G0 X80.349 Y37.357
G0 F3600 X80.419 Y36.862
G1 F1800 X81.56 Y38.002 E32.44973
G0 X81.63 Y38.072
G0 F3600 X81.56 Y37.437
G1 F1800 X80.419 Y36.296 E32.48999
G0 X80.349 Y36.226
G0 F3600 X80.419 Y35.73
G1 F1800 X81.56 Y36.871 E32.53024
G0 X81.63 Y36.941
G0 F3600 X81.56 Y36.305
G1 F1800 X80.419 Y35.165 E32.57047
G0 X80.349 Y35.095
G0 F3600 X80.419 Y34.599
G1 F1800 X81.56 Y35.74 E32.61072
G0 X81.63 Y35.81
G0 F3600 X81.56 Y35.174
G1 F1800 X80.419 Y34.033 E32.65098
G0 X80.349 Y33.963
G0 F3600 X80.419 Y33.468
G1 F1800 X81.56 Y34.608 E32.69121
G0 X81.63 Y34.678
G0 F3600 X81.56 Y34.042
G1 F1800 X80.419 Y32.902 E32.73144
G0 X80.349 Y32.832
G0 F3600 X80.419 Y32.336
G1 F1800 X81.56 Y33.477 E32.7717
G0 X81.63 Y33.547
G0 F3600 X81.56 Y32.911
G1 F1800 X80.419 Y31.771 E32.81193
G0 X80.349 Y31.701
G0 F3600 X80.419 Y31.205
G1 F1800 X81.56 Y32.345 E32.85217
G0 X81.63 Y32.415
G0 F3600 X81.56 Y31.78
G1 F1800 X80.419 Y30.639 E32.89242
G0 X80.349 Y30.569
G0 F3600 X80.419 Y30.073
G1 F1800 X81.56 Y31.214 E32.93267
G0 X81.63 Y31.284
G0 F3600 X81.56 Y30.648
G1 F1800 X80.419 Y29.508 E32.9729
G0 X80.349 Y29.438
G0 F3600 X80.419 Y28.942
G1 F1800 X81.56 Y30.083 E33.01315
G0 X81.63 Y30.153
G0 F3600 X81.56 Y29.517
G1 F1800 X80.419 Y28.376 E33.05341
G0 X80.349 Y28.306
G0 F3600 X80.924 Y28.315
G1 F1800 X81.56 Y28.951 E33.07584
G0 X81.63 Y29.021
G0 F3600 X81.56 Y28.386
G1 F1800 X81.489 Y28.315 E33.07835
G0 F3600 X81.713 Y39.704
G0 X82.282 Y39.856
G1 F1800 X83.122 Y40.696 E33.10798
G0 X83.192 Y40.766
G0 F3600 X83.688 Y40.696
G1 F1800 X82.848 Y39.856 E33.13761
G0 X82.778 Y39.786
G0 F3600 X83.413 Y39.856
G1 F1800 X84.253 Y40.696 E33.16725
G0 X84.323 Y40.766
G0 F3600 X84.819 Y40.696
G1 F1800 X83.979 Y39.856 E33.19688
G0 X83.909 Y39.786
G0 F3600 X84.545 Y39.856
G1 F1800 X85.385 Y40.696 E33.22651
G0 X85.455 Y40.766
G0 F3600 X85.95 Y40.696
G1 F1800 X85.11 Y39.856 E33.25615
G0 X85.04 Y39.786
G0 F3600 X85.676 Y39.856
G1 F1800 X86.516 Y40.696 E33.28578
G0 X86.586 Y40.766
G0 F3600 X87.082 Y40.696
G1 F1800 X86.242 Y39.856 E33.31541
G0 X86.172 Y39.786
G0 F3600 X86.807 Y39.856
G1 F1800 X87.648 Y40.696 E33.34507
G0 X87.718 Y40.766
G0 F3600 X88.213 Y40.696
G1 F1800 X87.373 Y39.856 E33.3747
G0 X87.303 Y39.786
G0 F3600 X87.939 Y39.856
G1 F1800 X88.779 Y40.696 E33.40433
G0 X88.849 Y40.766
G0 F3600 X89.345 Y40.696
G1 F1800 X88.505 Y39.856 E33.43396
G0 X88.435 Y39.786
G0 F3600 X89.07 Y39.856
G1 F1800 X89.91 Y40.696 E33.4636
G0 X89.98 Y40.766
G0 F3600 X90.476 Y40.696
G1 F1800 X89.636 Y39.856 E33.49323
G0 X89.566 Y39.786
G0 F3600 X90.202 Y39.856
G1 F1800 X91.042 Y40.696 E33.52286
G0 X91.112 Y40.766
G0 F3600 X91.607 Y40.696
G1 F1800 X90.767 Y39.856 E33.5525
G0 X90.697 Y39.786
G0 F3600 X91.333 Y39.856
G1 F1800 X92.173 Y40.696 E33.58213
G0 X92.243 Y40.766
G0 F3600 X92.739 Y40.696
G1 F1800 X91.899 Y39.856 E33.61176
G0 X91.829 Y39.786
G0 F3600 X92.464 Y39.856
G1 F1800 X93.304 Y40.696 E33.6414
G0 X93.374 Y40.766
G0 F3600 X93.87 Y40.696
G1 F1800 X93.03 Y39.856 E33.67103
G0 X92.96 Y39.786
G0 F3600 X93.596 Y39.856
G1 F1800 X94.436 Y40.696 E33.70066
G0 X94.506 Y40.766
G0 F3600 X95.001 Y40.696
G1 F1800 X94.161 Y39.856 E33.7303
G0 X94.091 Y39.786
G0 F3600 X94.727 Y39.856
G1 F1800 X95.567 Y40.696 E33.75993
G0 X95.637 Y40.766
G0 F3600 X96.133 Y40.696
G1 F1800 X95.293 Y39.856 E33.78956
G0 X95.223 Y39.786
G0 F3600 X95.858 Y39.856
G1 F1800 X96.698 Y40.696 E33.8192
G0 X96.768 Y40.766
G0 F3600 X97.264 Y40.696
G1 F1800 X96.424 Y39.856 E33.84883
G0 X96.354 Y39.786
G0 F3600 X96.99 Y39.856
G1 F1800 X97.83 Y40.696 E33.87846
G0 X97.9 Y40.766
G0 F3600 X98.396 Y40.696
G1 F1800 X97.555 Y39.856 E33.90811
G0 X97.485 Y39.786
G0 F3600 X98.121 Y39.856
G1 F1800 X98.961 Y40.696 E33.93775
G0 X99.031 Y40.766
G0 F3600 X99.527 Y40.696
G1 F1800 X98.687 Y39.856 E33.96738
G0 X98.617 Y39.786
G0 F3600 X99.253 Y39.856
G1 F1800 X100.093 Y40.696 E33.99701
G0 X100.163 Y40.766
G0 F3600 X100.658 Y40.696
G1 F1800 X99.818 Y39.856 E34.02665
G0 X99.748 Y39.786
G0 F3600 X100.384 Y39.856
G1 F1800 X101.224 Y40.696 E34.05628
G0 X101.294 Y40.766
G0 F3600 X101.79 Y40.696
G1 F1800 X100.95 Y39.856 E34.08591
G0 X100.88 Y39.786
G0 F3600 X101.515 Y39.856
G1 F1800 X102.355 Y40.696 E34.11555
G0 X102.425 Y40.766
G0 F3600 X102.921 Y40.696
G1 F1800 X102.081 Y39.856 E34.14518
G0 X102.011 Y39.786
G0 F3600 X102.647 Y39.856
G1 F1800 X103.487 Y40.696 E34.17481
G0 X103.557 Y40.766
G0 F3600 X104.052 Y40.696
G1 F1800 X103.212 Y39.856 E34.20445
G0 X103.142 Y39.786
G0 F3600 X103.778 Y39.856
G1 F1800 X104.618 Y40.696 E34.23408
G0 X104.688 Y40.766
G0 F3600 X105.184 Y40.696
G1 F1800 X104.344 Y39.856 E34.26371
G0 X104.274 Y39.786
G0 F3600 X104.909 Y39.856
G1 F1800 X105.749 Y40.696 E34.29335
G0 X105.819 Y40.766
G0 F3600 X106.315 Y40.696
G1 F1800 X105.475 Y39.856 E34.32298
G0 X105.405 Y39.786
G0 F3600 X106.041 Y39.856
G1 F1800 X106.881 Y40.696 E34.35261
G0 X106.951 Y40.766
G0 F3600 X107.446 Y40.696
G1 F1800 X106.606 Y39.856 E34.38225
G0 X106.536 Y39.786
G0 F3600 X107.172 Y39.856
G1 F1800 X108.012 Y40.696 E34.41188
G0 X108.082 Y40.766
G0 F3600 X108.578 Y40.696
G1 F1800 X107.738 Y39.856 E34.44151
G0 X107.668 Y39.786
G0 F3600 X108.304 Y39.856
G1 F1800 X109.144 Y40.696 E34.47115
G0 X109.214 Y40.766
G0 F3600 X109.709 Y40.696
G1 F1800 X108.869 Y39.856 E34.50078
G0 X108.799 Y39.786
G0 F3600 X109.435 Y39.856
G1 F1800 X110.275 Y40.696 E34.53041
G0 X110.345 Y40.766
G0 F3600 X110.841 Y40.696
G1 F1800 X110.001 Y39.856 E34.56005
G0 X109.931 Y39.786
G0 F3600 X110.566 Y39.856
G1 F1800 X111.406 Y40.696 E34.58968
G0 X111.476 Y40.766
G0 F3600 X111.972 Y40.696
G1 F1800 X111.132 Y39.856 E34.61931
G0 X111.062 Y39.786
G0 F3600 X111.698 Y39.856
G1 F1800 X119.578 Y47.736 E34.8973
G0 X119.648 Y47.806
G0 F3600 X119.578 Y47.171
G1 F1800 X112.263 Y39.856 E35.15536
G0 X112.193 Y39.786
G0 F3600 X112.318 Y39.345
G1 F1800 X119.578 Y46.605 E35.41147
G0 X119.648 Y46.675
G0 F3600 X119.578 Y46.039
G1 F1800 X112.318 Y38.779 E35.66759
G0 X112.248 Y38.709
G0 F3600 X112.318 Y38.214
G1 F1800 X119.578 Y45.474 E35.92371
G0 X119.648 Y45.544
G0 F3600 X119.578 Y44.908
G1 F1800 X112.318 Y37.648 E36.17982
G0 X112.248 Y37.578
G0 F3600 X112.318 Y37.082
G1 F1800 X119.578 Y44.342 E36.43594
G0 X119.648 Y44.412
G0 F3600 X119.578 Y43.776
G1 F1800 X112.318 Y36.517 E36.69204
G0 X112.248 Y36.447
G0 F3600 X112.318 Y35.951
G1 F1800 X119.578 Y43.211 E36.94815
G0 X119.648 Y43.281
G0 F3600 X119.578 Y42.645
G1 F1800 X112.318 Y35.385 E37.20427
G0 X112.248 Y35.315
G0 F3600 X112.318 Y34.82
G1 F1800 X119.578 Y42.079 E37.46037
G0 X119.648 Y42.149
G0 F3600 X119.578 Y41.514
G1 F1800 X112.318 Y34.254 E37.71648
G0 X112.248 Y34.184
G0 F3600 X112.318 Y33.688
G1 F1800 X119.578 Y40.948 E37.9726
G0 X119.648 Y41.018
G0 F3600 X119.578 Y40.382
G1 F1800 X112.318 Y33.123 E38.2287
G0 X112.248 Y33.053
G0 F3600 X112.318 Y32.557
G1 F1800 X119.578 Y39.817 E38.48481
G0 X119.648 Y39.887
G0 F3600 X119.578 Y39.251
G1 F1800 X112.318 Y31.991 E38.74093
G0 X112.248 Y31.921
G0 F3600 X112.318 Y31.425
G1 F1800 X119.578 Y38.685 E38.99705
G0 X119.648 Y38.755
G0 F3600 X119.578 Y38.12
G1 F1800 X112.318 Y30.86 E39.25316
G0 X112.248 Y30.79
G0 F3600 X112.318 Y30.294
G1 F1800 X119.578 Y37.554 E39.50928
G0 X119.648 Y37.624
G0 F3600 X119.578 Y36.988
G1 F1800 X112.318 Y29.728 E39.76539
G0 X112.248 Y29.658
G0 F3600 X112.318 Y29.163
G1 F1800 X119.578 Y36.423 E40.02151
G0 X119.648 Y36.493
G0 F3600 X119.578 Y35.857
G1 F1800 X112.318 Y28.597 E40.27763
G0 X112.248 Y28.527
G0 F3600 X112.608 Y28.321
G1 F1800 X119.578 Y35.291 E40.52351
G0 X119.648 Y35.361
G0 F3600 X119.578 Y34.726
G1 F1800 X113.173 Y28.321 E40.74947
G0 X113.103 Y28.251
G0 F3600 X113.739 Y28.321
G1 F1800 X119.578 Y34.16 E40.95545
G0 X119.648 Y34.23
G0 F3600 X119.578 Y33.594
G1 F1800 X114.305 Y28.321 E41.14147
G0 X114.235 Y28.251
G0 F3600 X114.87 Y28.321
G1 F1800 X119.578 Y33.028 E41.30754
G0 X119.648 Y33.098
G0 F3600 X119.578 Y32.463
G1 F1800 X115.436 Y28.321 E41.45366
G0 X115.366 Y28.251
G0 F3600 X116.002 Y28.321
G1 F1800 X119.578 Y31.897 E41.57982
G0 X119.648 Y31.967
G0 F3600 X119.578 Y31.331
G1 F1800 X116.568 Y28.321 E41.686
G0 X116.498 Y28.251
G0 F3600 X117.134 Y28.321
G1 F1800 X119.578 Y30.766 E41.77224
G0 X119.648 Y30.836
