;FLAVOR:RepRap
;TIME:13528
;Generated with Cura_SteamEngine 2.3.1
G21 ; set units to millimeters
G90 ; use absolute positioning
M82 ; absolute extrusion mode
G28 W ; home all without mesh bed level
G80 ; mesh bed leveling
M104 S200 ; set extruder temp
M140 S60 ; set bed temp
M190 S60 ; wait for bed temp
M109 S200 ; wait for extruder temp
G92 E0.0 ; reset extruder distance position
G1 Y-3.0 F1000.0 ; go outside print area
G1 X60.0 E9.0 F1000.0 ; intro line
G1 X100.0 E21.5 F1000.0 ; intro line
G92 E0.0 ; reset extruder distance position
;LAYER_COUNT:340
;LAYER:0
M107
G1 F2100 E-0.8
G0 F3600 X70.404 Y28.562 Z.15
;TYPE:SKIRT
G1 F2100 E0
G1 F1800 X70.671 Y28.097 E0.01338
G1 X71.005 Y27.677 E0.02676
G1 X71.397 Y27.311 E0.04014
G1 X71.839 Y27.008 E0.05351
G1 X72.321 Y26.773 E0.06688
G1 X72.833 Y26.613 E0.08026
G1 X73.529 Y26.521 E0.09778
G1 X79.798 Y26.31 E0.25425
G1 X81.883 Y26.153 E0.3064
G1 X82.349 Y26.148 E0.31803
G1 X87.425 Y26.426 E0.44484
G1 X91.485 Y26.511 E0.54614
G1 X100.006 Y26.471 E0.7587
G1 X106.198 Y26.147 E0.91337
G1 X106.603 Y26.149 E0.92347
G1 X111.3 Y26.432 E1.04085
G1 X115.216 Y26.512 E1.13856
G1 X126.353 Y26.523 E1.41637
G1 X126.887 Y26.563 E1.42973
G1 X127.41 Y26.683 E1.44312
G1 X127.909 Y26.879 E1.45649
G1 X128.374 Y27.147 E1.46988
G1 X128.794 Y27.48 E1.48325
G1 X129.159 Y27.873 E1.49663
G1 X129.462 Y28.315 E1.51
G1 X129.696 Y28.798 E1.52338
G1 X129.856 Y29.31 E1.53676
G1 X129.938 Y29.84 E1.55014
G1 X129.949 Y30.123 E1.55721
G1 X129.959 Y122.085 E3.85121
G1 X130.117 Y127.665 E3.99046
G1 X130.32 Y131.169 E4.07801
G1 X130.319 Y131.602 E4.08881
G1 X130.044 Y135.996 E4.19864
G1 X129.959 Y140.063 E4.30011
G1 X129.949 Y169.878 E5.04385
G1 X129.909 Y170.413 E5.05723
G1 X129.79 Y170.936 E5.07061
G1 X129.594 Y171.435 E5.08398
G1 X129.327 Y171.9 E5.09736
G1 X128.993 Y172.32 E5.11075
G1 X128.601 Y172.686 E5.12412
G1 X128.159 Y172.989 E5.13749
G1 X127.676 Y173.223 E5.15088
G1 X127.164 Y173.383 E5.16426
G1 X126.635 Y173.466 E5.17762
G1 X126.349 Y173.477 E5.18476
G1 X118.35 Y173.477 E5.38429
G1 X117.903 Y173.449 E5.39547
G1 X112.883 Y172.821 E5.52167
G1 X107.441 Y172.435 E5.65776
G1 X101.981 Y172.356 E5.79397
G1 X96.524 Y172.587 E5.93022
G1 X91.079 Y173.126 E6.06671
G1 X88.814 Y173.438 E6.12375
G1 X88.313 Y173.472 E6.13627
G1 X86.452 Y173.467 E6.18269
G1 X85.918 Y173.426 E6.19605
G1 X85.395 Y173.305 E6.20945
G1 X84.896 Y173.109 E6.22282
G1 X84.432 Y172.84 E6.2362
G1 X84.013 Y172.505 E6.24958
G1 X83.648 Y172.112 E6.26296
G1 X83.346 Y171.669 E6.27633
G1 X83.113 Y171.186 E6.28971
G1 X82.954 Y170.674 E6.30308
G1 X82.863 Y169.945 E6.32141
G1 X82.455 Y151.002 E6.79405
G1 X82.454 Y150.924 E6.796
G1 X82.452 Y104.262 E7.95999
G1 X82.488 Y103.751 E7.97277
G1 X82.91 Y100.807 E8.04696
G1 X83.451 Y95.382 E8.18295
G1 X83.684 Y89.928 E8.31913
G1 X83.607 Y84.466 E8.45539
G1 X83.224 Y79.037 E8.59116
G1 X82.532 Y73.618 E8.72743
G1 X81.536 Y68.257 E8.86345
G1 X80.938 Y65.652 E8.93012
G1 X79.478 Y60.346 E9.0674
G1 X77.741 Y55.192 E9.20307
G1 X75.706 Y50.121 E9.33938
G1 X73.398 Y45.196 E9.47505
G1 X70.486 Y39.824 E9.62748
G1 X70.266 Y39.335 E9.64085
G1 X70.122 Y38.818 E9.65424
G1 X70.051 Y38.108 E9.67204
G1 X70.05 Y30.119 E9.87133
G1 X70.09 Y29.585 E9.88469
G1 X70.209 Y29.062 E9.89806
G1 X70.404 Y28.562 E9.91145
G0 F3600 X70.803 Y28.657
G1 F1800 X71.069 Y28.227 E9.92407
G1 X71.399 Y27.844 E9.93668
G1 X71.786 Y27.518 E9.9493
G1 X72.218 Y27.257 E9.96189
G1 X72.687 Y27.067 E9.97451
G1 X73.18 Y26.954 E9.98713
G1 X73.542 Y26.921 E9.9962
G1 X79.816 Y26.709 E10.15279
G1 X81.912 Y26.552 E10.20522
G1 X82.327 Y26.548 E10.21558
G1 X87.395 Y26.825 E10.34219
G1 X91.478 Y26.911 E10.44406
G1 X100.008 Y26.871 E10.65684
G1 X106.219 Y26.546 E10.81199
G1 X106.579 Y26.548 E10.82097
G1 X111.293 Y26.832 E10.93877
G1 X115.207 Y26.912 E11.03643
G1 X126.352 Y26.923 E11.31444
G1 X126.856 Y26.963 E11.32706
G1 X127.347 Y27.083 E11.33966
G1 X127.814 Y27.278 E11.35229
G1 X128.244 Y27.544 E11.3649
G1 X128.626 Y27.875 E11.37751
G1 X128.952 Y28.261 E11.39011
G1 X129.212 Y28.695 E11.40273
G1 X129.402 Y29.163 E11.41533
G1 X129.515 Y29.656 E11.42795
G1 X129.549 Y30.123 E11.43963
G1 X129.559 Y122.096 E13.73391
G1 X129.717 Y127.666 E13.87291
G1 X129.921 Y131.192 E13.96101
G1 X129.92 Y131.577 E13.97061
G1 X129.644 Y135.987 E14.08084
G1 X129.559 Y140.035 E14.18184
G1 X129.549 Y169.878 E14.92627
G1 X129.509 Y170.382 E14.93888
G1 X129.39 Y170.873 E14.95149
G1 X129.195 Y171.34 E14.96411
G1 X128.929 Y171.77 E14.97672
G1 X128.599 Y172.153 E14.98934
G1 X128.212 Y172.479 E15.00196
G1 X127.779 Y172.74 E15.01457
G1 X127.311 Y172.929 E15.02716
G1 X126.818 Y173.042 E15.03978
G1 X126.349 Y173.077 E15.05151
G1 X118.35 Y173.077 E15.25104
G1 X117.953 Y173.052 E15.26097
G1 X112.925 Y172.423 E15.38737
G1 X107.457 Y172.035 E15.52411
G1 X101.97 Y171.956 E15.661
G1 X96.502 Y172.187 E15.79752
G1 X91.041 Y172.728 E15.93441
G1 X88.76 Y173.042 E15.99185
G1 X88.314 Y173.072 E16.003
G1 X86.453 Y173.067 E16.04942
G1 X85.95 Y173.026 E16.06201
G1 X85.458 Y172.906 E16.07464
G1 X84.992 Y172.71 E16.08726
G1 X84.563 Y172.443 E16.09986
G1 X84.181 Y172.111 E16.11249
G1 X83.856 Y171.724 E16.12509
G1 X83.596 Y171.291 E16.13769
G1 X83.408 Y170.821 E16.15032
G1 X83.295 Y170.328 E16.16293
G1 X83.263 Y169.936 E16.17275
G1 X82.855 Y150.993 E16.64539
G1 X82.854 Y150.924 E16.64711
G1 X82.852 Y104.262 E17.8111
G1 X82.884 Y103.808 E17.82245
G1 X83.307 Y100.857 E17.89682
G1 X83.851 Y95.405 E18.03349
G1 X84.084 Y89.94 E18.16994
G1 X84.007 Y84.45 E18.30691
G1 X83.622 Y78.995 E18.44332
G1 X82.928 Y73.563 E18.57992
G1 X81.926 Y68.168 E18.7168
G1 X81.325 Y65.549 E18.78383
G1 X79.863 Y60.233 E18.92136
G1 X78.118 Y55.057 E19.05762
G1 X76.075 Y49.967 E19.19444
G1 X73.748 Y45.001 E19.33124
G1 X70.838 Y39.633 E19.48356
G1 X70.633 Y39.171 E19.49616
G1 X70.503 Y38.682 E19.50879
G1 X70.451 Y38.108 E19.52316
G1 X70.45 Y30.119 E19.72245
G1 X70.49 Y29.615 E19.73506
G1 X70.609 Y29.124 E19.74766
G1 X70.803 Y28.657 E19.76028
G1 F2100 E18.96028
G0 F3600 X72.976 Y30.338
G0 X73.869 Y30.338
G0 X73.941 Y30.51
G0 X73.841 Y30.51
;TYPE:WALL-OUTER
G1 F2100 E19.76028
G1 F1800 X73.841 Y30.31 E19.76527
G1 X74.041 Y30.31 E19.7685
G1 X126.159 Y30.313 E21.06859
G1 X126.159 Y169.687 E24.54528
G1 X118.54 Y169.687 E24.73534
G1 X118.54 Y106.067 E26.32235
G1 X88.141 Y106.067 E27.08065
G1 X88.138 Y169.481 E28.66252
G1 X88.138 Y169.681 E28.66751
G1 X87.938 Y169.681 E28.67074
G1 X86.641 Y169.677 E28.7031
G1 X86.641 Y167.12 E28.76688
G1 X86.241 Y150.367 E29.18491
G1 X86.241 Y104.467 E30.32989
G1 X118.54 Y104.467 E31.13559
G1 X118.54 Y37.91 E32.79586
G1 X73.841 Y37.91 E33.91088
G1 X73.841 Y30.51 E34.09547
G0 F3600 X74.048 Y30.49
;TYPE:SKIN
G1 F1800 X81.287 Y37.729 E34.35085
G0 X81.357 Y37.799
G0 F3600 X80.721 Y37.729
G1 F1800 X74.019 Y31.027 E34.58728
G0 X73.949 Y30.957
G0 F3600 X74.019 Y31.593
G1 F1800 X80.156 Y37.729 E34.80376
G0 X80.226 Y37.799
G0 F3600 X79.59 Y37.729
G1 F1800 X74.019 Y32.159 E35.00028
G0 X73.949 Y32.089
G0 F3600 X74.019 Y32.724
G1 F1800 X79.024 Y37.729 E35.17684
G0 X79.094 Y37.799
G0 F3600 X78.459 Y37.729
G1 F1800 X74.019 Y33.29 E35.33346
G0 X73.949 Y33.22
G0 F3600 X74.019 Y33.856
G1 F1800 X77.893 Y37.729 E35.4701
G0 X77.963 Y37.799
G0 F3600 X77.327 Y37.729
G1 F1800 X74.019 Y34.421 E35.5868
G0 X73.949 Y34.351
G0 F3600 X74.019 Y34.987
G1 F1800 X76.762 Y37.729 E35.68355
G0 X76.832 Y37.799
G0 F3600 X76.196 Y37.729
G1 F1800 X74.019 Y35.553 E35.76033
G0 X73.949 Y35.483
G0 F3600 X74.019 Y36.119
G1 F1800 X75.63 Y37.729 E35.81715
G0 X75.7 Y37.799
G0 F3600 X75.065 Y37.729
G1 F1800 X74.019 Y36.684 E35.85403
G0 X73.949 Y36.614
G0 F3600 X74.019 Y37.25
G1 F1800 X74.499 Y37.729 E35.87095
G0 F3600 X74.613 Y30.49
G1 F1800 X81.853 Y37.729 E36.12634
G0 X81.923 Y37.799
G0 F3600 X82.418 Y37.729
G1 F1800 X75.179 Y30.49 E36.38172
G0 X75.109 Y30.42
G0 F3600 X75.745 Y30.49
G1 F1800 X82.984 Y37.729 E36.63709
G0 X83.054 Y37.799
G0 F3600 X83.55 Y37.729
G1 F1800 X76.31 Y30.49 E36.89248
G0 X76.24 Y30.42
G0 F3600 X76.876 Y30.49
G1 F1800 X84.116 Y37.729 E37.14788
G0 X84.186 Y37.799
G0 F3600 X84.681 Y37.729
G1 F1800 X77.442 Y30.49 E37.40325
G0 X77.372 Y30.42
G0 F3600 X78.008 Y30.49
G1 F1800 X85.247 Y37.729 E37.65863
G0 X85.317 Y37.799
G0 F3600 X85.813 Y37.729
G1 F1800 X78.573 Y30.49 E37.91402
G0 X78.503 Y30.42
G0 F3600 X79.139 Y30.49
G1 F1800 X86.378 Y37.729 E38.1694
G0 X86.448 Y37.799
G0 F3600 X86.944 Y37.729
G1 F1800 X79.705 Y30.49 E38.42477
G0 X79.635 Y30.42
G0 F3600 X80.27 Y30.49
G1 F1800 X87.51 Y37.729 E38.68016
G0 X87.58 Y37.799
G0 F3600 X88.075 Y37.729
G1 F1800 X80.836 Y30.49 E38.93554
G0 X80.766 Y30.42
G0 F3600 X81.402 Y30.49
G1 F1800 X88.641 Y37.729 E39.19091
G0 X88.711 Y37.799
G0 F3600 X89.207 Y37.729
G1 F1800 X81.967 Y30.49 E39.44631
G0 X81.897 Y30.42
G0 F3600 X82.533 Y30.49
G1 F1800 X89.772 Y37.729 E39.70168
G0 X89.842 Y37.799
G0 F3600 X90.338 Y37.729
G1 F1800 X83.099 Y30.49 E39.95706
G0 X83.029 Y30.42
G0 F3600 X83.664 Y30.49
G1 F1800 X90.904 Y37.729 E40.21245
G0 X90.974 Y37.799
G0 F3600 X91.469 Y37.729
G1 F1800 X84.23 Y30.49 E40.46783
G0 X84.16 Y30.42
G0 F3600 X84.796 Y30.491
G1 F1800 X92.035 Y37.729 E40.72318
G0 X92.105 Y37.799
G0 F3600 X92.601 Y37.729
G1 F1800 X85.362 Y30.491 E40.97854
G0 X85.292 Y30.421
G0 F3600 X85.928 Y30.491
G1 F1800 X93.166 Y37.729 E41.23388
G0 X93.236 Y37.799
G0 F3600 X93.732 Y37.729
G1 F1800 X86.494 Y30.491 E41.48922
G0 X86.424 Y30.421
G0 F3600 X87.059 Y30.491
G1 F1800 X94.298 Y37.729 E41.74458
G0 X94.368 Y37.799
G0 F3600 X94.864 Y37.729
G1 F1800 X87.625 Y30.491 E41.99994
G0 X87.555 Y30.421
G0 F3600 X88.191 Y30.491
G1 F1800 X95.429 Y37.729 E42.25528
G0 X95.499 Y37.799
G0 F3600 X95.995 Y37.729
G1 F1800 X88.756 Y30.491 E42.51063
G0 X88.686 Y30.421
G0 F3600 X89.322 Y30.491
G1 F1800 X96.561 Y37.729 E42.76599
G0 X96.631 Y37.799
G0 F3600 X97.126 Y37.729
G1 F1800 X89.888 Y30.491 E43.02133
G0 X89.818 Y30.421
G0 F3600 X90.453 Y30.491
G1 F1800 X97.692 Y37.729 E43.27669
G0 X97.762 Y37.799
G0 F3600 X98.258 Y37.729
G1 F1800 X91.019 Y30.491 E43.53205
G0 X90.949 Y30.421
G0 F3600 X91.585 Y30.491
G1 F1800 X98.823 Y37.729 E43.78739
G0 X98.893 Y37.799
G0 F3600 X99.389 Y37.729
G1 F1800 X92.15 Y30.491 E44.04274
G0 X92.08 Y30.421
G0 F3600 X92.716 Y30.491
G1 F1800 X99.955 Y37.729 E44.2981
G0 X100.025 Y37.799
G0 F3600 X100.52 Y37.729
G1 F1800 X93.282 Y30.491 E44.55344
G0 X93.212 Y30.421
G0 F3600 X93.847 Y30.491
G1 F1800 X101.086 Y37.729 E44.8088
G0 X101.156 Y37.799
G0 F3600 X101.652 Y37.729
G1 F1800 X94.413 Y30.491 E45.06416
G0 X94.343 Y30.421
G0 F3600 X94.979 Y30.491
G1 F1800 X102.217 Y37.729 E45.3195
G0 X102.287 Y37.799
G0 F3600 X102.783 Y37.729
G1 F1800 X95.545 Y30.491 E45.57484
G0 X95.475 Y30.421
G0 F3600 X96.111 Y30.491
G1 F1800 X103.349 Y37.729 E45.83018
G0 X103.419 Y37.799
G0 F3600 X103.914 Y37.729
G1 F1800 X96.677 Y30.491 E46.0855
G0 X96.607 Y30.421
G0 F3600 X97.242 Y30.491
G1 F1800 X104.48 Y37.729 E46.34084
G0 X104.55 Y37.799
G0 F3600 X105.046 Y37.729
G1 F1800 X97.808 Y30.491 E46.59618
G0 X97.738 Y30.421
G0 F3600 X98.374 Y30.491
G1 F1800 X105.612 Y37.729 E46.85152
G0 X105.682 Y37.799
G0 F3600 X106.177 Y37.729
G1 F1800 X98.939 Y30.491 E47.10686
G0 X98.869 Y30.421
G0 F3600 X99.505 Y30.491
G1 F1800 X106.743 Y37.729 E47.3622
G0 X106.813 Y37.799
G0 F3600 X107.309 Y37.729
G1 F1800 X100.071 Y30.491 E47.61754
G0 X100.001 Y30.421
G0 F3600 X100.636 Y30.491
G1 F1800 X107.874 Y37.729 E47.87288
G0 X107.944 Y37.799
G0 F3600 X108.44 Y37.729
G1 F1800 X101.202 Y30.491 E48.12822
G0 X101.132 Y30.421
G0 F3600 X101.768 Y30.491
G1 F1800 X109.006 Y37.729 E48.38356
G0 X109.076 Y37.799
G0 F3600 X109.571 Y37.729
G1 F1800 X102.333 Y30.491 E48.6389
G0 X102.263 Y30.421
G0 F3600 X102.899 Y30.491
G1 F1800 X110.137 Y37.729 E48.89424
G0 X110.207 Y37.799
G0 F3600 X110.703 Y37.729
G1 F1800 X103.465 Y30.491 E49.14958
G0 X103.395 Y30.421
G0 F3600 X104.03 Y30.491
G1 F1800 X111.268 Y37.729 E49.40492
G0 X111.338 Y37.799
G0 F3600 X111.834 Y37.729
G1 F1800 X104.596 Y30.491 E49.66026
G0 X104.526 Y30.421
G0 F3600 X105.162 Y30.491
G1 F1800 X112.4 Y37.729 E49.9156
G0 X112.47 Y37.799
G0 F3600 X112.965 Y37.729
G1 F1800 X105.728 Y30.492 E50.1709
G0 X105.658 Y30.422
G0 F3600 X106.294 Y30.492
G1 F1800 X113.531 Y37.729 E50.42621
G0 X113.601 Y37.799
G0 F3600 X114.097 Y37.729
G1 F1800 X106.86 Y30.492 E50.68151
G0 X106.79 Y30.422
G0 F3600 X107.425 Y30.492
G1 F1800 X114.663 Y37.729 E50.93684
G0 X114.733 Y37.799
G0 F3600 X115.228 Y37.729
G1 F1800 X107.991 Y30.492 E51.19214
G0 X107.921 Y30.422
G0 F3600 X108.557 Y30.492
G1 F1800 X115.794 Y37.729 E51.44745
G0 X115.864 Y37.799
G0 F3600 X116.36 Y37.729
G1 F1800 X109.122 Y30.492 E51.70277
G0 X109.052 Y30.422
G0 F3600 X109.688 Y30.492
G1 F1800 X116.925 Y37.729 E51.95807
G0 X116.995 Y37.799
G0 F3600 X117.491 Y37.729
G1 F1800 X110.254 Y30.492 E52.21338
G0 X110.184 Y30.422
G0 F3600 X110.819 Y30.492
G1 F1800 X118.057 Y37.729 E52.4687
G0 X118.127 Y37.799
G0 F3600 X118.622 Y37.729
G1 F1800 X111.385 Y30.492 E52.724
G0 X111.315 Y30.422
G0 F3600 X111.951 Y30.492
G1 F1800 X125.978 Y44.52 E53.21886
G0 X126.048 Y44.59
G0 F3600 X125.978 Y45.085
G1 F1800 X118.718 Y37.825 E53.47498
G0 X118.648 Y37.755
G0 F3600 X118.718 Y38.391
G1 F1800 X125.978 Y45.651 E53.73109
G0 X126.048 Y45.721
G0 F3600 X125.978 Y46.217
G1 F1800 X118.718 Y38.957 E53.98721
G0 X118.648 Y38.887
G0 F3600 X118.718 Y39.523
G1 F1800 X125.978 Y46.782 E54.24331
G0 X126.048 Y46.852
G0 F3600 X125.978 Y47.348
G1 F1800 X118.718 Y40.088 E54.49943
G0 X118.648 Y40.018
G0 F3600 X118.718 Y40.654
G1 F1800 X125.978 Y47.914 E54.75554
G0 X126.048 Y47.984
G0 F3600 X125.978 Y48.479
G1 F1800 X118.718 Y41.22 E55.01164
G0 X118.648 Y41.15
G0 F3600 X118.718 Y41.785
G1 F1800 X125.978 Y49.045 E55.26776
G0 X126.048 Y49.115
G0 F3600 X125.978 Y49.611
G1 F1800 X118.718 Y42.351 E55.52387
G0 X118.648 Y42.281
G0 F3600 X118.718 Y42.917
G1 F1800 X125.978 Y50.177 E55.77999
G0 X126.048 Y50.247
G0 F3600 X125.978 Y50.742
G1 F1800 X118.718 Y43.482 E56.0361
G0 X118.648 Y43.412
G0 F3600 X118.718 Y44.048
G1 F1800 X125.978 Y51.308 E56.29222
G0 X126.048 Y51.378
G0 F3600 X125.978 Y51.874
G1 F1800 X118.718 Y44.614 E56.54834
G0 X118.648 Y44.544
G0 F3600 X118.718 Y45.179
G1 F1800 X125.978 Y52.439 E56.80445
G0 X126.048 Y52.509
G0 F3600 X125.978 Y53.005
G1 F1800 X118.718 Y45.745 E57.06057
G0 X118.648 Y45.675
G0 F3600 X118.718 Y46.311
G1 F1800 X125.978 Y53.571 E57.31669
G0 X126.048 Y53.641
G0 F3600 X125.978 Y54.136
G1 F1800 X118.718 Y46.876 E57.5728
G0 X118.648 Y46.806
G0 F3600 X118.718 Y47.442
G1 F1800 X125.978 Y54.702 E57.82892
G0 X126.048 Y54.772
G0 F3600 X125.978 Y55.268
G1 F1800 X118.718 Y48.008 E58.08503
G0 X118.648 Y47.938
G0 F3600 X118.718 Y48.573
G1 F1800 X125.978 Y55.833 E58.34115
G0 X126.048 Y55.903
G0 F3600 X125.978 Y56.399
G1 F1800 X118.718 Y49.139 E58.59727
G0 X118.648 Y49.069
G0 F3600 X118.718 Y49.705
G1 F1800 X125.978 Y56.965 E58.85338
G0 X126.048 Y57.035
G0 F3600 X125.978 Y57.53
G1 F1800 X118.718 Y50.271 E59.10948
G0 X118.648 Y50.201
G0 F3600 X118.718 Y50.836
G1 F1800 X125.978 Y58.096 E59.3656
G0 X126.048 Y58.166
G0 F3600 X125.978 Y58.662
G1 F1800 X118.718 Y51.402 E59.62171
G0 X118.648 Y51.332
G0 F3600 X118.718 Y51.968
G1 F1800 X125.978 Y59.227 E59.87781
G0 X126.048 Y59.297
G0 F3600 X125.978 Y59.793
G1 F1800 X118.718 Y52.533 E60.13393
G0 X118.648 Y52.463
G0 F3600 X118.718 Y53.099
G1 F1800 X125.978 Y60.359 E60.39004
G0 X126.048 Y60.429
G0 F3600 X125.978 Y60.925
G1 F1800 X118.718 Y53.665 E60.64616
G0 X118.648 Y53.595
G0 F3600 X118.718 Y54.23
G1 F1800 X125.978 Y61.49 E60.90228
G0 X126.048 Y61.56
G0 F3600 X125.978 Y62.056
G1 F1800 X118.718 Y54.796 E61.15839
G0 X118.648 Y54.726
G0 F3600 X118.718 Y55.362
G1 F1800 X125.978 Y62.622 E61.41451
G0 X126.048 Y62.692
G0 F3600 X125.978 Y63.187
G1 F1800 X118.718 Y55.927 E61.67062
G0 X118.648 Y55.857
G0 F3600 X118.718 Y56.493
G1 F1800 X125.978 Y63.753 E61.92674
G0 X126.048 Y63.823
G0 F3600 X125.978 Y64.319
G1 F1800 X118.718 Y57.059 E62.18286
G0 X118.648 Y56.989
G0 F3600 X118.718 Y57.624
G1 F1800 X125.978 Y64.884 E62.43897
G0 X126.048 Y64.954
G0 F3600 X125.978 Y65.45
G1 F1800 X118.718 Y58.19 E62.69509
G0 X118.648 Y58.12
G0 F3600 X118.718 Y58.756
G1 F1800 X125.978 Y66.016 E62.9512
