;FLAVOR:RepRap
;TIME:6981
;Generated with Cura_SteamEngine 2.3.1
G21 ; set units to millimeters
G90 ; use absolute positioning
M82 ; absolute extrusion mode
G28 W ; home all without mesh bed level
G80 ; mesh bed leveling
M104 S180 ; set extruder temp
M140 S55 ; set bed temp
M190 S55 ; wait for bed temp
M109 S180 ; wait for extruder temp
G92 E0.0 ; reset extruder distance position
G1 Y-3.0 F1000.0 ; go outside print area
G1 X60.0 E9.0 F1000.0 ; intro line
G1 X100.0 E21.5 F1000.0 ; intro line
G92 E0.0 ; reset extruder distance position
;LAYER_COUNT:347
;LAYER:0
M107
G1 F2100 E-0.8
G0 F3600 X70.876 Y45.281 Z.15
;TYPE:SKIRT
G1 F2100 E0
G1 F1800 X71.29 Y44.729 E0.01721
G1 X71.976 Y43.976 E0.04262
G1 X72.432 Y43.554 E0.05812
G1 X73.049 Y43.076 E0.07759
G1 X73.531 Y42.761 E0.09195
G1 X74.219 Y42.386 E0.1115
G1 X74.899 Y42.101 E0.12989
G1 X76.155 Y41.721 E0.16263
G1 X76.679 Y41.605 E0.17601
G1 X77.006 Y41.572 E0.18421
G1 X78.357 Y41.5 E0.21796
G1 X78.551 Y41.495 E0.2228
G1 X116.276 Y41.521 E1.16386
G1 X117.038 Y41.603 E1.18297
G1 X118.543 Y41.93 E1.22139
G1 X119.057 Y42.083 E1.23477
G1 X119.486 Y42.279 E1.24653
G1 X120.622 Y42.891 E1.27872
G1 X121.074 Y43.179 E1.29209
G1 X121.462 Y43.516 E1.30491
G1 X122.565 Y44.62 E1.34384
G1 X122.914 Y45.026 E1.3572
G1 X123.091 Y45.289 E1.3651
G1 X123.507 Y45.971 E1.38503
G1 X123.804 Y46.58 E1.40193
G1 X124.161 Y47.53 E1.42725
G1 X124.327 Y48.122 E1.44259
G1 X124.469 Y48.867 E1.46151
G1 X124.533 Y49.537 E1.47829
G1 X124.574 Y91.377 E2.522
G1 X124.57 Y91.549 E2.52629
G1 X124.505 Y92.942 E2.56108
G1 X124.423 Y93.555 E2.5765
G1 X124.235 Y94.401 E2.59812
G1 X124.008 Y95.087 E2.61615
G1 X123.588 Y96.028 E2.64185
G1 X123.334 Y96.5 E2.65522
G1 X123.167 Y96.74 E2.66252
G1 X122.359 Y97.803 E2.69582
G1 X122.004 Y98.204 E2.70918
G1 X121.738 Y98.438 E2.71802
G1 X120.927 Y99.085 E2.7439
G1 X120.406 Y99.431 E2.7595
G1 X119.735 Y99.797 E2.77857
G1 X119.052 Y100.083 E2.79704
G1 X117.797 Y100.462 E2.82974
G1 X117.273 Y100.579 E2.84313
G1 X116.954 Y100.611 E2.85113
G1 X115.753 Y100.677 E2.88114
G1 X115.552 Y100.682 E2.88615
G1 X77.667 Y100.653 E3.8312
G1 X76.902 Y100.57 E3.85039
G1 X75.414 Y100.245 E3.88839
G1 X74.9 Y100.092 E3.90176
G1 X74.638 Y99.98 E3.90887
G1 X73.964 Y99.66 E3.92748
G1 X73.335 Y99.278 E3.94584
G1 X72.28 Y98.479 E3.97885
G1 X71.716 Y97.947 E3.99819
G1 X71.206 Y97.35 E4.01778
G1 X70.873 Y96.892 E4.03191
G1 X70.467 Y96.229 E4.0513
G1 X70.172 Y95.628 E4.068
G1 X69.803 Y94.657 E4.09391
G1 X69.65 Y94.143 E4.10729
G1 X69.602 Y93.869 E4.11423
G1 X69.432 Y92.635 E4.1453
G1 X69.398 Y92.144 E4.15758
G1 X69.398 Y50.032 E5.20807
G1 X69.418 Y49.65 E5.21761
G1 X69.519 Y48.703 E5.24137
G1 X69.616 Y48.176 E5.25473
G1 X69.697 Y47.909 E5.26169
G1 X70.123 Y46.677 E5.29421
G1 X70.45 Y45.981 E5.31339
G1 X70.876 Y45.281 E5.33383
G0 F3600 X71.217 Y45.489
G1 F1800 X71.585 Y44.998 E5.34914
G1 X72.271 Y44.245 E5.37455
G1 X72.677 Y43.87 E5.38834
G1 X73.294 Y43.392 E5.40781
G1 X73.723 Y43.112 E5.42059
G1 X74.411 Y42.737 E5.44013
G1 X75.015 Y42.484 E5.45647
G1 X76.271 Y42.104 E5.4892
G1 X76.765 Y41.996 E5.50181
G1 X77.028 Y41.972 E5.5084
G1 X78.379 Y41.9 E5.54215
G1 X78.551 Y41.895 E5.54644
G1 X116.276 Y41.921 E6.4875
G1 X116.953 Y41.994 E6.50448
G1 X118.458 Y42.321 E6.5429
G1 X118.942 Y42.467 E6.55551
G1 X119.297 Y42.631 E6.56527
G1 X120.433 Y43.243 E6.59745
G1 X120.857 Y43.517 E6.61005
G1 X121.179 Y43.798 E6.62071
G1 X122.282 Y44.902 E6.65964
G1 X122.75 Y45.498 E6.67854
G1 X123.166 Y46.18 E6.69847
G1 X123.429 Y46.72 E6.71345
G1 X123.786 Y47.67 E6.73877
G1 X123.934 Y48.197 E6.75242
G1 X124.076 Y48.942 E6.77134
G1 X124.133 Y49.538 E6.78628
G1 X124.174 Y91.378 E7.82998
G1 X124.171 Y91.53 E7.83377
G1 X124.106 Y92.923 E7.86856
G1 X124.033 Y93.468 E7.88227
G1 X123.845 Y94.314 E7.90389
G1 X123.643 Y94.924 E7.91992
G1 X123.223 Y95.865 E7.94563
G1 X122.849 Y96.497 E7.96395
G1 X122.041 Y97.56 E7.99725
G1 X121.704 Y97.938 E8.00989
G1 X121.489 Y98.125 E8.01699
G1 X120.678 Y98.772 E8.04287
G1 X120.214 Y99.08 E8.05677
G1 X119.543 Y99.446 E8.07583
G1 X118.936 Y99.7 E8.09225
G1 X117.681 Y100.079 E8.12495
G1 X117.187 Y100.187 E8.13756
G1 X116.932 Y100.211 E8.14395
G1 X115.731 Y100.277 E8.17396
G1 X115.553 Y100.282 E8.1784
G1 X77.668 Y100.253 E9.12344
G1 X76.987 Y100.179 E9.14053
G1 X75.499 Y99.854 E9.17852
G1 X74.81 Y99.619 E9.19668
G1 X74.136 Y99.299 E9.2153
G1 X73.576 Y98.959 E9.23164
G1 X72.521 Y98.16 E9.26465
G1 X72.02 Y97.688 E9.28182
G1 X71.51 Y97.091 E9.30141
G1 X71.214 Y96.683 E9.31398
G1 X70.808 Y96.02 E9.33337
G1 X70.546 Y95.486 E9.34821
G1 X70.177 Y94.515 E9.37412
G1 X69.998 Y93.815 E9.39215
G1 X69.828 Y92.581 E9.42322
G1 X69.798 Y92.144 E9.43415
G1 X69.798 Y50.032 E10.48463
G1 X69.816 Y49.693 E10.4931
G1 X69.917 Y48.746 E10.51686
G1 X70.075 Y48.039 E10.53493
G1 X70.501 Y46.807 E10.56745
G1 X70.791 Y46.189 E10.58448
G1 X71.217 Y45.489 E10.60492
G1 F2100 E9.80492
G0 F3600 X73.345 Y46.85
G0 X74.457 Y47.53
G0 X74.505 Y47.565
G0 X74.425 Y47.507
;TYPE:WALL-INNER
G1 F2100 E10.60492
G1 F1800 X74.871 Y46.986 E10.62203
G1 X75.393 Y46.539 E10.63917
G1 X75.986 Y46.176 E10.65651
G1 X76.626 Y45.911 E10.67379
G1 X77.291 Y45.752 E10.69085
G1 X78.003 Y45.695 E10.70867
G1 X115.956 Y45.694 E11.65541
G1 X116.67 Y45.752 E11.67328
G1 X117.335 Y45.911 E11.69033
G1 X117.975 Y46.176 E11.70761
G1 X118.568 Y46.539 E11.72496
G1 X119.089 Y46.986 E11.74208
G1 X119.536 Y47.507 E11.75921
G1 X119.899 Y48.1 E11.77655
G1 X120.164 Y48.74 E11.79383
G1 X120.323 Y49.405 E11.81089
G1 X120.374 Y50.081 E11.8278
G1 X120.374 Y92.068 E12.87517
G1 X120.316 Y92.778 E12.89294
G1 X120.157 Y93.443 E12.90999
G1 X119.892 Y94.083 E12.92727
G1 X119.529 Y94.676 E12.94462
G1 X119.082 Y95.198 E12.96176
G1 X118.561 Y95.644 E12.97887
G1 X117.968 Y96.007 E12.99621
G1 X117.328 Y96.272 E13.01349
G1 X116.663 Y96.431 E13.03055
G1 X115.985 Y96.482 E13.04751
G1 X78.005 Y96.482 E13.99492
G1 X77.291 Y96.424 E14.01279
G1 X76.626 Y96.265 E14.02985
G1 X75.986 Y96 E14.04713
G1 X75.393 Y95.637 E14.06447
G1 X74.871 Y95.191 E14.0816
G1 X74.425 Y94.669 E14.09872
G1 X74.06 Y94.073 E14.11616
G1 X73.796 Y93.438 E14.13331
G1 X73.637 Y92.771 E14.15042
G1 X73.587 Y92.097 E14.16728
G1 X73.588 Y50.05 E15.21614
G1 X73.637 Y49.405 E15.23228
G1 X73.796 Y48.738 E15.24938
G1 X74.06 Y48.103 E15.26654
G1 X74.425 Y47.507 E15.28397
G0 F3600 X74.505 Y47.565
G0 X78.69 Y51.092
G0 X78.766 Y51.156
G1 F1800 X78.543 Y51.477 E15.29372
G1 X78.379 Y51.831 E15.30345
G1 X78.281 Y52.207 E15.31315
G1 X78.246 Y52.594 E15.32284
G1 X78.282 Y52.982 E15.33256
G1 X78.383 Y53.359 E15.3423
G1 X78.55 Y53.712 E15.35204
G1 X78.775 Y54.03 E15.36175
G1 X79.051 Y54.304 E15.37146
G1 X79.37 Y54.525 E15.38114
G1 X79.724 Y54.69 E15.39088
G1 X80.099 Y54.788 E15.40055
G1 X80.487 Y54.823 E15.41027
G1 X80.875 Y54.787 E15.41999
G1 X81.252 Y54.685 E15.42973
G1 X81.604 Y54.518 E15.43945
G1 X81.922 Y54.294 E15.44915
G1 X82.196 Y54.018 E15.45885
G1 X82.418 Y53.699 E15.46855
G1 X82.582 Y53.345 E15.47828
G1 X82.681 Y52.971 E15.48793
G1 X82.716 Y52.582 E15.49767
G1 X82.68 Y52.192 E15.50744
G1 X82.577 Y51.817 E15.51714
G1 X82.412 Y51.465 E15.52684
G1 X82.187 Y51.147 E15.53656
G1 X81.911 Y50.873 E15.54626
G1 X81.592 Y50.651 E15.55595
G1 X81.238 Y50.487 E15.56569
G1 X80.864 Y50.388 E15.57534
G1 X80.475 Y50.353 E15.58508
G1 X80.084 Y50.389 E15.59487
G1 X79.709 Y50.492 E15.60458
G1 X79.358 Y50.657 E15.61425
G1 X79.04 Y50.882 E15.62397
G1 X78.766 Y51.156 E15.63363
G0 F3600 X78.69 Y51.092
G0 X79.338 Y50.623
G0 X80.077 Y50.35
G0 X80.87 Y50.349
G0 X111.145 Y52.594
G0 X111.245 Y52.594
G1 F1800 X111.281 Y52.982 E15.64335
G1 X111.382 Y53.359 E15.65309
G1 X111.549 Y53.712 E15.66283
G1 X111.774 Y54.03 E15.67255
G1 X112.05 Y54.304 E15.68225
G1 X112.369 Y54.525 E15.69193
G1 X112.723 Y54.69 E15.70167
G1 X113.098 Y54.788 E15.71134
G1 X113.486 Y54.823 E15.72106
G1 X113.874 Y54.787 E15.73078
G1 X114.251 Y54.685 E15.74052
G1 X114.603 Y54.518 E15.75024
G1 X114.921 Y54.294 E15.75994
G1 X115.195 Y54.018 E15.76965
G1 X115.417 Y53.699 E15.77934
G1 X115.581 Y53.345 E15.78907
G1 X115.68 Y52.971 E15.79872
G1 X115.715 Y52.582 E15.80847
G1 X115.679 Y52.192 E15.81824
G1 X115.576 Y51.817 E15.82794
G1 X115.411 Y51.465 E15.83763
G1 X115.186 Y51.147 E15.84735
G1 X114.91 Y50.873 E15.85705
G1 X114.591 Y50.651 E15.86675
G1 X114.237 Y50.487 E15.87648
G1 X113.863 Y50.388 E15.88613
G1 X113.474 Y50.353 E15.89587
G1 X113.083 Y50.389 E15.90567
G1 X112.708 Y50.492 E15.91537
G1 X112.357 Y50.657 E15.92504
G1 X112.039 Y50.882 E15.93476
G1 X111.765 Y51.156 E15.94443
G1 X111.542 Y51.477 E15.95418
G1 X111.378 Y51.831 E15.96391
G1 X111.28 Y52.207 E15.9736
G1 X111.245 Y52.594 E15.9833
G0 F3600 X111.145 Y52.594
G0 X113.474 Y87.253
G0 X113.474 Y87.353
G1 F1800 X113.083 Y87.389 E15.99309
G1 X112.708 Y87.492 E16.00279
G1 X112.357 Y87.657 E16.01247
G1 X112.039 Y87.882 E16.02218
G1 X111.765 Y88.156 E16.03185
G1 X111.542 Y88.477 E16.0416
G1 X111.378 Y88.831 E16.05133
G1 X111.28 Y89.207 E16.06103
G1 X111.245 Y89.594 E16.07072
G1 X111.281 Y89.982 E16.08044
G1 X111.382 Y90.359 E16.09017
G1 X111.549 Y90.712 E16.09992
G1 X111.774 Y91.03 E16.10963
G1 X112.05 Y91.304 E16.11933
G1 X112.369 Y91.525 E16.12902
G1 X112.723 Y91.69 E16.13876
G1 X113.098 Y91.788 E16.14843
G1 X113.486 Y91.823 E16.15814
G1 X113.874 Y91.787 E16.16786
G1 X114.251 Y91.685 E16.17761
G1 X114.603 Y91.518 E16.18733
G1 X114.921 Y91.294 E16.19703
G1 X115.195 Y91.018 E16.20673
G1 X115.417 Y90.699 E16.21642
G1 X115.581 Y90.345 E16.22616
G1 X115.68 Y89.971 E16.23581
G1 X115.715 Y89.582 E16.24555
G1 X115.679 Y89.192 E16.25532
G1 X115.576 Y88.817 E16.26502
G1 X115.411 Y88.465 E16.27472
G1 X115.186 Y88.147 E16.28444
G1 X114.91 Y87.873 E16.29414
G1 X114.591 Y87.651 E16.30383
G1 X114.237 Y87.487 E16.31356
G1 X113.863 Y87.388 E16.32322
G1 X113.474 Y87.353 E16.33296
G0 F3600 X113.474 Y87.253
G0 X82.816 Y89.582
G0 X82.716 Y89.582
G1 F1800 X82.68 Y89.192 E16.34273
G1 X82.577 Y88.817 E16.35243
G1 X82.412 Y88.465 E16.36213
G1 X82.187 Y88.147 E16.37184
G1 X81.911 Y87.873 E16.38155
G1 X81.592 Y87.651 E16.39124
G1 X81.238 Y87.487 E16.40097
G1 X80.864 Y87.388 E16.41062
G1 X80.475 Y87.353 E16.42037
G1 X80.084 Y87.389 E16.43016
G1 X79.709 Y87.492 E16.43986
G1 X79.358 Y87.657 E16.44954
G1 X79.04 Y87.882 E16.45925
G1 X78.766 Y88.156 E16.46892
G1 X78.543 Y88.477 E16.47867
G1 X78.379 Y88.831 E16.4884
G1 X78.281 Y89.207 E16.4981
G1 X78.246 Y89.594 E16.50779
G1 X78.282 Y89.982 E16.51751
G1 X78.383 Y90.359 E16.52724
G1 X78.55 Y90.712 E16.53699
G1 X78.775 Y91.03 E16.5467
G1 X79.051 Y91.304 E16.5564
G1 X79.37 Y91.525 E16.56609
G1 X79.724 Y91.69 E16.57583
G1 X80.099 Y91.788 E16.5855
G1 X80.487 Y91.823 E16.59521
G1 X80.875 Y91.787 E16.60493
G1 X81.252 Y91.685 E16.61468
G1 X81.604 Y91.518 E16.6244
G1 X81.922 Y91.294 E16.6341
G1 X82.196 Y91.018 E16.6438
G1 X82.418 Y90.699 E16.65349
G1 X82.582 Y90.345 E16.66323
G1 X82.681 Y89.971 E16.67288
G1 X82.716 Y89.582 E16.68262
G0 F3600 X82.314 Y89.583
;TYPE:WALL-OUTER
G1 F1800 X82.285 Y89.264 E16.69061
G1 X82.2 Y88.956 E16.69858
G1 X82.065 Y88.667 E16.70654
G1 X81.88 Y88.406 E16.71452
G1 X81.654 Y88.181 E16.72247
G1 X81.392 Y87.999 E16.73043
G1 X81.102 Y87.865 E16.7384
G1 X80.794 Y87.783 E16.74635
G1 X80.476 Y87.755 E16.75431
G1 X80.156 Y87.784 E16.76233
G1 X79.848 Y87.869 E16.7703
G1 X79.56 Y88.004 E16.77823
G1 X79.299 Y88.189 E16.78621
G1 X79.074 Y88.414 E16.79415
G1 X78.891 Y88.677 E16.80214
G1 X78.757 Y88.967 E16.81011
G1 X78.676 Y89.276 E16.81808
G1 X78.648 Y89.593 E16.82602
G1 X78.677 Y89.911 E16.83399
G1 X78.76 Y90.22 E16.84197
G1 X78.897 Y90.509 E16.84995
G1 X79.082 Y90.771 E16.85795
G1 X79.308 Y90.995 E16.86588
G1 X79.57 Y91.177 E16.87384
G1 X79.86 Y91.312 E16.88182
G1 X80.168 Y91.393 E16.88977
G1 X80.486 Y91.421 E16.89773
G1 X80.804 Y91.392 E16.90569
G1 X81.113 Y91.308 E16.91368
G1 X81.402 Y91.171 E16.92166
G1 X81.663 Y90.987 E16.92963
G1 X81.888 Y90.761 E16.93758
G1 X82.07 Y90.499 E16.94554
G1 X82.204 Y90.209 E16.95351
G1 X82.286 Y89.901 E16.96146
G1 X82.314 Y89.583 E16.96942
G0 F3600 X82.811 Y89.626
G0 X82.619 Y90.358
G0 X82.226 Y91.043
G0 X78.009 Y96.383
G0 X77.985 Y96.882
G1 F1800 X77.23 Y96.821 E16.98832
G1 X76.5 Y96.646 E17.00704
G1 X75.806 Y96.359 E17.02578
G1 X75.157 Y95.961 E17.04477
G1 X74.587 Y95.475 E17.06345
G1 X74.101 Y94.905 E17.08214
G1 X73.704 Y94.258 E17.10107
G1 X73.414 Y93.559 E17.11995
G1 X73.24 Y92.832 E17.1386
G1 X73.187 Y92.112 E17.15661
G1 X73.188 Y50.033 E18.20627
G1 X73.24 Y49.344 E18.22351
G1 X73.414 Y48.617 E18.24216
G1 X73.704 Y47.918 E18.26103
G1 X74.101 Y47.271 E18.27997
G1 X74.587 Y46.702 E18.29864
G1 X75.157 Y46.215 E18.31734
G1 X75.806 Y45.817 E18.33633
G1 X76.5 Y45.53 E18.35506
G1 X77.23 Y45.355 E18.37379
G1 X77.984 Y45.295 E18.39266
G1 X115.976 Y45.294 E19.34037
G1 X116.731 Y45.355 E19.35927
G1 X117.461 Y45.53 E19.37799
G1 X118.155 Y45.817 E19.39673
G1 X118.804 Y46.215 E19.41572
G1 X119.373 Y46.702 E19.4344
G1 X119.86 Y47.271 E19.45308
G1 X120.258 Y47.92 E19.47207
G1 X120.545 Y48.614 E19.49081
G1 X120.72 Y49.344 E19.50953
G1 X120.774 Y50.064 E19.52754
G1 X120.774 Y92.088 E20.57584
G1 X120.713 Y92.839 E20.59463
G1 X120.538 Y93.569 E20.61336
G1 X120.251 Y94.263 E20.63209
G1 X119.853 Y94.912 E20.65108
G1 X119.366 Y95.482 E20.66978
G1 X118.797 Y95.968 E20.68845
G1 X118.148 Y96.366 E20.70744
G1 X117.454 Y96.653 E20.72618
G1 X116.724 Y96.828 E20.7449
G1 X116.002 Y96.882 E20.76296
G1 X77.985 Y96.882 E21.7113
G0 F3600 X78.009 Y96.383
G0 X111.193 Y90.038
G0 X111.676 Y89.911
G1 F1800 X111.759 Y90.22 E21.71928
G1 X111.896 Y90.509 E21.72726
G1 X112.081 Y90.771 E21.73526
G1 X112.307 Y90.995 E21.7432
G1 X112.569 Y91.177 E21.75116
G1 X112.859 Y91.312 E21.75914
G1 X113.167 Y91.393 E21.76708
G1 X113.485 Y91.421 E21.77504
G1 X113.803 Y91.392 E21.78301
G1 X114.112 Y91.308 E21.791
G1 X114.401 Y91.171 E21.79897
G1 X114.662 Y90.987 E21.80694
G1 X114.887 Y90.761 E21.8149
G1 X115.069 Y90.499 E21.82285
G1 X115.203 Y90.209 E21.83082
G1 X115.285 Y89.901 E21.83877
G1 X115.313 Y89.583 E21.84674
G1 X115.284 Y89.264 E21.85473
G1 X115.199 Y88.956 E21.8627
G1 X115.064 Y88.667 E21.87065
G1 X114.879 Y88.406 E21.87863
G1 X114.653 Y88.181 E21.88659
G1 X114.391 Y87.999 E21.89455
G1 X114.101 Y87.865 E21.90252
G1 X113.793 Y87.783 E21.91047
G1 X113.475 Y87.755 E21.91843
G1 X113.155 Y87.784 E21.92645
G1 X112.847 Y87.869 E21.93442
G1 X112.559 Y88.004 E21.94235
G1 X112.298 Y88.189 E21.95033
G1 X112.073 Y88.414 E21.95827
G1 X111.89 Y88.677 E21.96626
G1 X111.756 Y88.967 E21.97423
G1 X111.675 Y89.276 E21.9822
G1 X111.647 Y89.593 E21.99014
G1 X111.676 Y89.911 E21.9981
G0 F3600 X111.193 Y90.038
G0 X113.441 Y54.918
G0 X113.485 Y54.421
G1 F1800 X113.803 Y54.392 E22.00607
G1 X114.112 Y54.308 E22.01405
G1 X114.401 Y54.171 E22.02203
G1 X114.662 Y53.987 E22.03
G1 X114.887 Y53.761 E22.03795
G1 X115.069 Y53.499 E22.04591
G1 X115.203 Y53.209 E22.05388
G1 X115.285 Y52.901 E22.06183
G1 X115.313 Y52.583 E22.06979
G1 X115.284 Y52.264 E22.07778
G1 X115.199 Y51.956 E22.08576
G1 X115.064 Y51.667 E22.09371
G1 X114.879 Y51.406 E22.10169
G1 X114.653 Y51.181 E22.10965
G1 X114.391 Y50.999 E22.11761
G1 X114.101 Y50.865 E22.12557
G1 X113.793 Y50.783 E22.13352
G1 X113.475 Y50.755 E22.14149
G1 X113.155 Y50.784 E22.1495
G1 X112.847 Y50.869 E22.15747
G1 X112.559 Y51.004 E22.16541
G1 X112.298 Y51.189 E22.17339
G1 X112.073 Y51.414 E22.18133
G1 X111.89 Y51.677 E22.18932
G1 X111.756 Y51.967 E22.19729
G1 X111.675 Y52.276 E22.20526
G1 X111.647 Y52.593 E22.21319
G1 X111.676 Y52.911 E22.22116
G1 X111.759 Y53.22 E22.22914
G1 X111.896 Y53.509 E22.23712
G1 X112.081 Y53.771 E22.24512
G1 X112.307 Y53.995 E22.25306
G1 X112.569 Y54.177 E22.26101
G1 X112.859 Y54.312 E22.26899
G1 X113.167 Y54.393 E22.27694
G1 X113.485 Y54.421 E22.2849
G0 F3600 X113.441 Y54.918
G0 X82.811 Y52.626
G0 X82.314 Y52.583
G1 F1800 X82.285 Y52.264 E22.29289
G1 X82.2 Y51.956 E22.30086
G1 X82.065 Y51.667 E22.30882
G1 X81.88 Y51.406 E22.3168
G1 X81.654 Y51.181 E22.32475
G1 X81.392 Y50.999 E22.33271
G1 X81.102 Y50.865 E22.34068
G1 X80.794 Y50.783 E22.34863
G1 X80.476 Y50.755 E22.3566
G1 X80.156 Y50.784 E22.36461
G1 X79.848 Y50.869 E22.37258
G1 X79.56 Y51.004 E22.38052
G1 X79.299 Y51.189 E22.3885
