;FLAVOR:RepRap
;TIME:5560
;Generated with Cura_SteamEngine 2.3.1
G21 ; set units to millimeters
G90 ; use absolute positioning
M82 ; absolute extrusion mode
G28 W ; home all without mesh bed level
G80 ; mesh bed leveling
M104 S200 ; set extruder temp
M140 S60 ; set bed temp
M190 S60 ; wait for bed temp
M109 S200 ; wait for extruder temp
G92 E0.0 ; reset extruder distance position
G1 Y-3.0 F1000.0 ; go outside print area
G1 X60.0 E9.0 F1000.0 ; intro line
G1 X100.0 E21.5 F1000.0 ; intro line
G92 E0.0 ; reset extruder distance position
;LAYER_COUNT:260
;LAYER:0
M107
G1 F2100 E-0.8
G0 F3600 X83.063 Y82.681 Z.15
;TYPE:SKIRT
G1 F2100 E0
G1 F1800 X83.262 Y82.483 E0.007
G1 X83.859 Y81.972 E0.02661
G1 X84.09 Y81.803 E0.03375
G1 X84.757 Y81.395 E0.05325
G1 X85.006 Y81.269 E0.06021
G1 X85.738 Y80.965 E0.07998
G1 X86.009 Y80.876 E0.0871
G1 X86.766 Y80.695 E0.10651
G1 X87.044 Y80.651 E0.11353
G1 X87.823 Y80.59 E0.13303
G1 X87.964 Y80.585 E0.13655
G1 X125.971 Y80.584 E1.08463
G1 X126.114 Y80.59 E1.0882
G1 X126.893 Y80.652 E1.1077
G1 X127.169 Y80.695 E1.11467
G1 X127.926 Y80.876 E1.13408
G1 X128.197 Y80.965 E1.1412
G1 X128.927 Y81.268 E1.16091
G1 X129.176 Y81.394 E1.16787
G1 X129.845 Y81.803 E1.18743
G1 X130.075 Y81.97 E1.19453
G1 X130.671 Y82.479 E1.21408
G1 X130.872 Y82.68 E1.22117
G1 X131.38 Y83.276 E1.2407
G1 X131.544 Y83.502 E1.24767
G1 X131.957 Y84.174 E1.26734
G1 X132.085 Y84.425 E1.27437
G1 X132.387 Y85.152 E1.29401
G1 X132.476 Y85.425 E1.30117
G1 X132.657 Y86.183 E1.32061
G1 X132.701 Y86.465 E1.32773
G1 X132.758 Y87.219 E1.34659
G1 X132.763 Y87.355 E1.34999
G1 X132.763 Y129.386 E2.39846
G1 X132.757 Y129.529 E2.40203
G1 X132.695 Y130.305 E2.42145
G1 X132.652 Y130.581 E2.42841
G1 X132.471 Y131.338 E2.44783
G1 X132.383 Y131.607 E2.45489
G1 X132.08 Y132.339 E2.47465
G1 X131.951 Y132.593 E2.48176
G1 X131.543 Y133.257 E2.5012
G1 X131.379 Y133.483 E2.50816
G1 X130.869 Y134.081 E2.52777
G1 X130.668 Y134.282 E2.53486
G1 X130.073 Y134.79 E2.55438
G1 X129.847 Y134.954 E2.56134
G1 X129.172 Y135.369 E2.58111
G1 X128.916 Y135.5 E2.58828
G1 X128.192 Y135.799 E2.60782
G1 X127.924 Y135.886 E2.61485
G1 X127.164 Y136.068 E2.63434
G1 X126.883 Y136.112 E2.64144
G1 X126.126 Y136.17 E2.66038
G1 X125.988 Y136.175 E2.66382
G1 X87.965 Y136.175 E3.61231
G1 X87.82 Y136.169 E3.61593
G1 X87.039 Y136.106 E3.63548
G1 X86.764 Y136.062 E3.64242
G1 X86.005 Y135.88 E3.66189
G1 X85.738 Y135.794 E3.66889
G1 X85.014 Y135.495 E3.68843
G1 X84.758 Y135.364 E3.6956
G1 X84.083 Y134.949 E3.71537
G1 X83.856 Y134.784 E3.72237
G1 X83.262 Y134.276 E3.74187
G1 X83.064 Y134.077 E3.74887
G1 X82.553 Y133.479 E3.76849
G1 X82.387 Y133.252 E3.77551
G1 X81.978 Y132.586 E3.795
G1 X81.848 Y132.331 E3.80214
G1 X81.547 Y131.602 E3.82182
G1 X81.46 Y131.333 E3.82887
G1 X81.279 Y130.575 E3.84831
G1 X81.235 Y130.295 E3.85538
G1 X81.177 Y129.542 E3.87422
G1 X81.172 Y129.404 E3.87766
G1 X81.173 Y87.337 E4.92703
G1 X81.178 Y87.198 E4.9305
G1 X81.235 Y86.462 E4.94891
G1 X81.279 Y86.184 E4.95593
G1 X81.459 Y85.429 E4.9753
G1 X81.547 Y85.158 E4.9824
G1 X81.848 Y84.43 E5.00205
G1 X81.977 Y84.176 E5.00916
G1 X82.391 Y83.502 E5.02889
G1 X82.556 Y83.275 E5.03589
G1 X83.063 Y82.681 E5.05537
G0 F3600 X83.367 Y82.941
G1 F1800 X83.522 Y82.786 E5.06084
G1 X84.119 Y82.275 E5.08044
G1 X84.298 Y82.145 E5.08596
G1 X84.965 Y81.737 E5.10547
G1 X85.159 Y81.638 E5.1109
G1 X85.891 Y81.334 E5.13067
G1 X86.102 Y81.265 E5.13621
G1 X86.859 Y81.084 E5.15562
G1 X87.076 Y81.05 E5.1611
G1 X87.855 Y80.989 E5.1806
G1 X87.964 Y80.985 E5.18332
G1 X125.971 Y80.984 E6.13141
G1 X126.082 Y80.988 E6.13418
G1 X126.861 Y81.05 E6.15367
G1 X127.076 Y81.084 E6.1591
G1 X127.833 Y81.265 E6.17852
G1 X128.044 Y81.334 E6.18405
G1 X128.774 Y81.637 E6.20377
G1 X128.967 Y81.736 E6.20918
G1 X129.636 Y82.145 E6.22874
G1 X129.815 Y82.274 E6.23424
G1 X130.411 Y82.783 E6.25379
G1 X130.567 Y82.94 E6.25932
G1 X131.075 Y83.536 E6.27885
G1 X131.203 Y83.711 E6.28426
G1 X131.616 Y84.383 E6.30394
G1 X131.716 Y84.579 E6.30942
G1 X132.018 Y85.306 E6.32906
G1 X132.087 Y85.518 E6.33462
G1 X132.268 Y86.276 E6.35406
G1 X132.302 Y86.495 E6.35959
G1 X132.359 Y87.249 E6.37845
G1 X132.363 Y87.355 E6.3811
G1 X132.363 Y129.386 E7.42957
G1 X132.359 Y129.498 E7.43236
G1 X132.297 Y130.274 E7.45178
G1 X132.263 Y130.488 E7.45719
G1 X132.082 Y131.245 E7.4766
G1 X132.014 Y131.454 E7.48209
G1 X131.711 Y132.186 E7.50185
G1 X131.61 Y132.384 E7.50739
G1 X131.202 Y133.048 E7.52683
G1 X131.074 Y133.223 E7.53224
G1 X130.564 Y133.821 E7.55185
G1 X130.408 Y133.978 E7.55737
G1 X129.813 Y134.486 E7.57688
G1 X129.637 Y134.614 E7.58231
G1 X128.962 Y135.029 E7.60208
G1 X128.763 Y135.13 E7.60765
G1 X128.039 Y135.429 E7.62719
G1 X127.831 Y135.497 E7.63264
G1 X127.071 Y135.679 E7.65214
G1 X126.852 Y135.713 E7.65767
G1 X126.095 Y135.771 E7.67661
G1 X125.988 Y135.775 E7.67928
G1 X87.965 Y135.775 E8.62776
G1 X87.852 Y135.77 E8.63059
G1 X87.071 Y135.707 E8.65013
G1 X86.858 Y135.673 E8.65551
G1 X86.099 Y135.491 E8.67498
G1 X85.891 Y135.424 E8.68043
G1 X85.167 Y135.125 E8.69997
G1 X84.968 Y135.024 E8.70554
G1 X84.293 Y134.609 E8.72531
G1 X84.116 Y134.48 E8.73077
G1 X83.522 Y133.972 E8.75027
G1 X83.368 Y133.817 E8.75572
G1 X82.857 Y133.219 E8.77534
G1 X82.728 Y133.043 E8.78078
G1 X82.319 Y132.377 E8.80028
G1 X82.218 Y132.178 E8.80584
G1 X81.917 Y131.449 E8.82552
G1 X81.849 Y131.24 E8.831
G1 X81.668 Y130.482 E8.85044
G1 X81.634 Y130.265 E8.85592
G1 X81.576 Y129.512 E8.87476
G1 X81.572 Y129.404 E8.87745
G1 X81.573 Y87.337 E9.92682
G1 X81.577 Y87.229 E9.92952
G1 X81.634 Y86.493 E9.94793
G1 X81.668 Y86.276 E9.95341
G1 X81.848 Y85.521 E9.97277
G1 X81.916 Y85.311 E9.97828
G1 X82.217 Y84.583 E9.99793
G1 X82.318 Y84.385 E10.00347
G1 X82.732 Y83.711 E10.0232
G1 X82.86 Y83.535 E10.02863
G1 X83.367 Y82.941 E10.04811
G0 F3600 X83.671 Y83.201
G1 F1800 X83.782 Y83.09 E10.05203
G1 X84.379 Y82.579 E10.07163
G1 X84.507 Y82.486 E10.07558
G1 X85.174 Y82.078 E10.09508
G1 X85.312 Y82.007 E10.09896
G1 X86.044 Y81.703 E10.11873
G1 X86.195 Y81.654 E10.12269
G1 X86.952 Y81.473 E10.1421
G1 X87.107 Y81.449 E10.14602
G1 X87.886 Y81.388 E10.16551
G1 X87.964 Y81.385 E10.16745
G1 X125.971 Y81.384 E11.11554
G1 X126.05 Y81.387 E11.11751
G1 X126.829 Y81.449 E11.13701
G1 X126.983 Y81.473 E11.1409
G1 X127.74 Y81.654 E11.16031
G1 X127.89 Y81.703 E11.16425
G1 X128.62 Y82.006 E11.18396
G1 X128.759 Y82.077 E11.18786
G1 X129.428 Y82.486 E11.20742
G1 X129.555 Y82.579 E11.21134
G1 X130.151 Y83.088 E11.2309
G1 X130.263 Y83.199 E11.23483
G1 X130.771 Y83.795 E11.25436
G1 X130.862 Y83.92 E11.25822
G1 X131.275 Y84.592 E11.2779
G1 X131.346 Y84.732 E11.28181
G1 X131.648 Y85.459 E11.30145
G1 X131.698 Y85.611 E11.30544
G1 X131.879 Y86.369 E11.32488
G1 X131.903 Y86.526 E11.32884
G1 X131.96 Y87.28 E11.34771
G1 X131.963 Y87.355 E11.34958
G1 X131.963 Y129.386 E12.39805
G1 X131.96 Y129.466 E12.40004
G1 X131.898 Y130.242 E12.41946
G1 X131.874 Y130.395 E12.42333
G1 X131.693 Y131.152 E12.44274
G1 X131.644 Y131.301 E12.44665
G1 X131.341 Y132.033 E12.46642
G1 X131.269 Y132.175 E12.47039
G1 X130.861 Y132.839 E12.48983
G1 X130.77 Y132.964 E12.49369
G1 X130.26 Y133.562 E12.51329
G1 X130.148 Y133.674 E12.51724
G1 X129.553 Y134.182 E12.53676
G1 X129.428 Y134.273 E12.54061
G1 X128.753 Y134.688 E12.56038
G1 X128.611 Y134.76 E12.56435
G1 X127.887 Y135.059 E12.58389
G1 X127.738 Y135.108 E12.5878
G1 X126.978 Y135.29 E12.6073
G1 X126.821 Y135.314 E12.61126
G1 X126.064 Y135.372 E12.6302
G1 X125.988 Y135.375 E12.6321
G1 X87.965 Y135.375 E13.58058
G1 X87.885 Y135.372 E13.58258
G1 X87.104 Y135.309 E13.60213
G1 X86.951 Y135.284 E13.60599
G1 X86.192 Y135.102 E13.62546
G1 X86.043 Y135.054 E13.62937
G1 X85.319 Y134.755 E13.64891
G1 X85.177 Y134.683 E13.65288
G1 X84.502 Y134.268 E13.67265
G1 X84.376 Y134.176 E13.67654
G1 X83.782 Y133.668 E13.69603
G1 X83.672 Y133.558 E13.69992
G1 X83.161 Y132.96 E13.71954
G1 X83.069 Y132.833 E13.72345
G1 X82.66 Y132.167 E13.74295
G1 X82.588 Y132.026 E13.74689
G1 X82.287 Y131.297 E13.76657
G1 X82.238 Y131.147 E13.7705
G1 X82.057 Y130.389 E13.78994
G1 X82.033 Y130.234 E13.79386
G1 X81.975 Y129.481 E13.8127
G1 X81.972 Y129.404 E13.81462
G1 X81.973 Y87.337 E14.86398
G1 X81.976 Y87.26 E14.86591
G1 X82.033 Y86.524 E14.88432
G1 X82.057 Y86.369 E14.88823
G1 X82.237 Y85.614 E14.9076
G1 X82.286 Y85.464 E14.91153
G1 X82.587 Y84.736 E14.93118
G1 X82.659 Y84.595 E14.93513
G1 X83.073 Y83.921 E14.95486
G1 X83.164 Y83.795 E14.95874
G1 X83.671 Y83.201 E14.97822
G0 F3600 X83.976 Y83.46
G1 F1800 X84.042 Y83.394 E14.98055
G1 X84.639 Y82.883 E15.00015
G1 X84.716 Y82.827 E15.00253
G1 X85.383 Y82.419 E15.02203
G1 X85.466 Y82.377 E15.02435
G1 X86.198 Y82.073 E15.04412
G1 X86.288 Y82.043 E15.04649
G1 X87.045 Y81.862 E15.06591
G1 X87.138 Y81.848 E15.06825
G1 X87.917 Y81.787 E15.08774
G1 X87.964 Y81.785 E15.08892
G1 X125.971 Y81.784 E16.03701
G1 X126.019 Y81.786 E16.0382
G1 X126.798 Y81.848 E16.0577
G1 X126.89 Y81.862 E16.06002
G1 X127.647 Y82.043 E16.07944
G1 X127.737 Y82.073 E16.0818
G1 X128.467 Y82.376 E16.10152
G1 X128.55 Y82.418 E16.10384
G1 X129.219 Y82.827 E16.1234
G1 X129.296 Y82.883 E16.12577
G1 X129.892 Y83.392 E16.14532
G1 X129.959 Y83.459 E16.14769
G1 X130.467 Y84.055 E16.16722
G1 X130.521 Y84.13 E16.16953
G1 X130.934 Y84.802 E16.1892
G1 X130.977 Y84.886 E16.19156
G1 X131.279 Y85.613 E16.2112
G1 X131.309 Y85.704 E16.21359
G1 X131.49 Y86.462 E16.23303
G1 X131.504 Y86.556 E16.2354
G1 X131.561 Y87.31 E16.25426
G1 X131.563 Y87.355 E16.25538
G1 X131.563 Y129.386 E17.30385
G1 X131.561 Y129.434 E17.30505
G1 X131.499 Y130.21 E17.32447
G1 X131.485 Y130.302 E17.32679
G1 X131.304 Y131.059 E17.3462
G1 X131.274 Y131.148 E17.34855
G1 X130.971 Y131.88 E17.36831
G1 X130.928 Y131.965 E17.37069
G1 X130.52 Y132.629 E17.39013
G1 X130.466 Y132.704 E17.39243
G1 X129.956 Y133.302 E17.41204
G1 X129.889 Y133.369 E17.4144
G1 X129.294 Y133.877 E17.43392
G1 X129.218 Y133.932 E17.43626
G1 X128.543 Y134.347 E17.45602
G1 X128.458 Y134.391 E17.45841
G1 X127.734 Y134.69 E17.47795
G1 X127.645 Y134.719 E17.48029
G1 X126.885 Y134.901 E17.49978
G1 X126.791 Y134.915 E17.50215
G1 X126.034 Y134.973 E17.52109
G1 X125.988 Y134.975 E17.52224
G1 X87.965 Y134.975 E18.47073
G1 X87.917 Y134.973 E18.47192
G1 X87.136 Y134.91 E18.49147
G1 X87.044 Y134.895 E18.49379
G1 X86.285 Y134.713 E18.51326
G1 X86.196 Y134.685 E18.51559
G1 X85.472 Y134.386 E18.53513
G1 X85.387 Y134.342 E18.53752
G1 X84.712 Y133.927 E18.55729
G1 X84.636 Y133.872 E18.55963
G1 X84.042 Y133.364 E18.57912
G1 X83.976 Y133.298 E18.58145
G1 X83.465 Y132.7 E18.60107
G1 X83.41 Y132.624 E18.60341
G1 X83.001 Y131.958 E18.62291
G1 X82.957 Y131.873 E18.6253
G1 X82.656 Y131.144 E18.64497
G1 X82.627 Y131.054 E18.64733
G1 X82.446 Y130.296 E18.66677
G1 X82.432 Y130.203 E18.66912
G1 X82.374 Y129.45 E18.68795
G1 X82.372 Y129.404 E18.6891
G1 X82.373 Y87.337 E19.73847
G1 X82.375 Y87.291 E19.73962
G1 X82.432 Y86.555 E19.75803
G1 X82.446 Y86.462 E19.76038
G1 X82.626 Y85.707 E19.77974
G1 X82.656 Y85.617 E19.78211
G1 X82.957 Y84.889 E19.80176
G1 X83 Y84.804 E19.80413
G1 X83.414 Y84.13 E19.82386
G1 X83.469 Y84.054 E19.8262
G1 X83.976 Y83.46 E19.84569
G0 F3600 X84.302 Y83.698
G1 F1800 X84.899 Y83.187 E19.86529
G1 X84.925 Y83.168 E19.86609
G1 X85.592 Y82.76 E19.8856
G1 X85.619 Y82.746 E19.88635
G1 X86.351 Y82.442 E19.90613
G1 X86.381 Y82.432 E19.90692
G1 X87.138 Y82.251 E19.92633
G1 X87.169 Y82.247 E19.92711
G1 X87.948 Y82.186 E19.9466
G1 X87.964 Y82.185 E19.947
G1 X125.971 Y82.184 E20.89509
G1 X125.987 Y82.185 E20.89549
G1 X126.766 Y82.247 E20.91498
G1 X126.797 Y82.251 E20.91576
G1 X127.554 Y82.432 E20.93518
G1 X127.584 Y82.442 E20.93597
G1 X128.314 Y82.745 E20.95568
G1 X128.341 Y82.759 E20.95644
G1 X129.01 Y83.168 E20.976
G1 X129.036 Y83.187 E20.97681
G1 X129.632 Y83.696 E20.99636
G1 X129.654 Y83.718 E20.99713
G1 X130.162 Y84.314 E21.01667
G1 X130.18 Y84.339 E21.01744
G1 X130.593 Y85.011 E21.03711
G1 X130.608 Y85.039 E21.03791
G1 X130.91 Y85.766 E21.05754
G1 X130.92 Y85.797 E21.05836
G1 X131.101 Y86.555 E21.0778
G1 X131.105 Y86.586 E21.07858
G1 X131.162 Y87.34 E21.09744
G1 X131.163 Y87.355 E21.09781
G1 X131.163 Y129.386 E22.14628
G1 X131.162 Y129.402 E22.14668
G1 X131.1 Y130.178 E22.1661
G1 X131.096 Y130.209 E22.16688
G1 X130.915 Y130.966 E22.18629
G1 X130.905 Y130.995 E22.18706
G1 X130.602 Y131.727 E22.20682
G1 X130.587 Y131.756 E22.20764
G1 X130.179 Y132.42 E22.22708
G1 X130.161 Y132.445 E22.22785
G1 X129.651 Y133.043 E22.24745
G1 X129.629 Y133.065 E22.24823
G1 X129.034 Y133.573 E22.26774
G1 X129.009 Y133.591 E22.26851
G1 X128.334 Y134.006 E22.28828
G1 X128.305 Y134.021 E22.28909
G1 X127.581 Y134.32 E22.30863
G1 X127.552 Y134.33 E22.3094
G1 X126.792 Y134.512 E22.32889
G1 X126.76 Y134.516 E22.3297
G1 X126.003 Y134.574 E22.34863
G1 X125.988 Y134.575 E22.34901
G1 X87.965 Y134.575 E23.2975
G1 X87.949 Y134.574 E23.2979
G1 X87.168 Y134.511 E23.31744
G1 X87.137 Y134.506 E23.31823
G1 X86.378 Y134.324 E23.3377
G1 X86.349 Y134.315 E23.33845
G1 X85.625 Y134.016 E23.35799
G1 X85.596 Y134.001 E23.35881
G1 X84.921 Y133.586 E23.37857
G1 X84.896 Y133.568 E23.37934
G1 X84.302 Y133.06 E23.39884
G1 X84.28 Y133.038 E23.39961
G1 X83.769 Y132.44 E23.41924
G1 X83.751 Y132.415 E23.42
G1 X83.342 Y131.749 E23.4395
G1 X83.327 Y131.72 E23.44032
G1 X83.026 Y130.991 E23.45999
G1 X83.016 Y130.961 E23.46078
G1 X82.835 Y130.203 E23.48022
G1 X82.831 Y130.172 E23.481
G1 X82.773 Y129.419 E23.49984
G1 X82.772 Y129.404 E23.50021
G1 X82.773 Y87.337 E24.54958
G1 X82.774 Y87.322 E24.54995
G1 X82.831 Y86.586 E24.56837
G1 X82.835 Y86.555 E24.56915
G1 X83.015 Y85.8 E24.58851
G1 X83.025 Y85.77 E24.5893
G1 X83.326 Y85.042 E24.60895
G1 X83.341 Y85.013 E24.60976
G1 X83.755 Y84.339 E24.62949
G1 X83.773 Y84.314 E24.63026
G1 X84.28 Y83.72 E24.64974
G1 X84.302 Y83.698 E24.65052
G1 F2100 E23.85052
G0 F3600 X84.887 Y84.303
G0 X84.929 Y84.345
G0 X84.859 Y84.275
;TYPE:WALL-INNER
G1 F2100 E24.65052
G1 F1800 X85.385 Y83.824 E24.6678
G1 X85.968 Y83.468 E24.68484
G1 X86.613 Y83.2 E24.70227
G1 X87.278 Y83.041 E24.71932
G1 X87.989 Y82.985 E24.73711
G1 X125.945 Y82.984 E25.68393
G1 X126.657 Y83.041 E25.70175
G1 X127.322 Y83.2 E25.7188
G1 X127.967 Y83.468 E25.73623
G1 X128.55 Y83.824 E25.75327
G1 X129.077 Y84.275 E25.77057
G1 X129.523 Y84.797 E25.7877
G1 X129.888 Y85.393 E25.80513
G1 X130.152 Y86.027 E25.82226
G1 X130.311 Y86.694 E25.83937
G1 X130.363 Y87.375 E25.8564
G1 X130.363 Y129.36 E26.90372
G1 X130.306 Y130.069 E26.92147
G1 X130.147 Y130.736 E26.93857
G1 X129.881 Y131.376 E26.95586
G1 X129.522 Y131.962 E26.973
G1 X129.072 Y132.488 E26.99027
G1 X128.55 Y132.935 E27.00741
G1 X127.957 Y133.298 E27.02476
G1 X127.317 Y133.563 E27.04204
G1 X126.652 Y133.722 E27.05909
G1 X125.963 Y133.775 E27.07633
G1 X87.992 Y133.775 E28.02352
G1 X87.278 Y133.717 E28.04139
G1 X86.613 Y133.558 E28.05845
G1 X85.973 Y133.293 E28.07573
G1 X85.38 Y132.93 E28.09307
G1 X84.859 Y132.483 E28.11019
G1 X84.408 Y131.957 E28.12748
G1 X84.051 Y131.374 E28.14453
G1 X83.784 Y130.729 E28.16195
G1 X83.625 Y130.064 E28.179
G1 X83.572 Y129.377 E28.19619
G1 X83.573 Y87.362 E29.24426
G1 X83.625 Y86.694 E29.26097
G1 X83.783 Y86.032 E29.27795
G1 X84.05 Y85.388 E29.29534
G1 X84.412 Y84.797 E29.31263
G1 X84.859 Y84.275 E29.32977
G0 F3600 X84.929 Y84.345
G0 X88.963 Y88.096
G0 X89.027 Y88.172
G1 F1800 X88.754 Y88.448 E29.33946
G1 X88.531 Y88.767 E29.34916
G1 X88.367 Y89.12 E29.35887
G1 X88.268 Y89.496 E29.36857
G1 X88.233 Y89.885 E29.37832
G1 X88.269 Y90.274 E29.38806
G1 X88.372 Y90.648 E29.39774
G1 X88.535 Y91.001 E29.40744
G1 X88.761 Y91.32 E29.41719
G1 X89.035 Y91.594 E29.42685
G1 X89.355 Y91.817 E29.43658
G1 X89.709 Y91.981 E29.44632
G1 X90.085 Y92.08 E29.45602
G1 X90.473 Y92.115 E29.46573
G1 X90.863 Y92.079 E29.4755
G1 X91.236 Y91.976 E29.48516
G1 X91.589 Y91.813 E29.49486
G1 X91.908 Y91.587 E29.50461
G1 X92.181 Y91.313 E29.51426
G1 X92.406 Y90.993 E29.52401
G1 X92.57 Y90.639 E29.53375
G1 X92.668 Y90.262 E29.54346
G1 X92.703 Y89.875 E29.55316
G1 X92.667 Y89.487 E29.56288
G1 X92.566 Y89.111 E29.57259
G1 X92.401 Y88.758 E29.58231
G1 X92.175 Y88.44 E29.59204
G1 X91.901 Y88.166 E29.60171
G1 X91.581 Y87.942 E29.61145
