;FLAVOR:RepRap
;TIME:2374
;Generated with Cura_SteamEngine 2.3.1
G21 ; set units to millimeters
G90 ; use absolute positioning
M82 ; absolute extrusion mode
G28 W ; home all without mesh bed level
G80 ; mesh bed leveling
M104 S200 ; set extruder temp
M140 S60 ; set bed temp
M190 S60 ; wait for bed temp
M109 S200 ; wait for extruder temp
G92 E0.0 ; reset extruder distance position
G1 Y-3.0 F1000.0 ; go outside print area
G1 X60.0 E9.0 F1000.0 ; intro line
G1 X100.0 E21.5 F1000.0 ; intro line
G92 E0.0 ; reset extruder distance position
;LAYER_COUNT:50
;LAYER:0
M107
G1 F2100 E-0.8
G0 F3600 X71.787 Y76.538 Z.15
;TYPE:SKIRT
G1 F2100 E0
G1 F1800 X73.305 Y75.293 E0.04897
G1 X73.597 Y75.098 E0.05773
G1 X75.325 Y74.173 E0.10662
G1 X75.652 Y74.037 E0.11546
G1 X77.525 Y73.47 E0.16428
G1 X77.87 Y73.402 E0.17305
G1 X79.823 Y73.209 E0.222
G1 X80.178 Y73.209 E0.23086
G1 X82.125 Y73.402 E0.27966
G1 X82.268 Y73.422 E0.28327
G1 X125.9 Y81.337 E1.38943
G1 X126.099 Y81.385 E1.39454
G1 X127.124 Y81.694 E1.42125
G1 X127.454 Y81.83 E1.43015
G1 X128.404 Y82.339 E1.45703
G1 X128.695 Y82.534 E1.46577
G1 X129.529 Y83.218 E1.49268
G1 X129.779 Y83.468 E1.5015
G1 X130.465 Y84.304 E1.52847
G1 X130.661 Y84.596 E1.53725
G1 X131.17 Y85.546 E1.56413
G1 X131.306 Y85.875 E1.57301
G1 X131.617 Y86.903 E1.5998
G1 X131.685 Y87.247 E1.60855
G1 X131.791 Y88.321 E1.63547
G1 X131.791 Y88.674 E1.64428
G1 X131.685 Y89.752 E1.6713
G1 X131.617 Y90.097 E1.68007
G1 X131.306 Y91.126 E1.70688
G1 X131.17 Y91.454 E1.71574
G1 X130.662 Y92.403 E1.74259
G1 X130.467 Y92.696 E1.75137
G1 X129.782 Y93.531 E1.77831
G1 X129.532 Y93.78 E1.78712
G1 X128.696 Y94.466 E1.81409
G1 X128.404 Y94.662 E1.82287
G1 X127.454 Y95.171 E1.84975
G1 X127.125 Y95.307 E1.85863
G1 X126.096 Y95.618 E1.88545
G1 X125.67 Y95.692 E1.89623
G1 X123.007 Y95.833 E1.96275
G1 X122.646 Y95.816 E1.97177
G1 X111.565 Y94.16 E2.25126
G1 X111.304 Y94.101 E2.25793
G1 X110.975 Y94 E2.26652
G1 X109.137 Y93.783 E2.31268
G1 X109.046 Y93.804 E2.31501
G1 X107.011 Y94.004 E2.36602
G1 X105.099 Y94.583 E2.41585
G1 X103.34 Y95.525 E2.46563
G1 X101.79 Y96.797 E2.51565
G1 X100.527 Y98.338 E2.56535
G1 X99.583 Y100.101 E2.61523
G1 X99.004 Y102.01 E2.665
G1 X98.8 Y104.086 E2.71703
G1 X98.8 Y107.08 E2.79172
G1 X100.757 Y118.176 E3.07278
G1 X100.783 Y118.554 E3.08223
G1 X100.743 Y118.833 E3.08926
G1 X100.791 Y119.321 E3.10149
G1 X100.792 Y119.673 E3.11028
G1 X100.687 Y120.75 E3.13727
G1 X100.618 Y121.096 E3.14607
G1 X100.307 Y122.125 E3.17288
G1 X100.171 Y122.453 E3.18174
G1 X99.663 Y123.402 E3.20859
G1 X99.468 Y123.695 E3.21737
G1 X98.783 Y124.53 E3.24431
G1 X98.533 Y124.779 E3.25312
G1 X97.697 Y125.465 E3.28009
G1 X97.405 Y125.661 E3.28887
G1 X96.455 Y126.17 E3.31575
G1 X96.126 Y126.306 E3.32463
G1 X95.097 Y126.617 E3.35145
G1 X94.752 Y126.685 E3.36022
G1 X93.676 Y126.791 E3.38719
G1 X93.323 Y126.791 E3.39599
G1 X92.248 Y126.685 E3.42294
G1 X91.904 Y126.617 E3.43169
G1 X90.875 Y126.306 E3.4585
G1 X90.545 Y126.169 E3.46742
G1 X89.602 Y125.663 E3.49411
G1 X89.449 Y125.571 E3.49856
G1 X73.442 Y114.808 E3.97973
G1 X73.305 Y114.706 E3.98399
G1 X71.787 Y113.462 E4.03295
G1 X71.536 Y113.211 E4.0418
G1 X70.292 Y111.694 E4.09074
G1 X70.097 Y111.402 E4.0995
G1 X69.173 Y109.675 E4.14836
G1 X69.037 Y109.348 E4.15719
G1 X68.47 Y107.475 E4.20601
G1 X68.402 Y107.13 E4.21478
G1 X68.209 Y105.178 E4.26371
G1 X68.2 Y105.001 E4.26813
G1 X68.2 Y85.001 E4.76704
G1 X68.209 Y84.824 E4.77146
G1 X68.402 Y82.869 E4.82046
G1 X68.47 Y82.524 E4.82923
G1 X69.037 Y80.652 E4.87803
G1 X69.173 Y80.325 E4.88686
G1 X70.098 Y78.597 E4.93575
G1 X70.293 Y78.305 E4.94451
G1 X71.536 Y76.789 E4.99341
G1 X71.787 Y76.538 E5.00227
G0 F3600 X72.04 Y76.848
G1 F1800 X73.558 Y75.603 E5.05124
G1 X73.785 Y75.451 E5.05806
G1 X75.513 Y74.526 E5.10695
G1 X75.768 Y74.42 E5.11384
G1 X77.641 Y73.853 E5.16265
G1 X77.909 Y73.8 E5.16947
G1 X79.862 Y73.607 E5.21842
G1 X80.138 Y73.607 E5.22531
G1 X82.085 Y73.8 E5.27412
G1 X82.197 Y73.815 E5.27693
G1 X125.829 Y81.73 E6.3831
G1 X125.983 Y81.768 E6.38706
G1 X127.008 Y82.077 E6.41376
G1 X127.265 Y82.183 E6.4207
G1 X128.215 Y82.692 E6.44758
G1 X128.442 Y82.844 E6.4544
G1 X129.276 Y83.528 E6.4813
G1 X129.47 Y83.722 E6.48815
G1 X130.156 Y84.558 E6.51512
G1 X130.308 Y84.785 E6.52194
G1 X130.817 Y85.735 E6.54882
G1 X130.923 Y85.991 E6.55574
G1 X131.234 Y87.019 E6.58253
G1 X131.287 Y87.286 E6.58932
G1 X131.393 Y88.36 E6.61624
G1 X131.393 Y88.635 E6.6231
G1 X131.287 Y89.713 E6.65012
G1 X131.234 Y89.981 E6.65693
G1 X130.923 Y91.01 E6.68375
G1 X130.817 Y91.266 E6.69066
G1 X130.309 Y92.215 E6.71751
G1 X130.157 Y92.442 E6.72433
G1 X129.472 Y93.277 E6.75127
G1 X129.278 Y93.471 E6.75811
G1 X128.442 Y94.157 E6.78509
G1 X128.215 Y94.309 E6.7919
G1 X127.265 Y94.818 E6.81879
G1 X127.009 Y94.924 E6.8257
G1 X125.98 Y95.235 E6.85252
G1 X125.649 Y95.293 E6.8609
G1 X122.986 Y95.434 E6.92742
G1 X122.705 Y95.421 E6.93444
G1 X111.624 Y93.765 E7.21392
G1 X111.421 Y93.719 E7.21912
G1 X111.051 Y93.606 E7.22877
G1 X109.112 Y93.377 E7.27747
G1 X109.007 Y93.406 E7.28019
G1 X106.931 Y93.61 E7.33222
G1 X104.944 Y94.212 E7.38401
G1 X103.115 Y95.192 E7.43578
G1 X101.511 Y96.508 E7.48753
G1 X100.19 Y98.119 E7.5395
G1 X99.212 Y99.946 E7.59119
G1 X98.61 Y101.93 E7.64291
G1 X98.4 Y104.067 E7.69648
G1 X98.4 Y107.116 E7.77254
G1 X100.363 Y118.246 E8.05446
G1 X100.381 Y118.579 E8.06278
G1 X100.338 Y118.808 E8.06859
G1 X100.393 Y119.361 E8.08245
G1 X100.393 Y119.634 E8.08926
G1 X100.288 Y120.711 E8.11626
G1 X100.235 Y120.98 E8.1231
G1 X99.924 Y122.009 E8.14991
G1 X99.818 Y122.265 E8.15682
G1 X99.31 Y123.214 E8.18367
G1 X99.158 Y123.441 E8.19049
G1 X98.473 Y124.276 E8.21743
G1 X98.279 Y124.47 E8.22427
G1 X97.443 Y125.156 E8.25125
G1 X97.216 Y125.308 E8.25807
G1 X96.266 Y125.817 E8.28495
G1 X96.01 Y125.923 E8.29186
G1 X94.981 Y126.234 E8.31868
G1 X94.713 Y126.287 E8.32549
G1 X93.637 Y126.393 E8.35246
G1 X93.363 Y126.393 E8.3593
G1 X92.288 Y126.287 E8.38624
G1 X92.02 Y126.234 E8.39306
G1 X90.991 Y125.923 E8.41987
G1 X90.734 Y125.817 E8.42681
G1 X89.791 Y125.311 E8.4535
G1 X89.672 Y125.239 E8.45697
G1 X73.665 Y114.476 E8.93814
G1 X73.559 Y114.397 E8.94144
G1 X72.041 Y113.153 E8.9904
G1 X71.845 Y112.958 E8.99729
G1 X70.601 Y111.441 E9.04623
G1 X70.45 Y111.213 E9.05305
G1 X69.526 Y109.486 E9.10191
G1 X69.42 Y109.232 E9.10878
G1 X68.853 Y107.359 E9.15759
G1 X68.8 Y107.091 E9.16441
G1 X68.607 Y105.139 E9.21334
G1 X68.6 Y105.001 E9.21679
G1 X68.6 Y85.001 E9.71569
G1 X68.607 Y84.863 E9.71913
G1 X68.8 Y82.908 E9.76814
G1 X68.853 Y82.64 E9.77495
G1 X69.42 Y80.768 E9.82375
G1 X69.526 Y80.513 E9.83063
G1 X70.451 Y78.785 E9.87953
G1 X70.602 Y78.558 E9.88633
G1 X71.845 Y77.042 E9.93523
G1 X72.04 Y76.848 E9.94209
G0 F3600 X72.294 Y77.157
G1 F1800 X73.812 Y75.912 E9.99107
G1 X73.974 Y75.803 E9.99594
G1 X75.702 Y74.878 E10.04483
G1 X75.884 Y74.803 E10.04974
G1 X77.757 Y74.236 E10.09856
G1 X77.949 Y74.198 E10.10344
G1 X79.902 Y74.005 E10.15239
G1 X80.099 Y74.005 E10.15731
G1 X82.046 Y74.198 E10.20611
G1 X82.125 Y74.209 E10.2081
G1 X125.757 Y82.124 E11.31427
G1 X125.868 Y82.151 E11.31712
G1 X126.893 Y82.46 E11.34383
G1 X127.076 Y82.536 E11.34877
G1 X128.026 Y83.045 E11.37565
G1 X128.188 Y83.153 E11.38051
G1 X129.022 Y83.837 E11.40742
G1 X129.161 Y83.976 E11.41232
G1 X129.847 Y84.812 E11.4393
G1 X129.955 Y84.974 E11.44415
G1 X130.464 Y85.924 E11.47104
G1 X130.54 Y86.106 E11.47596
G1 X130.851 Y87.134 E11.50275
G1 X130.889 Y87.326 E11.50763
G1 X130.995 Y88.4 E11.53455
G1 X130.995 Y88.596 E11.53944
G1 X130.889 Y89.674 E11.56646
G1 X130.851 Y89.865 E11.57132
G1 X130.54 Y90.894 E11.59814
G1 X130.465 Y91.077 E11.60307
G1 X129.957 Y92.026 E11.62992
G1 X129.848 Y92.188 E11.63479
G1 X129.163 Y93.023 E11.66173
G1 X129.024 Y93.162 E11.66664
G1 X128.188 Y93.848 E11.69361
G1 X128.026 Y93.956 E11.69847
G1 X127.076 Y94.465 E11.72535
G1 X126.893 Y94.541 E11.7303
G1 X125.864 Y94.852 E11.75711
G1 X125.628 Y94.894 E11.76309
G1 X122.965 Y95.035 E11.82961
G1 X122.764 Y95.025 E11.83463
G1 X111.683 Y93.369 E12.11412
G1 X111.538 Y93.336 E12.11783
G1 X111.137 Y93.213 E12.12829
G1 X109.134 Y92.977 E12.1786
G1 X108.968 Y93.008 E12.18282
G1 X106.852 Y93.216 E12.23585
G1 X104.794 Y93.84 E12.2895
G1 X102.89 Y94.859 E12.34337
G1 X101.224 Y96.226 E12.39713
G1 X99.859 Y97.891 E12.45083
G1 X98.84 Y99.795 E12.5047
G1 X98.216 Y101.851 E12.5583
G1 X98 Y104.048 E12.61337
G1 X98 Y107.151 E12.69077
G1 X99.969 Y118.315 E12.97356
G1 X99.978 Y118.597 E12.9806
G1 X99.933 Y118.773 E12.98513
G1 X99.995 Y119.4 E13.00085
G1 X99.995 Y119.595 E13.00571
G1 X99.89 Y120.672 E13.0327
G1 X99.852 Y120.864 E13.03759
G1 X99.541 Y121.893 E13.0644
G1 X99.466 Y122.076 E13.06934
G1 X98.958 Y123.025 E13.09619
G1 X98.849 Y123.187 E13.10106
G1 X98.164 Y124.022 E13.128
G1 X98.025 Y124.161 E13.1329
G1 X97.189 Y124.847 E13.15988
G1 X97.027 Y124.955 E13.16474
G1 X96.077 Y125.464 E13.19162
G1 X95.894 Y125.54 E13.19656
G1 X94.865 Y125.851 E13.22338
G1 X94.674 Y125.889 E13.22824
G1 X93.598 Y125.995 E13.25521
G1 X93.402 Y125.995 E13.2601
G1 X92.327 Y125.889 E13.28704
G1 X92.136 Y125.851 E13.2919
G1 X91.107 Y125.54 E13.31872
G1 X90.923 Y125.464 E13.32368
G1 X89.98 Y124.958 E13.35038
G1 X89.895 Y124.907 E13.35285
G1 X73.888 Y114.144 E13.83402
G1 X73.812 Y114.087 E13.83639
G1 X72.294 Y112.843 E13.88534
G1 X72.155 Y112.704 E13.89025
G1 X70.911 Y111.187 E13.93919
G1 X70.802 Y111.025 E13.94406
G1 X69.878 Y109.298 E13.99292
G1 X69.803 Y109.116 E13.99783
G1 X69.236 Y107.243 E14.04664
G1 X69.198 Y107.051 E14.05152
G1 X69.005 Y105.099 E14.10045
G1 X69 Y105.001 E14.1029
G1 X69 Y85.001 E14.6018
G1 X69.005 Y84.903 E14.60425
G1 X69.198 Y82.948 E14.65326
G1 X69.236 Y82.756 E14.65814
G1 X69.803 Y80.884 E14.70693
G1 X69.878 Y80.702 E14.71184
G1 X70.803 Y78.974 E14.76073
G1 X70.912 Y78.812 E14.76561
G1 X72.155 Y77.296 E14.81451
G1 X72.294 Y77.157 E14.81941
G0 F3600 X72.548 Y77.466
G1 F1800 X74.066 Y76.221 E14.86839
G1 X74.163 Y76.156 E14.8713
G1 X75.891 Y75.231 E14.92019
G1 X76 Y75.186 E14.92313
G1 X77.873 Y74.619 E14.97195
G1 X77.988 Y74.596 E14.97487
G1 X79.941 Y74.403 E15.02383
G1 X80.059 Y74.403 E15.02677
G1 X82.006 Y74.596 E15.07558
G1 X82.054 Y74.603 E15.07679
G1 X125.686 Y82.518 E16.18296
G1 X125.752 Y82.534 E16.18465
G1 X126.777 Y82.843 E16.21136
G1 X126.887 Y82.888 E16.21432
G1 X127.837 Y83.397 E16.24121
G1 X127.934 Y83.462 E16.24412
G1 X128.768 Y84.146 E16.27102
G1 X128.852 Y84.229 E16.27397
G1 X129.538 Y85.065 E16.30095
G1 X129.603 Y85.163 E16.30388
G1 X130.112 Y86.113 E16.33076
G1 X130.157 Y86.222 E16.33371
G1 X130.468 Y87.25 E16.3605
G1 X130.491 Y87.365 E16.36342
G1 X130.597 Y88.439 E16.39034
G1 X130.597 Y88.557 E16.39329
G1 X130.491 Y89.635 E16.42031
G1 X130.468 Y89.75 E16.42323
G1 X130.157 Y90.779 E16.45005
G1 X130.112 Y90.888 E16.45299
G1 X129.604 Y91.837 E16.47984
G1 X129.539 Y91.935 E16.48278
G1 X128.854 Y92.77 E16.50972
G1 X128.771 Y92.853 E16.51265
G1 X127.935 Y93.539 E16.53962
G1 X127.837 Y93.604 E16.54255
G1 X126.887 Y94.113 E16.56944
G1 X126.778 Y94.158 E16.57238
G1 X125.749 Y94.469 E16.5992
G1 X125.607 Y94.494 E16.60279
G1 X122.944 Y94.635 E16.66932
G1 X122.823 Y94.629 E16.67234
G1 X111.742 Y92.973 E16.95182
G1 X111.655 Y92.954 E16.95405
G1 X111.218 Y92.82 E16.96545
G1 X109.084 Y92.568 E17.01905
G1 X109.054 Y92.584 E17.0199
G1 X108.929 Y92.61 E17.02308
G1 X106.772 Y92.822 E17.07715
G1 X104.638 Y93.469 E17.13277
G1 X102.671 Y94.522 E17.18843
G1 X100.937 Y95.945 E17.24439
G1 X99.524 Y97.669 E17.29999
G1 X98.469 Y99.64 E17.35576
G1 X97.822 Y101.771 E17.41131
G1 X97.6 Y104.03 E17.46793
G1 X97.6 Y107.187 E17.54668
G1 X99.575 Y118.385 E17.83033
G1 X99.573 Y118.603 E17.83577
G1 X99.526 Y118.722 E17.83896
G1 X99.597 Y119.439 E17.85693
G1 X99.597 Y119.556 E17.85985
G1 X99.492 Y120.633 E17.88685
G1 X99.469 Y120.749 E17.8898
G1 X99.158 Y121.778 E17.91661
G1 X99.113 Y121.887 E17.91955
G1 X98.605 Y122.836 E17.9464
G1 X98.54 Y122.934 E17.94934
G1 X97.855 Y123.769 E17.97628
G1 X97.772 Y123.852 E17.97921
G1 X96.936 Y124.538 E18.00618
G1 X96.838 Y124.603 E18.00912
G1 X95.888 Y125.112 E18.036
G1 X95.779 Y125.157 E18.03894
G1 X94.75 Y125.468 E18.06576
G1 X94.635 Y125.491 E18.06868
G1 X93.559 Y125.597 E18.09566
G1 X93.441 Y125.597 E18.0986
G1 X92.366 Y125.491 E18.12554
G1 X92.251 Y125.468 E18.12847
G1 X91.222 Y125.157 E18.15529
G1 X91.112 Y125.112 E18.15825
G1 X90.169 Y124.606 E18.18495
G1 X90.118 Y124.575 E18.18643
G1 X74.111 Y113.812 E18.6676
G1 X74.066 Y113.778 E18.66901
G1 X72.548 Y112.534 E18.71797
G1 X72.464 Y112.45 E18.72093
G1 X71.22 Y110.933 E18.76987
G1 X71.155 Y110.836 E18.77278
G1 X70.231 Y109.109 E18.82164
G1 X70.186 Y109 E18.82458
G1 X69.619 Y107.127 E18.8734
G1 X69.596 Y107.012 E18.87632
G1 X69.403 Y105.06 E18.92525
G1 X69.4 Y105.001 E18.92673
G1 X69.4 Y85.001 E19.42563
G1 X69.403 Y84.942 E19.4271
G1 X69.596 Y82.987 E19.47611
G1 X69.619 Y82.872 E19.47903
G1 X70.186 Y81 E19.52782
G1 X70.231 Y80.891 E19.53077
G1 X71.156 Y79.163 E19.57966
G1 X71.221 Y79.066 E19.58257
G1 X72.464 Y77.55 E19.63147
G1 X72.548 Y77.466 E19.63444
G0 F3600 X72.801 Y77.775
G1 F1800 X74.319 Y76.53 E19.68341
G1 X74.352 Y76.509 E19.68439
G1 X76.08 Y75.584 E19.73328
G1 X76.116 Y75.569 E19.73425
G1 X77.989 Y75.002 E19.78307
G1 X78.027 Y74.994 E19.78404
G1 X79.98 Y74.801 E19.83299
G1 X80.02 Y74.801 E19.83399
G1 X81.967 Y74.994 E19.8828
G1 X81.983 Y74.996 E19.8832
G1 X125.615 Y82.911 E20.98937
G1 X125.637 Y82.917 E20.98993
G1 X126.662 Y83.226 E21.01664
G1 X126.698 Y83.241 E21.01761
G1 X127.648 Y83.75 E21.0445
G1 X127.681 Y83.771 E21.04547
G1 X128.515 Y84.455 E21.07238
G1 X128.543 Y84.483 E21.07337
G1 X129.229 Y85.319 E21.10034
G1 X129.25 Y85.352 E21.10132
G1 X129.759 Y86.302 E21.1282
G1 X129.774 Y86.338 E21.12918
G1 X130.085 Y87.366 E21.15597
G1 X130.093 Y87.404 E21.15694
G1 X130.199 Y88.478 E21.18386
G1 X130.199 Y88.518 E21.18486
G1 X130.093 Y89.596 E21.21188
G1 X130.085 Y89.634 E21.21285
G1 X129.774 Y90.663 E21.23966
G1 X129.759 Y90.699 E21.24063
G1 X129.251 Y91.648 E21.26749
G1 X129.23 Y91.681 E21.26846
G1 X128.545 Y92.516 E21.2954
G1 X128.517 Y92.544 E21.29639
G1 X127.681 Y93.23 E21.32337
G1 X127.648 Y93.251 E21.32434
G1 X126.698 Y93.76 E21.35123
G1 X126.662 Y93.775 E21.3522
G1 X125.633 Y94.086 E21.37902
G1 X125.586 Y94.095 E21.38021
G1 X122.923 Y94.236 E21.44673
G1 X122.882 Y94.234 E21.44775
G1 X111.801 Y92.578 E21.72724
G1 X111.772 Y92.571 E21.72799
G1 X111.305 Y92.428 E21.74017
G1 X109.009 Y92.157 E21.79784
G1 X108.89 Y92.212 E21.80111
G1 X106.692 Y92.428 E21.8562
G1 X104.483 Y93.097 E21.91378
G1 X102.449 Y94.187 E21.97134
G1 X100.655 Y95.658 E22.02922
G1 X99.187 Y97.45 E22.087
G1 X98.097 Y99.484 E22.14457
G1 X97.428 Y101.691 E22.20209
G1 X97.2 Y104.011 E22.26025
G1 X97.2 Y107.222 E22.34034
G1 X99.181 Y118.454 E22.62485
G1 X99.163 Y118.578 E22.62798
G1 X99.114 Y118.615 E22.62951
G1 X99.199 Y119.478 E22.65114
G1 X99.199 Y119.517 E22.65211
G1 X99.094 Y120.594 E22.67911
G1 X99.086 Y120.633 E22.6801
G1 X98.775 Y121.662 E22.70692
G1 X98.76 Y121.698 E22.70789
G1 X98.252 Y122.647 E22.73474
G1 X98.231 Y122.68 E22.73572
G1 X97.546 Y123.515 E22.76266
G1 X97.518 Y123.543 E22.76364
G1 X96.682 Y124.229 E22.79062
G1 X96.649 Y124.25 E22.7916
G1 X95.699 Y124.759 E22.81848
G1 X95.663 Y124.774 E22.81945
G1 X94.634 Y125.085 E22.84627
G1 X94.596 Y125.093 E22.84724
G1 X93.52 Y125.199 E22.87421
G1 X93.48 Y125.199 E22.87521
G1 X92.405 Y125.093 E22.90215
G1 X92.367 Y125.085 E22.90312
G1 X91.338 Y124.774 E22.92994
G1 X91.301 Y124.759 E22.93093
G1 X90.358 Y124.253 E22.95763
G1 X90.341 Y124.243 E22.95812
G1 X74.334 Y113.48 E23.43929
G1 X74.319 Y113.469 E23.43975
G1 X72.801 Y112.225 E23.48871
G1 X72.773 Y112.197 E23.4897
G1 X71.529 Y110.68 E23.53863
G1 X71.508 Y110.647 E23.53961
G1 X70.584 Y108.92 E23.58847
G1 X70.569 Y108.884 E23.58944
G1 X70.002 Y107.011 E23.63826
G1 X69.994 Y106.973 E23.63923
G1 X69.801 Y105.021 E23.68816
G1 X69.8 Y105.001 E23.68866
G1 X69.8 Y85.001 E24.18756
G1 X69.801 Y84.981 E24.18806
G1 X69.994 Y83.026 E24.23706
G1 X70.002 Y82.988 E24.23803
G1 X70.569 Y81.116 E24.28682
G1 X70.584 Y81.08 E24.2878
G1 X71.509 Y79.352 E24.33669
G1 X71.53 Y79.319 E24.33766
G1 X72.773 Y77.803 E24.38657
