; generated by Slic3r 1.2.9 on 2017-02-06 at 14:44:59

; external perimeters extrusion width = 0.60mm
; perimeters extrusion width = 0.67mm
; infill extrusion width = 0.67mm
; solid infill extrusion width = 0.67mm
; top infill extrusion width = 0.67mm
; support material extrusion width = 0.40mm

M107
M190 S65 ; set bed temperature
M104 S205 ; set temperature
G28 ; home all axes
G1 Z5 F5000 ; lift nozzle
M92 X80
M92 Y80
M92 Z2565

M109 S205 ; wait for temperature to be reached
G21 ; set units to millimeters
G90 ; use absolute coordinates
M82 ; use absolute distances for extrusion
G92 E0
G1 Z0.350 F7800.000
G1 E-0.80000 F2400.00000
G92 E0
G1 X82.327 Y76.464 F7800.000
G1 E0.80000 F2400.00000
G1 X85.305 Y74.676 E1.11580 F1800.000
G1 X86.978 Y74.213 E1.27363
G1 X112.307 Y74.217 E3.57685
G1 X113.670 Y74.287 E3.70095 F1800.000
G1 X115.346 Y74.855 E3.86188
G1 X117.842 Y76.573 E4.13739
G1 X118.972 Y77.934 E4.29822
G1 X120.676 Y81.783 E4.68093
G1 X120.954 Y83.099 E4.80321
G1 X120.954 Y116.569 E7.84669
G1 X120.713 Y117.796 E7.96034
G1 X119.009 Y121.977 E8.37086
G1 X117.801 Y123.455 E8.54451
G1 X115.115 Y125.243 E8.83784
G1 X113.315 Y125.787 E9.00891
G1 X86.753 Y125.787 E11.42413
G1 X84.984 Y125.263 E11.59195
G1 X82.230 Y123.476 E11.89045
G1 X81.119 Y122.253 E12.04066
G1 X79.415 Y118.988 E12.37557
G1 X79.046 Y117.485 E12.51633
G1 X79.046 Y86.803 E15.30619
G1 X79.214 Y83.517 E15.60537
G1 X79.390 Y82.622 E15.68833
G1 X80.930 Y78.184 E16.11546
G1 X82.289 Y76.510 E16.31155
G1 X82.649 Y77.000 F7800.000
G1 X85.627 Y75.212 E16.62734 F1800.000
G1 X86.978 Y74.838 E16.75483
G1 X112.275 Y74.841 E19.05514
G1 X113.638 Y74.911 E19.17923 F1800.000
G1 X114.992 Y75.370 E19.30922
G1 X117.488 Y77.088 E19.58473
G1 X118.400 Y78.187 E19.71464
G1 X120.104 Y82.036 E20.09735
G1 X120.329 Y83.099 E20.19612
G1 X120.329 Y116.569 E23.23960
G1 X120.135 Y117.560 E23.33139
G1 X118.431 Y121.741 E23.74191
G1 X117.455 Y122.935 E23.88217
G1 X114.769 Y124.723 E24.17550
G1 X113.315 Y125.162 E24.31368
G1 X86.753 Y125.162 E26.72889
G1 X85.324 Y124.739 E26.86445
G1 X82.571 Y122.952 E27.16294
G1 X81.673 Y121.964 E27.28427
G1 X79.969 Y118.699 E27.61918
G1 X79.671 Y117.485 E27.73288
G1 X79.671 Y86.803 E30.52273
G1 X79.838 Y83.550 E30.81894
G1 X79.980 Y82.827 E30.88594
G1 X81.520 Y78.389 E31.31307
G1 X82.611 Y77.046 E31.47041
G1 E30.67041 F2400.00000
G92 E0
G1 X84.522 Y122.312 F7800.000
G1 E0.80000 F2400.00000
G1 X83.353 Y122.312 E0.90635 F1800.000
G1 X82.438 Y121.397 E1.02403
G1 X82.438 Y119.878 E1.16215
G1 X82.251 Y119.576 E1.19440
G1 X81.732 Y119.316 E1.24718
G1 X81.242 Y119.158 E1.29409
G1 X80.733 Y118.696 E1.35655
G1 X80.338 Y117.766 E1.44843
G1 X80.360 Y117.079 E1.51089
G1 X80.794 Y116.215 E1.59885
G1 X80.811 Y115.967 E1.62146
G1 X80.297 Y114.417 E1.76994
G1 X80.750 Y113.513 E1.86192
G1 X80.763 Y113.250 E1.88586
G1 X80.426 Y112.369 E1.97162
G1 X80.374 Y112.048 E2.00121
G1 X80.398 Y111.575 E2.04420
G1 X80.481 Y111.261 E2.07379
G1 X80.752 Y110.718 E2.12897
G1 X80.715 Y110.356 E2.16207
G1 X80.384 Y109.937 E2.21066
G1 X80.384 Y106.196 E2.55082
G1 X80.465 Y105.759 E2.59122
G1 X80.527 Y105.589 E2.60773
G1 X80.778 Y105.088 E2.65862
G1 X80.740 Y104.724 E2.69194
G1 X80.417 Y104.322 E2.73880
G1 X80.383 Y100.633 E3.07427
G1 X80.403 Y100.449 E3.09112
G1 X80.463 Y100.187 E3.11555
G1 X80.526 Y100.013 E3.13240
G1 X80.752 Y99.561 E3.17830
G1 X80.715 Y99.199 E3.21140
G1 X80.384 Y98.780 E3.25999
G1 X80.384 Y95.039 E3.60015
G1 X80.465 Y94.602 E3.64054
G1 X80.527 Y94.432 E3.65706
G1 X80.752 Y93.983 E3.70272
G1 X80.715 Y93.621 E3.73582
G1 X80.384 Y93.202 E3.78440
G1 X80.384 Y89.461 E4.12457
G1 X80.465 Y89.024 E4.16496
G1 X80.527 Y88.853 E4.18148
G1 X80.794 Y88.322 E4.23548
G1 X80.811 Y88.074 E4.25808
G1 X80.297 Y86.525 E4.40656
G1 X80.960 Y85.201 E4.54126
G1 X80.946 Y84.876 E4.57081
G1 X80.516 Y84.180 E4.64514
G1 X80.481 Y83.369 E4.71903
G1 X82.055 Y80.227 E5.03855
G1 X82.202 Y80.178 E5.05259
G1 X82.438 Y79.851 E5.08930
G1 X82.438 Y78.603 E5.20279
G1 X83.353 Y77.688 E5.32047
G1 X84.517 Y77.688 E5.42634
G1 X84.819 Y77.501 E5.45860
G1 X85.414 Y76.314 E5.57935
G1 X85.719 Y75.987 E5.62002
G1 X86.279 Y75.653 E5.67930
G1 X86.712 Y75.541 E5.71997
G1 X89.165 Y75.618 E5.94313
G1 X89.457 Y75.550 E5.97039
G1 X91.773 Y75.550 E6.18100
G1 X91.817 Y75.575 E6.18561
G1 X92.064 Y75.604 E6.20822
G1 X92.253 Y75.550 E6.22604
G1 X94.569 Y75.550 E6.43665
G1 X94.613 Y75.575 E6.44126
G1 X94.860 Y75.604 E6.46386
G1 X95.049 Y75.550 E6.48168
G1 X97.483 Y75.550 E6.70306
G1 X97.617 Y75.520 E6.71554
G1 X97.789 Y75.440 E6.73274
G1 X98.715 Y75.658 E6.81926
G1 X98.874 Y75.655 E6.83377
G1 X99.243 Y75.550 E6.86858
G1 X101.559 Y75.550 E7.07919
G1 X101.603 Y75.575 E7.08380
G1 X101.850 Y75.604 E7.10641
G1 X102.039 Y75.550 E7.12423
G1 X104.355 Y75.550 E7.33484
G1 X104.399 Y75.575 E7.33945
G1 X104.646 Y75.604 E7.36205
G1 X104.834 Y75.550 E7.37987
G1 X107.226 Y75.550 E7.59735
G1 X107.366 Y75.517 E7.61044
G1 X107.531 Y75.436 E7.62716
G1 X108.592 Y75.639 E7.72539
G1 X108.738 Y75.633 E7.73868
G1 X109.028 Y75.550 E7.76609
G1 X111.345 Y75.550 E7.97671
G1 X111.386 Y75.574 E7.98107
G1 X111.620 Y75.605 E8.00254
G1 X111.908 Y75.536 E8.02940
G1 X114.186 Y75.652 E8.23687
G1 X114.862 Y76.064 E8.30881
G1 X115.451 Y77.075 E8.41521
G1 X115.459 Y77.336 E8.43889
G1 X115.822 Y77.688 E8.48492
G1 X116.647 Y77.688 E8.55990
G1 X117.562 Y78.603 E8.67758
G1 X117.562 Y79.991 E8.80382
G1 X117.749 Y80.293 E8.83607
G1 X118.611 Y80.725 E8.92378
G1 X118.999 Y81.894 E9.03574
G1 X119.162 Y82.082 E9.05834
G1 X119.295 Y82.149 E9.07193
G1 X119.703 Y83.377 E9.18961
G1 X119.353 Y84.076 E9.26073
G1 X119.326 Y84.285 E9.27989
G1 X119.615 Y85.687 E9.41006
G1 X119.625 Y85.948 E9.43384
G1 X119.575 Y86.325 E9.46837
G1 X119.499 Y86.575 E9.49215
G1 X119.248 Y87.076 E9.54309
G1 X119.285 Y87.438 E9.57620
G1 X119.616 Y87.857 E9.62478
G1 X119.616 Y91.598 E9.96495
G1 X119.535 Y92.035 E10.00534
G1 X119.473 Y92.205 E10.02186
G1 X119.231 Y92.687 E10.07081
G1 X119.225 Y92.966 E10.09626
G1 X119.661 Y93.952 E10.19430
G1 X119.644 Y94.652 E10.25793
G1 X119.248 Y95.443 E10.33843
G1 X119.285 Y95.806 E10.37154
G1 X119.616 Y96.225 E10.42012
G1 X119.616 Y99.966 E10.76029
G1 X119.535 Y100.402 E10.80068
G1 X119.473 Y100.573 E10.81720
G1 X119.210 Y101.096 E10.87044
G1 X119.272 Y101.491 E10.90679
G1 X119.595 Y101.823 E10.94892
G1 X119.749 Y102.810 E11.03978
G1 X119.235 Y103.837 E11.14421
G1 X119.227 Y104.114 E11.16937
G1 X119.558 Y104.884 E11.24563
G1 X119.623 Y105.219 E11.27670
G1 X119.608 Y105.716 E11.32186
G1 X119.525 Y106.047 E11.35293
G1 X119.248 Y106.600 E11.40919
G1 X119.285 Y106.962 E11.44230
G1 X119.616 Y107.382 E11.49088
G1 X119.616 Y111.122 E11.83104
G1 X119.535 Y111.559 E11.87144
G1 X119.473 Y111.730 E11.88796
G1 X119.206 Y112.261 E11.94195
G1 X119.189 Y112.509 E11.96456
G1 X119.703 Y114.058 E12.11304
G1 X119.254 Y114.955 E12.20427
G1 X119.240 Y115.215 E12.22795
G1 X119.663 Y116.349 E12.33794
G1 X119.628 Y116.999 E12.39714
G1 X118.237 Y119.773 E12.67930
G1 X117.798 Y119.919 E12.72134
G1 X117.562 Y120.246 E12.75806
G1 X117.562 Y121.397 E12.86272
G1 X116.647 Y122.312 E12.98039
G1 X115.775 Y122.312 E13.05969
G1 X115.473 Y122.499 E13.09195
G1 X114.734 Y123.973 E13.24190
G1 X113.506 Y124.381 E13.35958
G1 X113.156 Y124.206 E13.39516
G1 X112.832 Y124.220 E13.42471
G1 X112.652 Y124.331 E13.44394
G1 X112.233 Y124.450 E13.48347
G1 X109.917 Y124.450 E13.69409
G1 X109.740 Y124.351 E13.71259
G1 X109.478 Y124.326 E13.73650
G1 X109.312 Y124.381 E13.75236
G1 X108.875 Y124.162 E13.79681
G1 X108.627 Y124.144 E13.81942
G1 X107.914 Y124.381 E13.88773
G1 X107.565 Y124.206 E13.92322
G1 X107.278 Y124.203 E13.94936
G1 X106.461 Y124.587 E14.03141
G1 X105.496 Y124.412 E14.12062
G1 X105.353 Y124.419 E14.13362
G1 X105.244 Y124.450 E14.14397
G1 X102.927 Y124.450 E14.35459
G1 X102.883 Y124.425 E14.35920
G1 X102.636 Y124.396 E14.38180
G1 X102.448 Y124.450 E14.39962
G1 X100.071 Y124.450 E14.61571
G1 X99.932 Y124.487 E14.62884
G1 X98.529 Y124.407 E14.75663
G1 X98.218 Y124.351 E14.78537
G1 X98.128 Y124.381 E14.79390
G1 X97.862 Y124.247 E14.82104
G1 X97.633 Y124.224 E14.84191
G1 X96.370 Y124.563 E14.96086
G1 X95.849 Y124.395 E15.01058
G1 X95.664 Y124.391 E15.02744
G1 X95.458 Y124.450 E15.04693
G1 X93.142 Y124.450 E15.25754
G1 X93.097 Y124.425 E15.26215
G1 X92.850 Y124.396 E15.28476
G1 X92.662 Y124.450 E15.30258
G1 X90.338 Y124.450 E15.51390
G1 X90.175 Y124.413 E15.52910
G1 X89.059 Y124.486 E15.63082
G1 X88.761 Y124.340 E15.66099
G1 X88.516 Y124.324 E15.68331
G1 X88.343 Y124.381 E15.69988
G1 X87.906 Y124.162 E15.74433
G1 X87.658 Y124.144 E15.76693
G1 X86.945 Y124.381 E15.83525
G1 X85.162 Y123.487 E16.01658
G1 X84.850 Y122.548 E16.10655
G1 X84.571 Y122.347 E16.13781
G1 X84.973 Y121.687 F7800.000
G1 X83.612 Y121.687 E16.26162 F1800.000
G1 X83.063 Y121.138 E16.33223
G1 X83.063 Y119.492 E16.48189
G1 X82.876 Y119.191 E16.51414
G1 X81.968 Y118.735 E16.60658
G1 X81.560 Y118.603 E16.64556
G1 X81.254 Y118.326 E16.68304
G1 X80.967 Y117.649 E16.74993
G1 X80.980 Y117.237 E16.78741
G1 X81.678 Y115.844 E16.92908
G1 X81.515 Y115.353 E16.97615
G1 X81.216 Y115.203 E17.00658
G1 X80.971 Y114.466 E17.07719
G1 X81.432 Y113.547 E17.17068
G1 X81.445 Y113.284 E17.19461
G1 X81.032 Y112.206 E17.29949
G1 X81.002 Y112.014 E17.31725
G1 X81.019 Y111.671 E17.34840
G1 X81.068 Y111.483 E17.36616
G1 X81.489 Y110.643 E17.45159
G1 X81.452 Y110.280 E17.48470
G1 X81.009 Y109.720 E17.54970
G1 X81.009 Y106.232 E17.86680
G1 X81.021 Y106.124 E17.87671
G1 X81.102 Y105.836 E17.90392
G1 X81.517 Y105.010 E17.98795
G1 X81.478 Y104.646 E18.02127
G1 X81.040 Y104.100 E18.08490
G1 X81.008 Y100.664 E18.39733
G1 X81.064 Y100.364 E18.42508
G1 X81.102 Y100.259 E18.43519
G1 X81.489 Y99.486 E18.51389
G1 X81.452 Y99.124 E18.54699
G1 X81.009 Y98.563 E18.61200
G1 X81.009 Y95.076 E18.92910
G1 X81.021 Y94.967 E18.93901
G1 X81.102 Y94.679 E18.96622
G1 X81.489 Y93.907 E19.04474
G1 X81.452 Y93.545 E19.07784
G1 X81.009 Y92.984 E19.14285
G1 X81.009 Y89.497 E19.45995
G1 X81.021 Y89.389 E19.46986
G1 X81.102 Y89.101 E19.49707
G1 X81.678 Y87.952 E19.61396
G1 X81.515 Y87.460 E19.66103
G1 X81.216 Y87.310 E19.69146
G1 X80.971 Y86.573 E19.76207
G1 X81.675 Y85.169 E19.90492
G1 X81.661 Y84.844 E19.93448
G1 X81.134 Y83.990 E20.02573
G1 X81.112 Y83.503 E20.07006
G1 X82.498 Y80.738 E20.35127
G1 X82.826 Y80.629 E20.38276
G1 X83.063 Y80.302 E20.41948
G1 X83.063 Y78.862 E20.55043
G1 X83.612 Y78.313 E20.62103
G1 X84.903 Y78.313 E20.73845
G1 X85.205 Y78.126 E20.77071
G1 X85.933 Y76.674 E20.91841
G1 X86.115 Y76.478 E20.94281
G1 X86.522 Y76.235 E20.98582
G1 X86.782 Y76.168 E21.01022
G1 X88.826 Y76.232 E21.19617
G1 X88.873 Y76.261 E21.20123
G1 X89.128 Y76.293 E21.22453
G1 X89.544 Y76.175 E21.26386
G1 X91.611 Y76.175 E21.45179
G1 X91.739 Y76.247 E21.46516
G1 X91.986 Y76.276 E21.48776
G1 X92.340 Y76.175 E21.52121
G1 X94.406 Y76.175 E21.70914
G1 X94.535 Y76.247 E21.72251
G1 X94.782 Y76.276 E21.74511
G1 X95.136 Y76.175 E21.77856
G1 X97.202 Y76.175 E21.96649
G1 X97.278 Y76.217 E21.97438
G1 X97.579 Y76.228 E22.00177
G1 X97.857 Y76.098 E22.02963
G1 X98.784 Y76.317 E22.11626
G1 X99.029 Y76.277 E22.13883
G1 X99.079 Y76.246 E22.14412
G1 X99.330 Y76.175 E22.16784
G1 X101.396 Y76.175 E22.35577
G1 X101.525 Y76.247 E22.36914
G1 X101.772 Y76.276 E22.39174
G1 X102.125 Y76.175 E22.42519
G1 X104.192 Y76.175 E22.61312
G1 X104.321 Y76.247 E22.62649
G1 X104.568 Y76.276 E22.64909
G1 X104.921 Y76.175 E22.68254
G1 X106.988 Y76.175 E22.87047
G1 X107.051 Y76.210 E22.87701
G1 X107.359 Y76.218 E22.90505
G1 X107.620 Y76.089 E22.93148
G1 X108.621 Y76.280 E23.02411
G1 X108.766 Y76.274 E23.03739
G1 X109.115 Y76.175 E23.07037
G1 X111.182 Y76.175 E23.25830
G1 X111.296 Y76.239 E23.27015
G1 X111.530 Y76.270 E23.29162
G1 X111.966 Y76.164 E23.33248
G1 X113.996 Y76.268 E23.51727
G1 X114.402 Y76.515 E23.56044
G1 X114.831 Y77.253 E23.63805
G1 X114.853 Y77.960 E23.70241
G1 X115.217 Y78.313 E23.74844
G1 X116.388 Y78.313 E23.85494
G1 X116.937 Y78.862 E23.92555
G1 X116.937 Y80.377 E24.06334
G1 X117.124 Y80.679 E24.09559
G1 X118.099 Y81.168 E24.19484
G1 X118.344 Y81.905 E24.26545
G1 X118.322 Y81.950 E24.27005
G1 X118.485 Y82.441 E24.31713
G1 X118.784 Y82.591 E24.34756
G1 X119.029 Y83.328 E24.41816
G1 X118.697 Y83.990 E24.48547
G1 X118.670 Y84.199 E24.50463
G1 X118.993 Y85.762 E24.64977
G1 X118.998 Y85.919 E24.66404
G1 X118.962 Y86.192 E24.68904
G1 X118.916 Y86.342 E24.70332
G1 X118.511 Y87.151 E24.78567
G1 X118.548 Y87.514 E24.81878
G1 X118.991 Y88.074 E24.88378
G1 X118.991 Y91.562 E25.20088
G1 X118.979 Y91.670 E25.21079
G1 X118.898 Y91.958 E25.23800
G1 X118.467 Y92.816 E25.32534
G1 X118.551 Y93.237 E25.36432
G1 X118.729 Y93.392 E25.38579
G1 X119.033 Y94.077 E25.45399
G1 X119.023 Y94.497 E25.49216
G1 X118.511 Y95.519 E25.59612
G1 X118.548 Y95.881 E25.62922
G1 X118.991 Y96.442 E25.69422
G1 X118.991 Y99.929 E26.01132
G1 X118.979 Y100.037 E26.02124
G1 X118.898 Y100.325 E26.04844
G1 X118.452 Y101.215 E26.13887
G1 X118.513 Y101.610 E26.17522
G1 X119.009 Y102.116 E26.23966
G1 X119.101 Y102.709 E26.29418
G1 X118.546 Y103.817 E26.40688
G1 X118.538 Y104.094 E26.43204
G1 X118.957 Y105.068 E26.52854
G1 X118.996 Y105.270 E26.54719
G1 X118.986 Y105.629 E26.57992
G1 X118.936 Y105.828 E26.59856
G1 X118.511 Y106.676 E26.68478
G1 X118.548 Y107.038 E26.71788
G1 X118.991 Y107.599 E26.78289
G1 X118.991 Y111.086 E27.09999
G1 X118.979 Y111.194 E27.10990
G1 X118.898 Y111.482 E27.13711
G1 X118.322 Y112.632 E27.25400
G1 X118.485 Y113.123 E27.30107
G1 X118.784 Y113.273 E27.33150
G1 X119.029 Y114.010 E27.40211
G1 X118.467 Y115.130 E27.51604
G1 X118.528 Y115.523 E27.55221
G1 X118.789 Y115.793 E27.58638
G1 X119.032 Y116.445 E27.64963
G1 X119.011 Y116.835 E27.68514
G1 X117.795 Y119.262 E27.93193
G1 X117.174 Y119.468 E27.99144
G1 X116.937 Y119.795 E28.02815
G1 X116.937 Y121.138 E28.15027
G1 X116.388 Y121.687 E28.22087
G1 X115.205 Y121.687 E28.32850
G1 X114.855 Y121.983 E28.37016
G1 X114.767 Y122.514 E28.41904
G1 X114.292 Y123.462 E28.51544
G1 X113.555 Y123.706 E28.58605
G1 X113.125 Y123.491 E28.62979
G1 X112.800 Y123.505 E28.65934
G1 X112.397 Y123.754 E28.70236
G1 X112.146 Y123.825 E28.72608
G1 X110.080 Y123.825 E28.91401
G1 X109.804 Y123.671 E28.94275
G1 X109.542 Y123.646 E28.96667
G1 X109.361 Y123.706 E28.98401
G1 X108.924 Y123.487 E29.02846
G1 X108.676 Y123.469 E29.05107
G1 X107.963 Y123.706 E29.11939
G1 X107.574 Y123.511 E29.15894
G1 X107.287 Y123.508 E29.18507
G1 X106.376 Y123.936 E29.27656
G1 X105.786 Y123.829 E29.33105
G1 X105.454 Y123.741 E29.36234
G1 X105.157 Y123.825 E29.39044
G1 X103.090 Y123.825 E29.57837
G1 X102.961 Y123.753 E29.59174
G1 X102.715 Y123.724 E29.61434
G1 X102.361 Y123.825 E29.64779
G1 X100.294 Y123.825 E29.83572
G1 X100.218 Y123.782 E29.84367
G1 X99.887 Y123.785 E29.87370
G1 X99.771 Y123.852 E29.88591
G1 X98.751 Y123.794 E29.97880
G1 X98.631 Y123.704 E29.99241
G1 X98.329 Y123.656 E30.02021
G1 X98.177 Y123.706 E30.03479
G1 X97.929 Y123.582 E30.06000
G1 X97.701 Y123.559 E30.08087
G1 X96.386 Y123.911 E30.20463
G1 X95.861 Y123.742 E30.25481
G1 X95.676 Y123.738 E30.27166
G1 X95.371 Y123.825 E30.30048
G1 X93.304 Y123.825 E30.48841
G1 X93.176 Y123.753 E30.50178
G1 X92.929 Y123.724 E30.52438
G1 X92.575 Y123.825 E30.55783
G1 X90.508 Y123.825 E30.74576
G1 X90.318 Y123.777 E30.76357
G1 X89.184 Y123.852 E30.86693
G1 X88.806 Y123.666 E30.90520
G1 X88.561 Y123.650 E30.92753
G1 X88.391 Y123.706 E30.94378
G1 X87.954 Y123.487 E30.98823
G1 X87.706 Y123.469 E31.01084
G1 X86.993 Y123.706 E31.07915
G1 X85.673 Y123.045 E31.21341
G1 X85.301 Y121.924 E31.32084
G1 X85.022 Y121.722 E31.35210
G1 E30.55210 F2400.00000
G92 E0
G1 X82.517 Y115.565 F7800.000
G1 E0.80000 F2400.00000
G1 X82.354 Y115.074 E0.84707 F1800.000
G1 X81.727 Y114.760 E0.91079
G1 X81.646 Y114.514 E0.93432
G1 X82.114 Y113.580 E1.02932
G1 X82.127 Y113.317 E1.05325
G1 X81.639 Y112.044 E1.17726
G1 X81.640 Y111.767 E1.20240
G1 X81.656 Y111.704 E1.20832
G1 X82.360 Y110.300 E1.35112
G1 X82.104 Y109.752 E1.40613
G1 X81.768 Y109.673 E1.43748
G1 X81.634 Y109.502 E1.45724
G1 X81.634 Y106.269 E1.75128
G1 X81.677 Y106.084 E1.76857
G1 X82.385 Y104.672 E1.91219
G1 X82.127 Y104.123 E1.96736
