; generated by Slic3r 1.2.9 on 2017-01-20 at 09:48:00

; external perimeters extrusion width = 0.40mm
; perimeters extrusion width = 0.48mm
; infill extrusion width = 0.48mm
; solid infill extrusion width = 0.48mm
; top infill extrusion width = 0.48mm
; support material extrusion width = 0.40mm

M107
M190 S65 ; set bed temperature
M104 S205 ; set temperature
G28 ; home all axes
G1 Z5 F5000 ; lift nozzle
M92 X80
M92 Y80
M92 Z2565

M109 S205 ; wait for temperature to be reached
G21 ; set units to millimeters
G90 ; use absolute coordinates
M82 ; use absolute distances for extrusion
G92 E0
G1 Z0.400 F7800.000
G1 E-0.80000 F2400.00000
G92 E0
G1 X25.105 Y13.892 F7800.000
G1 E0.80000 F2400.00000
G1 X25.283 Y13.570 E0.84374 F1800.000
G1 X26.865 Y12.316 E1.08346
G1 X29.207 Y11.752 E1.36953
G1 X182.103 Y11.752 E19.52831
G1 X184.082 Y12.148 E19.76802
G1 X185.757 Y13.275 E20.00774 F1800.000
G1 X186.868 Y14.960 E20.24746
G1 X187.233 Y16.536 E20.43956
G1 X188.861 Y40.014 E23.23464
G1 X188.861 Y126.082 E33.45654
G1 X187.236 Y153.413 E36.70818
G1 X186.722 Y155.365 E36.94789
G1 X185.497 Y156.969 E37.18761
G1 X183.749 Y157.977 E37.42733
G1 X182.205 Y158.247 E37.61352
G1 X95.925 Y159.959 E47.86253
G1 X51.088 Y159.960 E53.18760
G1 X11.672 Y158.243 E57.87324
G1 X9.712 Y157.761 E58.11296
G1 X8.089 Y156.562 E58.35268
G1 X7.052 Y154.830 E58.59239
G1 X6.754 Y153.104 E58.80048
G1 X6.760 Y140.556 E60.29067
G1 X6.798 Y139.927 E60.36548
G1 X7.324 Y135.679 E60.87391
G1 X21.434 Y24.646 E74.16680
G1 X21.635 Y23.736 E74.27749
G1 X24.306 Y15.336 E75.32435
G1 X25.076 Y13.945 E75.51319
G1 X25.732 Y14.252 F7800.000
G1 X25.918 Y13.929 E75.55744 F1800.000
G1 X27.437 Y12.835 E75.77971
G1 X29.207 Y12.466 E75.99447
G1 X182.103 Y12.466 E94.15325
G1 X183.932 Y12.862 E94.37552
G1 X185.435 Y13.977 E94.59779 F1800.000
G1 X186.342 Y15.614 E94.82007
G1 X186.521 Y16.586 E94.93737
G1 X188.147 Y40.014 E97.72654
G1 X188.147 Y126.082 E107.94844
G1 X186.523 Y153.370 E111.19502
G1 X186.019 Y155.172 E111.41729
G1 X184.816 Y156.606 E111.63956
G1 X183.127 Y157.414 E111.86184
G1 X182.190 Y157.533 E111.97403
G1 X95.823 Y159.246 E122.23347
G1 X51.088 Y159.246 E127.54642
G1 X11.704 Y157.530 E132.22836
G1 X9.893 Y157.055 E132.45064
G1 X8.441 Y155.875 E132.67291
G1 X7.606 Y154.200 E132.89519
G1 X7.469 Y153.104 E133.02635
G1 X7.474 Y140.556 E134.51654
G1 X7.507 Y140.015 E134.58096
G1 X8.032 Y135.769 E135.08910
G1 X22.142 Y24.736 E148.38199
G1 X22.315 Y23.952 E148.47730
G1 X24.987 Y15.552 E149.52416
G1 X25.703 Y14.304 E149.69506
G1 X26.354 Y14.625 F7800.000
G1 X26.548 Y14.301 E149.73996 F1800.000
G1 X27.994 Y13.384 E149.94330
G1 X29.207 Y13.180 E150.08934
G1 X182.103 Y13.180 E168.24812
G1 X183.769 Y13.575 E168.45146
G1 X185.081 Y14.675 E168.65479 F1800.000
G1 X185.808 Y16.635 E168.90315
G1 X187.433 Y40.014 E171.68640
G1 X187.433 Y126.082 E181.90830
G1 X185.810 Y153.327 E185.14982
G1 X185.317 Y154.967 E185.35316
G1 X184.140 Y156.211 E185.55650
G1 X182.176 Y156.819 E185.80070
G1 X95.823 Y158.531 E196.05846
G1 X50.926 Y158.528 E201.39066
G1 X11.735 Y156.816 E206.04966
G1 X10.088 Y156.349 E206.25300
G1 X8.825 Y155.193 E206.45633
G1 X8.183 Y153.104 E206.71590
G1 X8.188 Y140.557 E208.20609
G1 X8.216 Y140.103 E208.26012
G1 X8.739 Y135.872 E208.76646
G1 X22.851 Y24.826 E222.06085
G1 X22.996 Y24.169 E222.14080
G1 X25.667 Y15.769 E223.18766
G1 X26.323 Y14.676 E223.33898
G1 E222.53898 F2400.00000
G92 E0
G1 X27.358 Y22.943 F7800.000
G1 E0.80000 F2400.00000
G1 X28.195 Y16.358 E1.58838 F1800.000
G1 X28.802 Y15.823 E1.68448
G1 X38.108 Y15.823 E2.78974
G1 X38.748 Y16.548 E2.90455
G1 X37.744 Y24.572 E3.86502
G1 X37.958 Y24.973 E3.91893
G1 X38.650 Y25.320 E4.01094
G1 X38.930 Y26.162 E4.11634
G1 X38.648 Y26.724 E4.19102
G1 X38.663 Y27.092 E4.23468
G1 X39.131 Y27.868 E4.34238
G1 X39.209 Y28.128 E4.37460
G1 X39.228 Y28.605 E4.43127
G1 X39.171 Y28.870 E4.46350
G1 X37.972 Y31.260 E4.78109
G1 X38.159 Y31.822 E4.85136
G1 X38.501 Y31.993 E4.89678
G1 X38.781 Y32.835 E5.00218
G1 X37.617 Y35.157 E5.31056
G1 X37.644 Y35.546 E5.35685
G1 X38.091 Y36.198 E5.45083
G1 X38.185 Y36.470 E5.48492
G1 X38.220 Y36.974 E5.54494
G1 X38.163 Y37.255 E5.57903
G1 X36.909 Y39.758 E5.91154
G1 X37.095 Y40.320 E5.98181
G1 X37.437 Y40.491 E6.02723
G1 X37.717 Y41.333 E6.13263
G1 X36.553 Y43.654 E6.44101
G1 X36.580 Y44.043 E6.48729
G1 X37.027 Y44.696 E6.58128
G1 X37.122 Y44.967 E6.61537
G1 X37.156 Y45.471 E6.67539
G1 X37.100 Y45.753 E6.70948
G1 X36.022 Y47.903 E6.99517
G1 X36.048 Y48.292 E7.04145
G1 X36.496 Y48.945 E7.13544
G1 X36.590 Y49.216 E7.16953
G1 X36.624 Y49.720 E7.22954
G1 X36.568 Y50.001 E7.26363
G1 X35.490 Y52.152 E7.54932
G1 X35.516 Y52.541 E7.59561
G1 X35.964 Y53.194 E7.68959
G1 X36.058 Y53.465 E7.72368
G1 X36.092 Y53.969 E7.78370
G1 X36.036 Y54.250 E7.81779
G1 X34.958 Y56.401 E8.10348
G1 X34.985 Y56.790 E8.14976
G1 X35.432 Y57.442 E8.24375
G1 X35.526 Y57.713 E8.27784
G1 X35.561 Y58.218 E8.33786
G1 X35.504 Y58.499 E8.37195
G1 X34.250 Y61.002 E8.70446
G1 X34.436 Y61.563 E8.77473
G1 X34.778 Y61.735 E8.82015
G1 X35.058 Y62.577 E8.92555
G1 X33.894 Y64.898 E9.23393
G1 X33.921 Y65.287 E9.28021
G1 X34.368 Y65.940 E9.37420
G1 X34.463 Y66.211 E9.40829
G1 X34.497 Y66.715 E9.46830
G1 X34.440 Y66.997 E9.50239
G1 X33.180 Y69.511 E9.83644
G1 X33.367 Y70.073 E9.90671
G1 X33.709 Y70.244 E9.95213
G1 X33.988 Y71.086 E10.05753
G1 X32.598 Y73.860 E10.42599
G1 X33.017 Y74.538 E10.52062
G1 X108.386 Y74.538 E19.47186
G1 X108.804 Y74.119 E19.54212
G1 X108.804 Y16.451 E26.39115
G1 X109.432 Y15.823 E26.49655
G1 X112.426 Y15.823 E26.85209
G1 X113.053 Y16.451 E26.95749
G1 X113.053 Y74.152 E33.81038
G1 X113.461 Y74.568 E33.87961
G1 X122.035 Y74.747 E34.89814
G1 X122.647 Y75.372 E35.00199
G1 X122.647 Y132.318 E41.76525
G1 X123.066 Y132.737 E41.83555
G1 X125.882 Y132.734 E42.17003
G1 X155.996 Y131.876 E45.74792
G1 X172.130 Y131.876 E47.66411
G1 X172.548 Y131.458 E47.73434
G1 X172.549 Y130.131 E47.89190
G1 X172.336 Y129.786 E47.94008
G1 X171.534 Y129.384 E48.04666
G1 X171.233 Y128.478 E48.16002
G1 X171.118 Y128.312 E48.18399
G1 X170.823 Y128.068 E48.22951
G1 X170.634 Y127.757 E48.27276
G1 X170.500 Y127.127 E48.34927
G1 X170.546 Y126.765 E48.39252
G1 X171.153 Y125.556 E48.55318
G1 X171.048 Y125.066 E48.61270
G1 X170.825 Y124.883 E48.64697
G1 X170.635 Y124.572 E48.69031
G1 X170.500 Y123.940 E48.76699
G1 X170.546 Y123.578 E48.81033
G1 X171.372 Y121.932 E49.02910
G1 X171.185 Y121.370 E49.09936
G1 X170.843 Y121.199 E49.14478
G1 X170.563 Y120.357 E49.25018
G1 X171.153 Y119.181 E49.40637
G1 X171.047 Y118.690 E49.46598
G1 X170.826 Y118.510 E49.49988
G1 X170.635 Y118.198 E49.54329
G1 X170.500 Y117.566 E49.62007
G1 X170.546 Y117.203 E49.66348
G1 X171.336 Y115.626 E49.87298
G1 X172.288 Y115.310 E49.99209
G1 X172.558 Y114.936 E50.04687
G1 X172.594 Y55.517 E57.10380
G1 X172.176 Y55.098 E57.17410
G1 X141.523 Y55.098 E60.81462
G1 X140.895 Y54.471 E60.92001
G1 X140.895 Y16.451 E65.43549
G1 X141.523 Y15.823 E65.54089
G1 X144.029 Y15.823 E65.83859
G1 X144.657 Y16.451 E65.94399
G1 X144.657 Y18.084 E66.13793
G1 X145.075 Y18.502 E66.20820
G1 X172.198 Y18.502 E69.42943
G1 X172.616 Y18.084 E69.49969
G1 X172.616 Y16.451 E69.69364
G1 X173.244 Y15.823 E69.79903
G1 X182.547 Y15.823 E70.90390
G1 X183.174 Y16.451 E71.00930
G1 X183.174 Y38.305 E73.60480
G1 X183.387 Y38.650 E73.65295
G1 X184.953 Y39.434 E73.86095
G1 X185.233 Y40.277 E73.96634
G1 X184.572 Y41.595 E74.14146
G1 X184.676 Y42.084 E74.20088
G1 X184.902 Y42.270 E74.23557
G1 X185.091 Y42.581 E74.27885
G1 X185.225 Y43.211 E74.35540
G1 X185.178 Y43.573 E74.39867
G1 X184.572 Y44.782 E74.55936
G1 X184.676 Y45.272 E74.61878
G1 X184.902 Y45.457 E74.65347
G1 X185.091 Y45.769 E74.69674
G1 X185.225 Y46.399 E74.77329
G1 X185.178 Y46.760 E74.81657
G1 X184.572 Y47.970 E74.97726
G1 X184.676 Y48.459 E75.03668
G1 X184.902 Y48.645 E75.07137
G1 X185.091 Y48.956 E75.11464
G1 X185.225 Y49.587 E75.19119
G1 X185.178 Y49.948 E75.23446
G1 X184.140 Y52.020 E75.50974
G1 X183.444 Y52.251 E75.59679
G1 X183.174 Y52.626 E75.65160
G1 X183.174 Y115.014 E83.06116
G1 X183.387 Y115.359 E83.10930
G1 X184.871 Y116.103 E83.30644
G1 X185.151 Y116.945 E83.41183
G1 X184.572 Y118.099 E83.56519
G1 X184.676 Y118.589 E83.62462
G1 X184.901 Y118.774 E83.65923
G1 X185.091 Y119.085 E83.70251
G1 X185.225 Y119.716 E83.77909
G1 X185.178 Y120.077 E83.82238
G1 X184.572 Y121.287 E83.98312
G1 X184.676 Y121.777 E84.04255
G1 X184.901 Y121.962 E84.07718
G1 X185.091 Y122.273 E84.12046
G1 X185.225 Y122.904 E84.19703
G1 X185.178 Y123.265 E84.24031
G1 X184.572 Y124.475 E84.40104
G1 X184.676 Y124.964 E84.46047
G1 X184.901 Y125.150 E84.49513
G1 X185.091 Y125.461 E84.53841
G1 X185.225 Y126.092 E84.61497
G1 X185.178 Y126.453 E84.65824
G1 X183.703 Y129.396 E85.04921
G1 X183.444 Y129.482 E85.08165
G1 X183.174 Y129.856 E85.13645
G1 X183.174 Y153.549 E87.95036
G1 X182.546 Y154.177 E88.05576
G1 X173.359 Y154.177 E89.14690
G1 X172.731 Y153.549 E89.25230
G1 X172.731 Y142.195 E90.60077
G1 X172.313 Y141.777 E90.67104
G1 X127.392 Y141.777 E96.00607
G1 X126.974 Y142.195 E96.07634
G1 X126.974 Y153.549 E97.42482
G1 X126.346 Y154.177 E97.53021
G1 X98.028 Y154.177 E100.89345
G1 X97.683 Y154.390 E100.94160
G1 X96.940 Y155.873 E101.13864
G1 X96.097 Y156.153 E101.24404
G1 X95.606 Y155.907 E101.30933
G1 X95.235 Y155.923 E101.35345
G1 X94.775 Y156.207 E101.41765
G1 X94.488 Y156.288 E101.45306
G1 X92.126 Y156.288 E101.73358
G1 X91.979 Y156.207 E101.75354
G1 X91.697 Y156.174 E101.78728
G1 X91.293 Y156.288 E101.83721
G1 X88.931 Y156.288 E102.11773
G1 X88.784 Y156.207 E102.13769
G1 X88.502 Y156.174 E102.17143
G1 X88.097 Y156.288 E102.22136
G1 X85.735 Y156.288 E102.50188
G1 X85.589 Y156.207 E102.52184
G1 X85.306 Y156.174 E102.55558
G1 X84.902 Y156.288 E102.60551
G1 X82.540 Y156.288 E102.88603
G1 X82.393 Y156.207 E102.90599
G1 X82.111 Y156.174 E102.93973
G1 X81.707 Y156.288 E102.98966
G1 X79.345 Y156.288 E103.27018
G1 X79.198 Y156.207 E103.29014
G1 X78.916 Y156.174 E103.32388
G1 X78.511 Y156.288 E103.37381
G1 X76.149 Y156.288 E103.65433
G1 X76.003 Y156.207 E103.67429
G1 X75.720 Y156.174 E103.70803
G1 X75.316 Y156.288 E103.75796
G1 X72.954 Y156.288 E104.03848
G1 X72.807 Y156.207 E104.05844
G1 X72.525 Y156.174 E104.09218
G1 X72.121 Y156.288 E104.14211
G1 X69.759 Y156.288 E104.42263
G1 X69.612 Y156.207 E104.44259
G1 X69.330 Y156.174 E104.47633
G1 X68.925 Y156.288 E104.52626
G1 X66.563 Y156.288 E104.80678
G1 X66.416 Y156.207 E104.82674
G1 X66.134 Y156.174 E104.86048
G1 X65.730 Y156.288 E104.91041
G1 X63.368 Y156.288 E105.19093
G1 X63.221 Y156.207 E105.21089
G1 X62.939 Y156.174 E105.24463
G1 X62.534 Y156.288 E105.29456
G1 X60.172 Y156.288 E105.57508
G1 X60.026 Y156.207 E105.59503
G1 X59.744 Y156.174 E105.62878
G1 X59.339 Y156.288 E105.67870
G1 X56.977 Y156.288 E105.95923
G1 X56.830 Y156.207 E105.97918
G1 X56.548 Y156.174 E106.01293
G1 X56.144 Y156.288 E106.06285
G1 X53.782 Y156.288 E106.34338
G1 X53.635 Y156.207 E106.36333
G1 X53.353 Y156.174 E106.39708
G1 X52.948 Y156.288 E106.44700
G1 X50.586 Y156.288 E106.72753
G1 X50.100 Y156.017 E106.79370
G1 X49.573 Y155.163 E106.91288
G1 X49.547 Y154.573 E106.98302
G1 X49.132 Y154.177 E107.05109
G1 X11.413 Y154.177 E111.53085
G1 X10.773 Y153.451 E111.64580
G1 X12.203 Y142.201 E112.99259
G1 X11.989 Y141.800 E113.04658
G1 X10.668 Y141.138 E113.22207
G1 X10.388 Y140.296 E113.32747
G1 X11.541 Y137.995 E113.63317
G1 X11.516 Y137.608 E113.67923
G1 X11.066 Y136.945 E113.77435
G1 X10.974 Y136.675 E113.80828
G1 X10.941 Y136.173 E113.86801
G1 X10.997 Y135.893 E113.90194
G1 X12.084 Y133.724 E114.19003
G1 X12.059 Y133.337 E114.23609
G1 X11.609 Y132.674 E114.33121
G1 X11.516 Y132.404 E114.36514
G1 X11.483 Y131.902 E114.42487
G1 X11.540 Y131.622 E114.45880
G1 X12.627 Y129.454 E114.74688
G1 X12.601 Y129.067 E114.79294
G1 X12.152 Y128.404 E114.88806
G1 X12.059 Y128.134 E114.92199
G1 X12.026 Y127.632 E114.98172
G1 X12.083 Y127.352 E115.01566
G1 X13.617 Y124.290 E115.42247
G1 X14.286 Y124.067 E115.50614
G1 X14.548 Y123.749 E115.55508
G1 X17.924 Y97.179 E118.73602
G1 X17.710 Y96.778 E118.79001
G1 X17.082 Y96.463 E118.87346
G1 X16.802 Y95.621 E118.97886
G1 X17.173 Y94.882 E119.07709
G1 X17.205 Y94.646 E119.10539
G1 X16.843 Y92.831 E119.32513
G1 X16.838 Y92.654 E119.34621
G1 X16.879 Y92.345 E119.38315
G1 X16.931 Y92.176 E119.40423
G1 X17.689 Y90.664 E119.60504
G1 X17.502 Y90.103 E119.67530
G1 X17.161 Y89.932 E119.72072
G1 X16.881 Y89.089 E119.82612
G1 X18.054 Y86.749 E120.13703
G1 X18.028 Y86.362 E120.18309
G1 X17.579 Y85.699 E120.27821
G1 X17.486 Y85.429 E120.31214
G1 X17.453 Y84.927 E120.37187
G1 X17.509 Y84.647 E120.40580
G1 X19.282 Y81.110 E120.87572
G1 X19.765 Y80.949 E120.93617
G1 X20.027 Y80.631 E120.98511
G1 X21.127 Y71.978 E122.02106
G1 X20.913 Y71.577 E122.07505
G1 X20.159 Y71.199 E122.17524
G1 X19.879 Y70.357 E122.28064
G1 X20.225 Y69.667 E122.37225
G1 X20.199 Y69.280 E122.41831
G1 X19.750 Y68.617 E122.51344
G1 X19.657 Y68.347 E122.54737
G1 X19.624 Y67.845 E122.60710
G1 X19.680 Y67.565 E122.64103
G1 X20.767 Y65.396 E122.92911
G1 X20.742 Y65.010 E122.97517
G1 X20.292 Y64.347 E123.07030
G1 X20.199 Y64.076 E123.10423
G1 X20.166 Y63.575 E123.16396
G1 X20.223 Y63.295 E123.19789
G1 X21.488 Y60.771 E123.53315
G1 X21.301 Y60.209 E123.60341
G1 X20.959 Y60.038 E123.64884
G1 X20.680 Y59.196 E123.75423
G1 X21.853 Y56.855 E124.06515
G1 X21.827 Y56.469 E124.11121
G1 X21.378 Y55.806 E124.20634
G1 X21.285 Y55.535 E124.24027
G1 X21.252 Y55.034 E124.30000
G1 X21.308 Y54.754 E124.33393
G1 X22.723 Y51.932 E124.70881
G1 X22.536 Y51.370 E124.77908
G1 X22.194 Y51.199 E124.82450
G1 X21.915 Y50.357 E124.92990
G1 X22.938 Y48.314 E125.20119
G1 X22.913 Y47.928 E125.24724
G1 X22.463 Y47.264 E125.34239
G1 X22.370 Y46.994 E125.37632
G1 X22.337 Y46.492 E125.43604
G1 X22.394 Y46.212 E125.46997
G1 X23.481 Y44.044 E125.75805
G1 X23.455 Y43.657 E125.80410
G1 X23.006 Y42.994 E125.89925
G1 X22.913 Y42.724 E125.93318
G1 X22.880 Y42.222 E125.99290
G1 X22.937 Y41.942 E126.02683
G1 X24.023 Y39.774 E126.31490
G1 X23.998 Y39.387 E126.36096
G1 X23.548 Y38.723 E126.45611
G1 X23.456 Y38.453 E126.49004
G1 X23.423 Y37.951 E126.54976
G1 X23.479 Y37.671 E126.58369
G1 X24.566 Y35.503 E126.87176
G1 X24.541 Y35.116 E126.91781
G1 X24.091 Y34.453 E127.01297
G1 X23.998 Y34.183 E127.04690
G1 X23.965 Y33.681 E127.10662
G1 X24.022 Y33.401 E127.14055
G1 X25.109 Y31.233 E127.42862
G1 X25.083 Y30.846 E127.47467
G1 X24.634 Y30.182 E127.56983
G1 X24.541 Y29.912 E127.60376
G1 X24.508 Y29.410 E127.66348
G1 X24.565 Y29.130 E127.69740
G1 X25.652 Y26.962 E127.98547
G1 X25.626 Y26.575 E128.03152
G1 X25.177 Y25.912 E128.12669
G1 X25.084 Y25.642 E128.16062
G1 X25.051 Y25.140 E128.22033
G1 X25.108 Y24.860 E128.25426
G1 X25.776 Y23.526 E128.43143
G1 X26.618 Y23.246 E128.53683
G1 X26.706 Y23.291 E128.54856
G1 X27.305 Y22.971 E128.62915
G1 E127.82915 F2400.00000
G92 E0
G1 X21.899 Y71.566 F7800.000
G1 E0.80000 F2400.00000
G1 X21.685 Y71.165 E0.85399 F1800.000
G1 X20.743 Y70.693 E0.97913
G1 X20.650 Y70.412 E1.01426
G1 X21.051 Y69.613 E1.12046
G1 X21.025 Y69.226 E1.16652
G1 X20.394 Y68.295 E1.30007
G1 X20.363 Y68.205 E1.31138
G1 X20.343 Y67.893 E1.34849
G1 X20.361 Y67.800 E1.35980
G1 X21.593 Y65.342 E1.68630
G1 X21.568 Y64.955 E1.73236
G1 X20.937 Y64.025 E1.86590
G1 X20.906 Y63.935 E1.87721
G1 X20.885 Y63.623 E1.91432
G1 X20.904 Y63.529 E1.92563
G1 X22.446 Y60.452 E2.33439
G1 X22.260 Y59.891 E2.40466
G1 X21.544 Y59.532 E2.49977
G1 X21.451 Y59.251 E2.53490
G1 X22.679 Y56.801 E2.86041
G1 X22.653 Y56.414 E2.90647
G1 X22.022 Y55.484 E3.04001
G1 X21.991 Y55.393 E3.05132
G1 X21.971 Y55.082 E3.08843
G1 X21.990 Y54.988 E3.09974
G1 X23.681 Y51.613 E3.54813
G1 X23.495 Y51.052 E3.61840
G1 X22.779 Y50.693 E3.71350
G1 X22.686 Y50.412 E3.74864
G1 X23.764 Y48.260 E4.03452
G1 X23.739 Y47.873 E4.08057
G1 X23.108 Y46.942 E4.21413
G1 X23.077 Y46.852 E4.22544
G1 X23.056 Y46.541 E4.26254
G1 X23.075 Y46.447 E4.27385
G1 X24.307 Y43.990 E4.60034
G1 X24.281 Y43.603 E4.64640
G1 X23.650 Y42.672 E4.77996
G1 X23.619 Y42.582 E4.79127
G1 X23.599 Y42.270 E4.82837
G1 X23.618 Y42.177 E4.83968
G1 X24.850 Y39.719 E5.16616
G1 X24.824 Y39.332 E5.21222
G1 X24.193 Y38.401 E5.34578
