; generated by Slic3r 1.2.9 on 2017-01-23 at 17:05:20

; external perimeters extrusion width = 0.40mm
; perimeters extrusion width = 0.67mm
; infill extrusion width = 0.67mm
; solid infill extrusion width = 0.67mm
; top infill extrusion width = 0.67mm
; support material extrusion width = 0.40mm

M107
M190 S65 ; set bed temperature
M104 S205 ; set temperature
G28 ; home all axes
G1 Z5 F5000 ; lift nozzle
M92 X80
M92 Y80
M92 Z2565

M109 S205 ; wait for temperature to be reached
G21 ; set units to millimeters
G90 ; use absolute coordinates
M82 ; use absolute distances for extrusion
G92 E0
G1 Z0.350 F7800.000
G1 E-0.80000 F2400.00000
G92 E0
G1 X69.164 Y63.346 F7800.000
G1 E0.80000 F2400.00000
G1 X69.276 Y63.223 E0.81516 F1800.000
G1 X70.654 Y62.833 E0.94532
G1 X76.472 Y62.833 E1.47438
G1 X77.852 Y63.225 E1.60489
G1 X78.643 Y63.982 E1.70441 F1800.000
G1 X99.153 Y94.163 E5.02248
G1 X116.242 Y119.588 E7.80807
G1 X116.689 Y121.053 E7.94726
G1 X116.689 Y128.308 E8.60700
G1 X116.410 Y129.484 E8.71689
G1 X116.293 Y129.718 E8.74071
G1 X115.324 Y130.777 E8.87122
G1 X113.946 Y131.167 E9.00139
G1 X70.673 Y131.167 E12.93626
G1 X69.292 Y130.775 E13.06676
G1 X68.159 Y129.298 E13.23603
G1 X68.022 Y128.844 E13.27909
G1 X67.911 Y128.089 E13.34854
G1 X67.911 Y65.692 E19.02227
G1 X68.190 Y64.516 E19.13217
G1 X68.307 Y64.282 E19.15597
G1 X69.123 Y63.390 E19.26586
G1 E18.46586 F2400.00000
G92 E0
G1 X76.904 Y64.875 F7800.000
G1 E0.80000 F2400.00000
G1 X77.303 Y65.586 E0.87414 F1800.000
G1 X77.323 Y65.660 E0.88110
G1 X77.326 Y70.229 E1.29660
G1 X77.692 Y70.595 E1.34367
G1 X80.023 Y70.595 E1.55564
G1 X80.269 Y70.719 E1.58067
G1 X80.591 Y70.795 E1.61076
G1 X80.726 Y70.965 E1.63052
G1 X80.713 Y72.247 E1.74704
G1 X80.726 Y72.293 E1.75136
G1 X80.713 Y73.698 E1.87915
G1 X80.726 Y73.744 E1.88348
G1 X80.726 Y75.024 E1.99993
G1 X81.092 Y75.390 E2.04700
G1 X83.438 Y75.390 E2.26033
G1 X83.708 Y75.541 E2.28841
G1 X83.991 Y75.620 E2.31517
G1 X84.126 Y75.790 E2.33492
G1 X84.113 Y77.072 E2.45144
G1 X84.126 Y77.118 E2.45576
G1 X84.113 Y78.523 E2.58356
G1 X84.126 Y78.569 E2.58788
G1 X84.126 Y80.131 E2.72990
G1 X84.492 Y80.497 E2.77697
G1 X86.363 Y80.497 E2.94708
G1 X86.537 Y80.447 E2.96350
G1 X87.248 Y80.564 E3.02901
G1 X87.391 Y80.711 E3.04767
G1 X87.530 Y81.711 E3.13952
G1 X87.511 Y81.875 E3.15454
G1 X87.526 Y81.935 E3.16018
G1 X87.513 Y83.348 E3.28865
G1 X87.526 Y83.394 E3.29298
G1 X87.526 Y84.938 E3.43337
G1 X87.892 Y85.304 E3.48045
G1 X89.769 Y85.304 E3.65112
G1 X89.949 Y85.251 E3.66815
G1 X90.666 Y85.376 E3.73430
G1 X90.808 Y85.526 E3.75311
G1 X90.930 Y86.547 E3.84655
G1 X90.911 Y86.697 E3.86030
G1 X90.926 Y86.757 E3.86595
G1 X90.913 Y88.173 E3.99474
G1 X90.926 Y88.219 E3.99906
G1 X90.926 Y89.513 E4.11673
G1 X90.898 Y89.757 E4.13907
G1 X91.271 Y90.176 E4.19005
G1 X93.153 Y90.176 E4.36122
G1 X93.316 Y90.131 E4.37659
G1 X94.017 Y90.234 E4.44102
G1 X94.162 Y90.376 E4.45942
G1 X94.330 Y91.343 E4.54872
G1 X94.311 Y91.532 E4.56597
G1 X94.326 Y91.590 E4.57149
G1 X94.313 Y92.998 E4.69950
G1 X94.326 Y93.044 E4.70382
G1 X94.326 Y94.610 E4.84622
G1 X94.692 Y94.976 E4.89330
G1 X96.562 Y94.976 E5.06327
G1 X96.734 Y94.927 E5.07954
G1 X97.443 Y95.042 E5.14490
G1 X97.587 Y95.188 E5.16353
G1 X97.730 Y96.184 E5.25500
G1 X97.711 Y96.351 E5.27033
G1 X97.726 Y96.411 E5.27596
G1 X97.713 Y99.274 E5.53631
G1 X97.726 Y99.836 E5.58741
G1 X98.092 Y100.202 E5.63448
G1 X100.038 Y100.202 E5.81138
G1 X100.197 Y100.168 E5.82616
G1 X100.325 Y100.183 E5.83788
G1 X100.966 Y100.552 E5.90517
G1 X101.041 Y100.645 E5.91605
G1 X101.155 Y101.026 E5.95225
G1 X101.126 Y101.258 E5.97351
G1 X101.113 Y102.648 E6.09988
G1 X101.126 Y102.694 E6.10421
G1 X101.113 Y104.099 E6.23200
G1 X101.126 Y104.965 E6.31072
G1 X101.492 Y105.331 E6.35779
G1 X104.069 Y105.331 E6.59212
G1 X104.211 Y105.410 E6.60690
G1 X104.502 Y105.881 E6.65719
G1 X104.526 Y106.117 E6.67878
G1 X104.513 Y107.473 E6.80211
G1 X104.526 Y107.519 E6.80644
G1 X104.513 Y108.924 E6.93423
G1 X104.526 Y109.896 E7.02257
G1 X104.892 Y110.262 E7.06964
G1 X107.416 Y110.262 E7.29915
G1 X107.558 Y110.341 E7.31393
G1 X107.849 Y110.812 E7.36421
G1 X107.926 Y111.017 E7.38418
G1 X107.913 Y112.298 E7.50070
G1 X107.926 Y112.344 E7.50502
G1 X107.913 Y113.749 E7.63281
G1 X107.926 Y114.968 E7.74362
G1 X108.292 Y115.334 E7.79069
G1 X110.692 Y115.334 E8.00894
G1 X110.834 Y115.413 E8.02372
G1 X110.889 Y115.502 E8.03326
G1 X111.091 Y115.648 E8.05586
G1 X111.191 Y115.672 E8.06524
G1 X111.326 Y115.842 E8.08499
G1 X111.313 Y117.123 E8.20151
G1 X111.326 Y117.169 E8.20583
G1 X111.313 Y118.574 E8.33363
G1 X111.326 Y118.620 E8.33795
G1 X111.326 Y119.834 E8.44829
G1 X111.692 Y120.200 E8.49536
G1 X114.072 Y120.200 E8.71175
G1 X114.214 Y120.279 E8.72653
G1 X114.236 Y120.315 E8.73039
G1 X114.438 Y120.460 E8.75299
G1 X114.591 Y120.497 E8.76734
G1 X114.726 Y120.667 E8.78709
G1 X114.713 Y121.948 E8.90361
G1 X114.726 Y121.994 E8.90794
G1 X114.713 Y123.400 E9.03573
G1 X114.726 Y123.445 E9.04005
G1 X114.726 Y124.739 E9.15772
G1 X114.713 Y124.851 E9.16791
G1 X114.726 Y124.896 E9.17223
G1 X114.713 Y126.302 E9.30003
G1 X114.726 Y126.347 E9.30435
G1 X114.726 Y127.642 E9.42202
G1 X114.703 Y127.837 E9.43995
G1 X114.774 Y128.043 E9.45970
G1 X114.813 Y128.291 E9.48253
G1 X114.481 Y128.955 E9.55007
G1 X114.133 Y129.070 E9.58339
G1 X114.013 Y129.070 E9.59430
G1 X113.557 Y129.292 E9.64043
G1 X113.256 Y129.240 E9.66820
G1 X113.170 Y129.205 E9.67661
G1 X70.396 Y129.205 E13.56606
G1 X70.254 Y129.126 E13.58084
G1 X69.937 Y128.612 E13.63574
G1 X69.874 Y128.474 E13.64950
G1 X69.887 Y125.742 E13.89796
G1 X69.874 Y125.696 E13.90229
G1 X69.887 Y124.291 E14.03008
G1 X69.874 Y124.245 E14.03440
G1 X69.887 Y122.840 E14.16220
G1 X69.874 Y122.794 E14.16652
G1 X69.874 Y121.500 E14.28419
G1 X69.887 Y121.389 E14.29438
G1 X69.874 Y121.343 E14.29870
G1 X69.887 Y119.937 E14.42649
G1 X69.874 Y119.892 E14.43082
G1 X69.887 Y118.486 E14.55861
G1 X69.874 Y118.441 E14.56294
G1 X69.874 Y117.147 E14.68060
G1 X69.887 Y117.035 E14.69079
G1 X69.874 Y116.989 E14.69512
G1 X69.887 Y115.584 E14.82291
G1 X69.874 Y115.538 E14.82723
G1 X69.887 Y114.133 E14.95502
G1 X69.874 Y114.087 E14.95935
G1 X69.874 Y112.793 E15.07702
G1 X69.887 Y112.682 E15.08720
G1 X69.874 Y112.636 E15.09153
G1 X69.887 Y111.231 E15.21932
G1 X69.874 Y111.185 E15.22365
G1 X69.887 Y109.780 E15.35144
G1 X69.874 Y109.734 E15.35576
G1 X69.887 Y108.329 E15.48356
G1 X69.874 Y108.283 E15.48788
G1 X69.887 Y106.878 E15.61567
G1 X69.874 Y106.832 E15.62000
G1 X69.887 Y105.427 E15.74779
G1 X69.874 Y105.381 E15.75211
G1 X69.887 Y103.975 E15.87991
G1 X69.874 Y103.930 E15.88423
G1 X69.887 Y102.524 E16.01202
G1 X69.874 Y102.479 E16.01635
G1 X69.887 Y101.073 E16.14414
G1 X69.874 Y101.027 E16.14846
G1 X69.887 Y99.622 E16.27626
G1 X69.874 Y99.576 E16.28058
G1 X69.887 Y98.171 E16.40837
G1 X69.874 Y98.125 E16.41270
G1 X69.887 Y96.720 E16.54049
G1 X69.874 Y96.674 E16.54482
G1 X69.887 Y95.269 E16.67261
G1 X69.874 Y95.223 E16.67693
G1 X69.887 Y93.818 E16.80473
G1 X69.874 Y93.772 E16.80905
G1 X69.887 Y92.367 E16.93684
G1 X69.874 Y92.321 E16.94117
G1 X69.887 Y90.916 E17.06896
G1 X69.874 Y90.870 E17.07328
G1 X69.887 Y89.464 E17.20108
G1 X69.874 Y89.419 E17.20540
G1 X69.887 Y88.013 E17.33319
G1 X69.874 Y87.968 E17.33752
G1 X69.887 Y86.562 E17.46531
G1 X69.874 Y86.517 E17.46963
G1 X69.874 Y85.222 E17.58730
G1 X69.887 Y85.111 E17.59749
G1 X69.874 Y85.065 E17.60181
G1 X69.887 Y83.660 E17.72961
G1 X69.874 Y83.614 E17.73393
G1 X69.887 Y82.209 E17.86172
G1 X69.874 Y82.163 E17.86605
G1 X69.874 Y80.869 E17.98372
G1 X69.887 Y80.758 E17.99390
G1 X69.874 Y80.712 E17.99823
G1 X69.887 Y79.307 E18.12602
G1 X69.874 Y79.261 E18.13035
G1 X69.887 Y77.856 E18.25814
G1 X69.874 Y77.810 E18.26246
G1 X69.874 Y76.516 E18.38013
G1 X69.887 Y76.405 E18.39032
G1 X69.874 Y76.359 E18.39464
G1 X69.887 Y74.954 E18.52244
G1 X69.874 Y74.908 E18.52676
G1 X69.887 Y73.502 E18.65455
G1 X69.874 Y73.457 E18.65888
G1 X69.874 Y72.163 E18.77654
G1 X69.887 Y72.051 E18.78673
G1 X69.874 Y72.006 E18.79106
G1 X69.887 Y70.600 E18.91885
G1 X69.874 Y70.555 E18.92317
G1 X69.887 Y67.698 E19.18291
G1 X69.874 Y67.652 E19.18723
G1 X69.874 Y66.358 E19.30490
G1 X69.905 Y66.207 E19.31892
G1 X69.971 Y66.067 E19.33299
G1 X69.989 Y65.819 E19.35559
G1 X69.886 Y65.511 E19.38517
G1 X70.125 Y65.033 E19.43372
G1 X70.184 Y64.969 E19.44163
G1 X70.427 Y64.819 E19.46760
G1 X70.511 Y64.795 E19.47551
G1 X76.754 Y64.789 E20.04319
G1 X76.852 Y64.845 E20.05351
G1 E19.25351 F2400.00000
G92 E0
G1 X76.664 Y70.879 F7800.000
G1 E0.80000 F2400.00000
G1 X70.536 Y83.105 E1.44651 F1800.000
G1 X70.536 Y82.379 E1.48081
G1 X76.664 Y70.154 E2.12732
G1 X76.664 Y69.428 E2.16162
G1 X70.536 Y81.654 E2.80813
G1 X70.536 Y80.928 E2.84243
G1 X76.664 Y68.703 E3.48894
G1 X76.664 Y67.977 E3.52324
G1 X70.536 Y80.203 E4.16975
G1 X70.536 Y79.477 E4.20405
G1 X76.664 Y67.251 E4.85056
G1 X76.664 Y66.526 E4.88486
G1 X70.536 Y78.752 E5.53137
G1 X70.536 Y78.026 E5.56568
G1 X76.664 Y65.800 E6.21219
G1 X76.472 Y65.458 E6.23075
G1 X70.536 Y77.300 E6.85701
G1 X70.536 Y76.575 E6.89131
G1 X76.108 Y65.458 E7.47920
G1 X75.745 Y65.458 E7.49639
G1 X70.536 Y75.849 E8.04592
G1 X70.536 Y75.124 E8.08022
G1 X75.381 Y65.458 E8.59137
G1 X75.017 Y65.458 E8.60856
G1 X70.536 Y74.398 E9.08135
G1 X70.536 Y73.673 E9.11565
G1 X74.654 Y65.458 E9.55007
G1 X74.290 Y65.458 E9.56726
G1 X70.536 Y72.947 E9.96332
G1 X70.536 Y72.222 E9.99762
G1 X73.926 Y65.458 E10.35530
G1 X73.563 Y65.458 E10.37249
G1 X70.536 Y71.496 E10.69181
G1 X70.536 Y70.771 E10.72611
G1 X73.199 Y65.458 E11.00706
G1 X72.835 Y65.458 E11.02425
G1 X70.536 Y70.045 E11.26683
G1 X70.536 Y69.319 E11.30113
G1 X72.472 Y65.458 E11.50535
G1 X72.108 Y65.458 E11.52254
G1 X70.536 Y68.594 E11.68838
G1 X70.536 Y67.868 E11.72268
G1 X71.744 Y65.458 E11.85016
G1 X71.381 Y65.458 E11.86735
G1 X70.536 Y67.143 E11.95646
G1 X70.536 Y66.417 E11.99077
G1 X71.017 Y65.458 E12.04151
G1 X70.654 Y65.458 E12.05870
G1 X70.536 Y65.692 E12.07107
G1 E11.27107 F2400.00000
G92 E0
G1 X76.838 Y71.258 F7800.000
G1 E0.80000 F2400.00000
G1 X70.536 Y83.830 E1.46486 F1800.000
G1 X70.536 Y84.556 E1.49916
G1 X77.201 Y71.258 E2.20239
G1 X77.565 Y71.258 E2.21958
G1 X70.536 Y85.282 E2.96117
G1 X70.536 Y86.007 E2.99547
G1 X77.929 Y71.258 E3.77543
G1 X78.292 Y71.258 E3.79262
G1 X70.536 Y86.733 E4.61095
G1 X70.536 Y87.458 E4.64525
G1 X78.656 Y71.258 E5.50195
G1 X79.020 Y71.258 E5.51914
G1 X70.536 Y88.184 E6.41421
G1 X70.536 Y88.909 E6.44851
G1 X79.383 Y71.258 E7.38194
G1 X79.747 Y71.258 E7.39913
G1 X70.536 Y89.635 E8.37093
G1 X70.536 Y90.360 E8.40523
G1 X80.064 Y71.351 E9.41047
G1 X80.064 Y72.077 E9.44477
G1 X70.536 Y91.086 E10.45001
G1 X70.536 Y91.811 E10.48431
G1 X80.064 Y72.802 E11.48955
G1 X80.064 Y73.528 E11.52385
G1 X70.536 Y92.537 E12.52909
G1 X70.536 Y93.263 E12.56339
G1 X80.064 Y74.253 E13.56863
G1 X80.064 Y74.979 E13.60293
G1 X70.536 Y93.988 E14.60817
G1 X70.536 Y94.714 E14.64247
G1 X80.064 Y75.704 E15.64771
G1 X80.253 Y76.053 F7800.000
G1 X70.536 Y95.439 E16.67289 F1800.000
G1 X70.536 Y96.165 E16.70719
G1 X80.616 Y76.053 E17.77073
G1 X80.980 Y76.053 E17.78792
G1 X70.536 Y96.890 E18.88983
G1 X70.536 Y97.616 E18.92413
G1 X81.344 Y76.053 E20.06441
G1 X81.707 Y76.053 E20.08160
G1 X70.536 Y98.341 E21.26025
G1 X70.536 Y99.067 E21.29455
G1 X82.071 Y76.053 E22.51156
G1 X82.435 Y76.053 E22.52875
G1 X70.536 Y99.792 E23.78413
G1 X70.536 Y100.518 E23.81844
G1 X82.798 Y76.053 E25.11218
G1 X83.162 Y76.053 E25.12938
G1 X70.536 Y101.244 E26.46149
G1 X70.536 Y101.969 E26.49579
G1 X83.464 Y76.176 E27.85976
G1 X83.464 Y76.902 E27.89406
G1 X70.536 Y102.695 E29.25803
G1 X70.536 Y103.420 E29.29233
G1 X83.464 Y77.627 E30.65630
G1 X83.464 Y78.353 E30.69060
G1 X70.536 Y104.146 E32.05457
G1 X70.536 Y104.871 E32.08887
G1 X83.464 Y79.078 E33.45284
G1 X83.464 Y79.804 E33.48714
G1 X70.536 Y105.597 E34.85111
G1 X70.536 Y106.322 E34.88541
G1 X83.464 Y80.529 E36.24938
G1 X83.512 Y81.159 E36.27924
G1 X70.536 Y107.048 E37.64828
G1 X70.536 Y107.773 E37.68258
G1 X83.875 Y81.159 E39.08998
G1 X84.239 Y81.159 E39.10717
G1 X70.536 Y108.499 E40.55294
G1 X70.536 Y109.225 E40.58724
G1 X84.603 Y81.159 E42.07138
G1 X84.966 Y81.159 E42.08857
G1 X70.536 Y109.950 E43.61108
G1 X70.536 Y110.676 E43.64538
G1 X85.330 Y81.159 E45.20625
G1 X85.694 Y81.159 E45.22344
G1 X70.536 Y111.401 E46.82268
G1 X70.536 Y112.127 E46.85698
G1 X86.057 Y81.159 E48.49459
G1 X86.421 Y81.159 E48.51178
G1 X70.536 Y112.852 E50.18776
G1 X70.536 Y113.578 E50.22206
G1 X86.785 Y81.159 E51.93640
G1 X86.864 Y81.727 E51.96349
G1 X70.536 Y114.303 E53.68619
G1 X70.536 Y115.029 E53.72049
G1 X86.864 Y82.452 E55.44319
G1 X86.864 Y83.178 E55.47749
G1 X70.536 Y115.754 E57.20019
G1 X70.536 Y116.480 E57.23449
G1 X86.864 Y83.903 E58.95719
G1 X86.864 Y84.629 E58.99149
G1 X70.536 Y117.206 E60.71419
G1 X70.536 Y117.931 E60.74849
G1 X86.864 Y85.354 E62.47119
G1 X86.921 Y85.966 E62.50024
G1 X70.536 Y118.657 E64.22895
G1 X70.536 Y119.382 E64.26325
G1 X87.284 Y85.966 E66.03032
G1 X87.648 Y85.966 E66.04751
G1 X70.536 Y120.108 E67.85296
G1 X70.536 Y120.833 E67.88726
G1 X88.012 Y85.966 E69.73107
G1 X88.375 Y85.966 E69.74826
G1 X70.536 Y121.559 E71.63044
G1 X70.536 Y122.284 E71.66474
G1 X88.739 Y85.966 E73.58529
G1 X89.103 Y85.966 E73.60248
G1 X70.536 Y123.010 E75.56139
G1 X70.536 Y123.735 E75.59570
G1 X89.466 Y85.966 E77.59298
G1 X89.830 Y85.966 E77.61017
G1 X70.536 Y124.461 E79.64582
G1 X70.536 Y125.187 E79.68012
G1 X90.194 Y85.966 E81.75414
G1 X90.264 Y86.552 E81.78201
G1 X70.536 Y125.912 E83.86344
G1 X70.536 Y126.638 E83.89774
G1 X90.264 Y87.277 E85.97917
G1 X90.264 Y88.003 E86.01347
G1 X70.536 Y127.363 E88.09490
G1 X70.536 Y128.089 E88.12920
G1 X90.264 Y88.728 E90.21062
G1 X90.264 Y89.454 E90.24492
G1 X70.673 Y128.542 E92.31197
G1 X71.036 Y128.542 E92.32916
G1 X90.264 Y90.179 E94.35783
G1 X90.297 Y90.838 E94.38901
G1 X71.400 Y128.542 E96.38286
G1 X71.764 Y128.542 E96.40005
G1 X90.661 Y90.838 E98.39389
G1 X91.025 Y90.838 E98.41108
G1 X72.127 Y128.542 E100.40492
G1 X72.491 Y128.542 E100.42211
G1 X91.388 Y90.838 E102.41595
G1 X91.752 Y90.838 E102.43314
G1 X72.854 Y128.542 E104.42698
G1 X73.218 Y128.542 E104.44418
G1 X92.115 Y90.838 E106.43802
G1 X92.479 Y90.838 E106.45521
G1 X73.582 Y128.542 E108.44905
G1 X73.945 Y128.542 E108.46624
G1 X92.843 Y90.838 E110.46008
G1 X93.206 Y90.838 E110.47727
G1 X74.309 Y128.542 E112.47111
G1 X74.673 Y128.542 E112.48830
G1 X93.570 Y90.838 E114.48215
G1 X93.664 Y91.377 E114.50799
G1 X75.036 Y128.542 E116.47335
G1 X75.400 Y128.542 E116.49054
G1 X93.664 Y92.102 E118.41753
G1 X93.664 Y92.828 E118.45183
G1 X75.764 Y128.542 E120.34046
G1 X76.127 Y128.542 E120.35765
G1 X93.664 Y93.553 E122.20791
G1 X93.664 Y94.279 E122.24221
G1 X76.491 Y128.542 E124.05410
G1 X76.855 Y128.542 E124.07129
G1 X93.664 Y95.004 E125.84481
G1 X93.710 Y95.638 E125.87486
G1 X77.218 Y128.542 E127.61485
G1 X77.582 Y128.542 E127.63204
G1 X94.073 Y95.638 E129.37204
G1 X94.437 Y95.638 E129.38923
G1 X77.945 Y128.542 E131.12923
G1 X78.309 Y128.542 E131.14642
G1 X94.801 Y95.638 E132.88641
G1 X95.164 Y95.638 E132.90360
G1 X78.673 Y128.542 E134.64360
G1 X79.036 Y128.542 E134.66079
G1 X95.528 Y95.638 E136.40079
G1 X95.892 Y95.638 E136.41798
G1 X79.400 Y128.542 E138.15797
G1 X79.764 Y128.542 E138.17517
G1 X96.255 Y95.638 E139.91516
G1 X96.619 Y95.638 E139.93235
G1 X80.127 Y128.542 E141.67235
G1 X80.491 Y128.542 E141.68954
G1 X96.982 Y95.638 E143.42953
G1 X97.064 Y96.202 E143.45644
G1 X80.855 Y128.542 E145.16665
G1 X81.218 Y128.542 E145.18384
G1 X97.064 Y96.927 E146.85568
G1 X97.064 Y97.653 E146.88998
G1 X81.582 Y128.542 E148.52344
G1 X81.946 Y128.542 E148.54064
G1 X97.064 Y98.378 E150.13574
G1 X97.064 Y99.104 E150.17004
G1 X82.309 Y128.542 E151.72677
G1 X82.673 Y128.542 E151.74396
G1 X97.064 Y99.830 E153.26233
G1 X97.064 Y100.555 E153.29663
G1 X83.037 Y128.542 E154.77663
G1 X83.400 Y128.542 E154.79382
G1 X97.272 Y100.865 E156.25745
G1 X97.636 Y100.865 E156.27464
G1 X83.764 Y128.542 E157.73826
G1 X84.127 Y128.542 E157.75546
G1 X98.000 Y100.865 E159.21908
G1 X98.363 Y100.865 E159.23628
G1 X84.491 Y128.542 E160.69990
G1 X84.855 Y128.542 E160.71709
G1 X98.727 Y100.865 E162.18072
