; generated by Slic3r 1.2.9 on 2017-01-20 at 11:10:48

; external perimeters extrusion width = 0.40mm
; perimeters extrusion width = 0.48mm
; infill extrusion width = 0.48mm
; solid infill extrusion width = 0.48mm
; top infill extrusion width = 0.48mm
; support material extrusion width = 0.40mm

M107
M190 S65 ; set bed temperature
M104 S205 ; set temperature
G28 ; home all axes
G1 Z5 F5000 ; lift nozzle
M92 X80
M92 Y80
M92 Z2565

M109 S205 ; wait for temperature to be reached
G21 ; set units to millimeters
G90 ; use absolute coordinates
M82 ; use absolute distances for extrusion
G92 E0
G1 Z0.400 F7800.000
G1 E-0.80000 F2400.00000
G92 E0
G1 X58.381 Y63.347 F7800.000
G1 E0.80000 F2400.00000
G1 X60.066 Y62.235 E1.03972 F1800.000
G1 X62.000 Y61.858 E1.27377
G1 X134.000 Y61.858 E9.82486
G1 X135.979 Y62.254 E10.06458
G1 X137.653 Y63.381 E10.30430 F1800.000
G1 X138.765 Y65.066 E10.54401
G1 X139.142 Y67.000 E10.77807
G1 X139.142 Y113.000 E16.24127
G1 X138.746 Y114.979 E16.48099
G1 X137.619 Y116.653 E16.72070
G1 X135.934 Y117.765 E16.96042
G1 X134.000 Y118.142 E17.19447
G1 X62.000 Y118.142 E25.74557
G1 X60.021 Y117.746 E25.98528
G1 X58.347 Y116.619 E26.22500
G1 X57.235 Y114.934 E26.46472
G1 X56.858 Y113.000 E26.69877
G1 X56.858 Y67.000 E32.16197
G1 X57.254 Y65.021 E32.40169
G1 X58.347 Y63.396 E32.63428
G1 X58.987 Y63.797 F7800.000
G1 X59.083 Y63.668 E32.65332 F1800.000
G1 X60.720 Y62.761 E32.87560
G1 X62.000 Y62.572 E33.02929
G1 X134.000 Y62.572 E41.58038
G1 X135.829 Y62.967 E41.80265
G1 X137.332 Y64.083 E42.02493 F1800.000
G1 X138.239 Y65.720 E42.24720
G1 X138.428 Y67.000 E42.40089
G1 X138.428 Y113.000 E47.86409
G1 X138.033 Y114.829 E48.08636
G1 X136.917 Y116.332 E48.30864
G1 X135.280 Y117.239 E48.53091
G1 X134.000 Y117.428 E48.68460
G1 X62.000 Y117.428 E57.23569
G1 X60.171 Y117.033 E57.45797
G1 X58.668 Y115.917 E57.68024
G1 X57.761 Y114.280 E57.90252
G1 X57.572 Y113.000 E58.05621
G1 X57.572 Y67.000 E63.51941
G1 X57.967 Y65.171 E63.74168
G1 X58.952 Y63.845 E63.93778
G1 X59.564 Y64.280 F7800.000
G1 X59.780 Y64.022 E63.97781 F1800.000
G1 X62.000 Y63.286 E64.25554
G1 X134.000 Y63.286 E72.80663
G1 X135.666 Y63.680 E73.00997
G1 X136.978 Y64.780 E73.21331 F1800.000
G1 X137.714 Y67.000 E73.49104
G1 X137.714 Y113.000 E78.95424
G1 X137.320 Y114.666 E79.15757
G1 X136.220 Y115.978 E79.36091
G1 X134.000 Y116.714 E79.63864
G1 X62.000 Y116.714 E88.18973
G1 X60.334 Y116.320 E88.39307
G1 X59.022 Y115.220 E88.59641
G1 X58.286 Y113.000 E88.87414
G1 X58.286 Y67.000 E94.33734
G1 X58.680 Y65.334 E94.54067
G1 X59.525 Y64.326 E94.69686
G1 E93.89686 F2400.00000
G92 E0
G1 X61.384 Y66.101 F7800.000
G1 E0.80000 F2400.00000
G1 X61.556 Y65.929 E0.82888 F1800.000
G1 X134.444 Y65.929 E9.48537
G1 X135.071 Y66.556 E9.59077
G1 X135.071 Y78.844 E11.05009 F1800.000
G1 X134.444 Y79.471 E11.15549
G1 X114.690 Y79.471 E13.50157
G1 X114.513 Y79.509 E13.52299
G1 X114.090 Y79.471 E13.57351
G1 X87.490 Y79.471 E16.73269
G1 X87.071 Y79.890 E16.80296
G1 X87.071 Y93.310 E18.39689
G1 X87.490 Y93.729 E18.46715
G1 X134.444 Y93.729 E24.04367
G1 X135.071 Y94.356 E24.14906
G1 X135.071 Y113.444 E26.41599
G1 X134.444 Y114.071 E26.52139
G1 X61.556 Y114.071 E35.17788
G1 X60.929 Y113.444 E35.28327
G1 X60.929 Y66.556 E40.85187
G1 X61.342 Y66.143 E40.92126
G1 X61.852 Y66.643 F7800.000
G1 X134.148 Y66.643 E49.50749 F1800.000
G1 X134.357 Y66.852 E49.54262 F1800.000
G1 X134.357 Y78.548 E50.93167
G1 X134.148 Y78.757 E50.96681
G1 X114.580 Y78.757 E53.29085
G1 X114.436 Y78.785 E53.30819
G1 X114.123 Y78.757 E53.34550
G1 X86.775 Y78.757 E56.59347
G1 X86.357 Y79.175 E56.66374
G1 X86.357 Y94.025 E58.42730
G1 X86.775 Y94.443 E58.49756
G1 X134.148 Y94.443 E64.12376
G1 X134.357 Y94.652 E64.15890
G1 X134.357 Y113.148 E66.35556
G1 X134.148 Y113.357 E66.39069
G1 X61.852 Y113.357 E74.97691
G1 X61.643 Y113.148 E75.01205
G1 X61.643 Y66.852 E80.51038
G1 X61.810 Y66.685 E80.53838
G1 E79.73838 F2400.00000
G92 E0
G1 X133.600 Y78.000 F7800.000
G1 E0.80000 F2400.00000
G1 X121.003 Y78.000 E2.29604 F1800.000
G1 X109.845 Y67.400 E4.12386
G1 X133.600 Y67.400 E6.94507
G1 X133.600 Y77.940 E8.19685
G1 X133.254 Y77.800 F7800.000
G1 X132.886 Y77.286 F7800.000
G1 X121.289 Y77.286 E9.57421 F1800.000
G1 X111.634 Y68.114 E11.15574
G1 X132.886 Y68.114 E13.67970
G1 X132.886 Y77.226 E14.76185
G1 X132.172 Y76.572 F7800.000
G1 X121.574 Y76.572 E16.02052 F1800.000
G1 X113.423 Y68.828 E17.35576
G1 X132.172 Y68.828 E19.58248
G1 X132.172 Y76.512 E20.49499
G1 E19.69499 F2400.00000
G92 E0
G1 X85.600 Y95.200 F7800.000
G1 E0.80000 F2400.00000
G1 X133.600 Y95.200 E6.50073 F1800.000
G1 X133.600 Y112.600 E8.56724
G1 X62.400 Y112.600 E17.02332
G1 X62.400 Y67.400 E22.39151
G1 X85.600 Y67.400 E25.14686
G1 X85.600 Y95.140 E28.44141
G1 X85.600 Y95.600 F7800.000
G1 X84.886 Y95.914 F7800.000
G1 X132.886 Y95.914 E34.14214 F1800.000
G1 X132.886 Y111.886 E36.03902
G1 X63.114 Y111.886 E44.32546
G1 X63.114 Y68.114 E49.52402
G1 X84.886 Y68.114 E52.10973
G1 X84.886 Y95.854 E55.40428
G1 X84.172 Y96.628 F7800.000
G1 X132.172 Y96.628 E61.10501 F1800.000
G1 X132.172 Y111.172 E62.83226
G1 X63.828 Y111.172 E70.94907
G1 X63.828 Y68.828 E75.97799
G1 X84.172 Y68.828 E78.39407
G1 X84.172 Y96.568 E81.68861
G1 X64.607 Y110.736 F7800.000
G1 X64.264 Y110.393 E81.74670 F1800.000
G1 X64.264 Y109.375 E81.86868
G1 X65.625 Y110.736 E82.09926
G1 X66.644 Y110.736 E82.22124
G1 X64.264 Y108.356 E82.62433
G1 X64.264 Y107.338 E82.74630
G1 X67.662 Y110.736 E83.32188
G1 X68.681 Y110.736 E83.44386
G1 X64.264 Y106.319 E84.19194
G1 X64.264 Y105.301 E84.31392
G1 X69.699 Y110.736 E85.23450
G1 X70.718 Y110.736 E85.35648
G1 X64.264 Y104.282 E86.44956
G1 X64.264 Y103.264 E86.57153
G1 X71.736 Y110.736 E87.83711
G1 X72.755 Y110.736 E87.95909
G1 X64.264 Y102.245 E89.39716
G1 X64.264 Y101.227 E89.51914
G1 X73.773 Y110.736 E91.12972
G1 X74.791 Y110.736 E91.25169
G1 X64.264 Y100.209 E93.03477
G1 X64.264 Y99.190 E93.15674
G1 X75.810 Y110.736 E95.11232
G1 X76.828 Y110.736 E95.23429
G1 X64.264 Y98.172 E97.36236
G1 X64.264 Y97.153 E97.48434
G1 X77.847 Y110.736 E99.78491
G1 X78.865 Y110.736 E99.90689
G1 X64.264 Y96.135 E102.37996
G1 X64.264 Y95.116 E102.50193
G1 X79.884 Y110.736 E105.14750
G1 X80.902 Y110.736 E105.26948
G1 X64.264 Y94.098 E108.08754
G1 X64.264 Y93.079 E108.20952
G1 X81.921 Y110.736 E111.20009
G1 X82.939 Y110.736 E111.32206
G1 X64.264 Y92.061 E114.48513
G1 X64.264 Y91.042 E114.60710
G1 X83.958 Y110.736 E117.94266
G1 X84.976 Y110.736 E118.06464
G1 X64.264 Y90.024 E121.57270
G1 X64.264 Y89.005 E121.69468
G1 X85.995 Y110.736 E125.37524
G1 X87.013 Y110.736 E125.49721
G1 X64.264 Y87.987 E129.35027
G1 X64.264 Y86.969 E129.47225
G1 X88.031 Y110.736 E133.49781
G1 X89.050 Y110.736 E133.61978
G1 X64.264 Y85.950 E137.81784
G1 X64.264 Y84.932 E137.93982
G1 X90.068 Y110.736 E142.31037
G1 X91.087 Y110.736 E142.43235
G1 X64.264 Y83.913 E146.97540
G1 X64.264 Y82.895 E147.09738
G1 X92.105 Y110.736 E151.81293
G1 X93.124 Y110.736 E151.93491
G1 X64.264 Y81.876 E156.82296
G1 X64.264 Y80.858 E156.94494
G1 X94.142 Y110.736 E162.00549
G1 X95.161 Y110.736 E162.12746
G1 X64.264 Y79.839 E167.36051
G1 X83.224 Y69.264 F7800.000
G1 X83.736 Y69.776 E167.44728 F1800.000
G1 X83.736 Y70.795 E167.56925
G1 X82.205 Y69.264 E167.82852
G1 X81.187 Y69.264 E167.95049
G1 X83.736 Y71.813 E168.38226
G1 X83.736 Y72.832 E168.50423
G1 X80.168 Y69.264 E169.10850
G1 X79.150 Y69.264 E169.23047
G1 X83.736 Y73.850 E170.00723
G1 X83.736 Y74.868 E170.12921
G1 X78.132 Y69.264 E171.07847
G1 X77.113 Y69.264 E171.20044
G1 X83.736 Y75.887 E172.32220
G1 X83.736 Y76.905 E172.44418
G1 X76.095 Y69.264 E173.73844
G1 X75.076 Y69.264 E173.86041
G1 X83.736 Y77.924 E175.32717
G1 X83.736 Y78.942 E175.44914
G1 X74.058 Y69.264 E177.08840
G1 X73.039 Y69.264 E177.21037
G1 X83.736 Y79.961 E179.02213
G1 X83.736 Y80.979 E179.14410
G1 X72.021 Y69.264 E181.12836
G1 X71.002 Y69.264 E181.25033
G1 X83.736 Y81.998 E183.40708
G1 X83.736 Y83.016 E183.52906
G1 X69.984 Y69.264 E185.85831
G1 X68.965 Y69.264 E185.98028
G1 X83.736 Y84.035 E188.48203
G1 X83.736 Y85.053 E188.60401
G1 X67.947 Y69.264 E191.27825
G1 X66.928 Y69.264 E191.40023
G1 X83.736 Y86.072 E194.24698
G1 X83.736 Y87.090 E194.36895
G1 X65.910 Y69.264 E197.38820
G1 X64.892 Y69.264 E197.51017
G1 X83.736 Y88.108 E200.70191
G1 X83.736 Y89.127 E200.82389
G1 X64.264 Y69.655 E204.12194
G1 X64.264 Y70.673 E204.24392
G1 X83.736 Y90.145 E207.54197
G1 X83.736 Y91.164 E207.66395
G1 X64.264 Y71.692 E210.96200
G1 X64.264 Y72.710 E211.08398
G1 X83.736 Y92.182 E214.38203
G1 X83.736 Y93.201 E214.50401
G1 X64.264 Y73.728 E217.80206
G1 X64.264 Y74.747 E217.92404
G1 X83.736 Y94.219 E221.22209
G1 X83.736 Y95.238 E221.34407
G1 X64.264 Y75.765 E224.64212
G1 X64.264 Y76.784 E224.76410
G1 X83.736 Y96.256 E228.06215
G1 X83.525 Y97.064 E228.16212
G1 X97.198 Y110.736 E230.47782
G1 X96.179 Y110.736 E230.59979
G1 X64.264 Y78.821 E236.00534
G1 X64.264 Y77.802 E236.12732
G1 X83.736 Y97.275 E239.42537
G1 X84.544 Y97.064 E239.52534
G1 X98.216 Y110.736 E241.84104
G1 X99.235 Y110.736 E241.96302
G1 X85.562 Y97.064 E244.27872
G1 X86.581 Y97.064 E244.40069
G1 X100.253 Y110.736 E246.71639
G1 X101.272 Y110.736 E246.83837
G1 X87.599 Y97.064 E249.15407
G1 X88.618 Y97.064 E249.27605
G1 X102.290 Y110.736 E251.59175
G1 X103.308 Y110.736 E251.71372
G1 X89.636 Y97.064 E254.02942
G1 X90.655 Y97.064 E254.15140
G1 X104.327 Y110.736 E256.46710
G1 X105.345 Y110.736 E256.58908
G1 X91.673 Y97.064 E258.90478
G1 X92.692 Y97.064 E259.02675
G1 X106.364 Y110.736 E261.34245
G1 X107.382 Y110.736 E261.46443
G1 X93.710 Y97.064 E263.78013
G1 X94.728 Y97.064 E263.90210
G1 X108.401 Y110.736 E266.21781
G1 X109.419 Y110.736 E266.33978
G1 X95.747 Y97.064 E268.65548
G1 X96.765 Y97.064 E268.77746
G1 X110.438 Y110.736 E271.09316
G1 X111.456 Y110.736 E271.21513
G1 X97.784 Y97.064 E273.53084
G1 X98.802 Y97.064 E273.65281
G1 X112.475 Y110.736 E275.96851
G1 X113.493 Y110.736 E276.09049
G1 X99.821 Y97.064 E278.40619
G1 X100.839 Y97.064 E278.52816
G1 X114.512 Y110.736 E280.84387
G1 X115.530 Y110.736 E280.96584
G1 X101.858 Y97.064 E283.28154
G1 X102.876 Y97.064 E283.40352
G1 X116.548 Y110.736 E285.71922
G1 X117.567 Y110.736 E285.84119
G1 X103.895 Y97.064 E288.15689
G1 X104.913 Y97.064 E288.27887
G1 X118.585 Y110.736 E290.59457
G1 X119.604 Y110.736 E290.71655
G1 X105.932 Y97.064 E293.03225
G1 X106.950 Y97.064 E293.15422
G1 X120.622 Y110.736 E295.46992
G1 X121.641 Y110.736 E295.59190
G1 X107.968 Y97.064 E297.90760
G1 X108.987 Y97.064 E298.02958
G1 X122.659 Y110.736 E300.34528
G1 X123.678 Y110.736 E300.46725
G1 X110.005 Y97.064 E302.78295
G1 X111.024 Y97.064 E302.90493
G1 X124.696 Y110.736 E305.22063
G1 X125.715 Y110.736 E305.34261
G1 X112.042 Y97.064 E307.65831
G1 X113.061 Y97.064 E307.78028
G1 X126.733 Y110.736 E310.09598
G1 X127.752 Y110.736 E310.21796
G1 X114.079 Y97.064 E312.53366
G1 X115.098 Y97.064 E312.65564
G1 X128.770 Y110.736 E314.97134
G1 X129.789 Y110.736 E315.09331
G1 X116.116 Y97.064 E317.40901
G1 X117.135 Y97.064 E317.53099
G1 X130.807 Y110.736 E319.84669
G1 X131.736 Y110.647 E319.95848
G1 X118.153 Y97.064 E322.25906
G1 X119.172 Y97.064 E322.38104
G1 X131.736 Y109.628 E324.50911
G1 X131.736 Y108.610 E324.63109
G1 X120.190 Y97.064 E326.58667
G1 X121.209 Y97.064 E326.70864
G1 X131.736 Y107.591 E328.49172
G1 X131.736 Y106.573 E328.61370
G1 X122.227 Y97.064 E330.22428
G1 X123.245 Y97.064 E330.34626
G1 X131.736 Y105.555 E331.78434
G1 X131.736 Y104.536 E331.90631
G1 X124.264 Y97.064 E333.17190
G1 X125.282 Y97.064 E333.29387
G1 X131.736 Y103.518 E334.38696
G1 X131.736 Y102.499 E334.50893
G1 X126.301 Y97.064 E335.42952
G1 X127.319 Y97.064 E335.55149
G1 X131.736 Y101.481 E336.29958
G1 X131.736 Y100.462 E336.42156
G1 X128.338 Y97.064 E336.99715
G1 X129.356 Y97.064 E337.11912
G1 X131.736 Y99.444 E337.52221
G1 X131.736 Y98.425 E337.64419
G1 X130.375 Y97.064 E337.87478
G1 X131.393 Y97.064 E337.99675
G1 X131.736 Y97.407 E338.05485
G1 E337.25485 F2400.00000
G92 E0
G1 X122.683 Y76.136 F7800.000
G1 E0.80000 F2400.00000
G1 X115.810 Y69.264 E1.98727 F1800.000
G1 X116.849 Y69.264 E2.11418
G1 X123.722 Y76.136 E3.30145
G1 X124.760 Y76.136 E3.42836
G1 X117.888 Y69.264 E4.61564
G1 X118.927 Y69.264 E4.74254
G1 X125.799 Y76.136 E5.92982
G1 X126.838 Y76.136 E6.05672
G1 X119.966 Y69.264 E7.24400
G1 X121.005 Y69.264 E7.37090
G1 X127.877 Y76.136 E8.55818
G1 X128.916 Y76.136 E8.68509
G1 X122.044 Y69.264 E9.87236
G1 X123.082 Y69.264 E9.99927
G1 X129.955 Y76.136 E11.18654
G1 X130.994 Y76.136 E11.31345
G1 X124.121 Y69.264 E12.50072
G1 X125.160 Y69.264 E12.62763
G1 X131.736 Y75.840 E13.76372
G1 X131.736 Y74.801 E13.89063
G1 X126.199 Y69.264 E14.84725
G1 X127.238 Y69.264 E14.97416
G1 X131.736 Y73.762 E15.75131
G1 X131.736 Y72.723 E15.87822
G1 X128.277 Y69.264 E16.47589
G1 X129.315 Y69.264 E16.60280
G1 X131.736 Y71.685 E17.02100
G1 X131.736 Y70.646 E17.14791
G1 X130.354 Y69.264 E17.38664
G1 X131.393 Y69.264 E17.51355
G1 X131.736 Y69.607 E17.57280
G1 X115.646 Y70.138 F7800.000
G1 X114.792 Y69.284 E17.72044 F1800.000
G1 Z0.400 F7800.000
G1 E16.92044 F2400.00000
G92 E0
G1 X113.523 Y77.791 F7800.000
G1 E0.80000 F2400.00000
G1 X113.628 Y77.582 E0.81225 F1800.000
G1 X113.384 Y77.350 E0.82983
G1 X113.163 Y77.791 E0.85563
G1 X112.802 Y77.791 E0.87444
G1 X113.140 Y77.118 E0.91379
G1 X112.896 Y76.886 E0.93137
G1 X112.442 Y77.791 E0.98426
G1 X112.082 Y77.791 E1.00307
G1 X112.652 Y76.655 E1.06950
G1 X112.408 Y76.423 E1.08709
G1 X111.722 Y77.791 E1.16706
G1 X111.362 Y77.791 E1.18588
G1 X112.164 Y76.191 E1.27940
G1 X111.920 Y75.959 E1.29699
G1 X111.002 Y77.791 E1.40406
G1 X110.650 Y77.774 E1.42245
G1 X111.676 Y75.728 E1.54206
G1 X111.432 Y75.496 E1.55964
G1 X110.396 Y77.563 E1.68045
G1 X110.152 Y77.331 E1.69803
G1 X111.188 Y75.264 E1.81884
G1 X110.944 Y75.032 E1.83642
G1 X109.908 Y77.099 E1.95723
G1 X109.664 Y76.868 E1.97482
G1 X110.700 Y74.800 E2.09562
G1 X110.456 Y74.569 E2.11321
G1 X109.420 Y76.636 E2.23402
G1 X109.176 Y76.404 E2.25160
G1 X110.212 Y74.337 E2.37241
G1 X109.968 Y74.105 E2.38999
G1 X108.932 Y76.172 E2.51080
G1 X108.688 Y75.940 E2.52838
G1 X109.724 Y73.873 E2.64919
G1 X109.480 Y73.641 E2.66677
G1 X108.444 Y75.709 E2.78758
G1 X108.200 Y75.477 E2.80516
G1 X109.236 Y73.410 E2.92597
G1 X108.992 Y73.178 E2.94355
G1 X107.956 Y75.245 E3.06436
G1 X107.712 Y75.013 E3.08194
G1 X108.748 Y72.946 E3.20275
G1 X108.504 Y72.714 E3.22034
G1 X107.468 Y74.782 E3.34114
G1 X107.224 Y74.550 E3.35873
G1 X108.260 Y72.483 E3.47954
G1 X108.016 Y72.251 E3.49712
G1 X106.980 Y74.318 E3.61793
G1 X106.736 Y74.086 E3.63551
G1 X107.772 Y72.019 E3.75632
G1 X107.528 Y71.787 E3.77390
G1 X106.492 Y73.854 E3.89471
G1 X106.248 Y73.623 E3.91229
G1 X107.284 Y71.555 E4.03310
G1 X107.040 Y71.324 E4.05068
G1 X106.004 Y73.391 E4.17149
G1 X105.760 Y73.159 E4.18907
G1 X106.796 Y71.092 E4.30988
G1 X106.552 Y70.860 E4.32746
G1 X105.516 Y72.927 E4.44827
G1 X105.272 Y72.695 E4.46586
G1 X106.308 Y70.628 E4.58666
G1 X106.064 Y70.396 E4.60425
G1 X105.028 Y72.464 E4.72506
G1 X104.784 Y72.232 E4.74264
G1 X105.820 Y70.165 E4.86345
G1 X105.576 Y69.933 E4.88103
G1 X104.540 Y72.000 E5.00184
G1 X104.296 Y71.768 E5.01942
G1 X105.332 Y69.701 E5.14023
G1 X105.088 Y69.469 E5.15781
G1 X104.052 Y71.537 E5.27862
G1 X103.808 Y71.305 E5.29620
G1 X104.844 Y69.237 E5.41701
G1 X104.600 Y69.006 E5.43459
G1 X103.564 Y71.073 E5.55540
G1 X103.320 Y70.841 E5.57298
G1 X104.354 Y68.778 E5.69357
G1 X104.017 Y68.733 E5.71137
G1 X103.076 Y70.609 E5.82102
G1 X102.832 Y70.378 E5.83861
G1 X103.656 Y68.733 E5.93471
G1 X103.296 Y68.733 E5.95353
G1 X103.148 Y69.030 E5.97085
G1 X103.042 Y69.241 F7800.000
G1 X102.588 Y70.146 E6.02374 F1800.000
G1 X102.344 Y69.914 E6.04132
G1 X102.682 Y69.241 E6.08066
G1 X102.321 Y69.241 E6.09948
G1 X102.100 Y69.682 E6.12527
G1 X101.856 Y69.450 E6.14286
G1 X101.961 Y69.241 E6.15511
G1 E5.35511 F2400.00000
G92 E0
G1 X104.257 Y68.434 F7800.000
G1 E0.80000 F2400.00000
G1 X104.361 Y68.227 E0.81211 F1800.000
G1 X104.717 Y68.227 E0.83073
G1 X104.498 Y68.663 E0.85625
G1 X104.740 Y68.893 E0.87365
G1 X105.074 Y68.227 E0.91257
G1 X105.430 Y68.227 E0.93119
G1 X104.981 Y69.122 E0.98352
G1 X105.223 Y69.351 E1.00092
G1 X105.787 Y68.227 E1.06665
