; generated by Slic3r 1.2.9 on 2017-01-23 at 17:00:37

; external perimeters extrusion width = 0.40mm
; perimeters extrusion width = 0.67mm
; infill extrusion width = 0.67mm
; solid infill extrusion width = 0.67mm
; top infill extrusion width = 0.67mm
; support material extrusion width = 0.40mm

M107
M190 S65 ; set bed temperature
M104 S205 ; set temperature
G28 ; home all axes
G1 Z5 F5000 ; lift nozzle
M92 X80
M92 Y80
M92 Z2565

M109 S205 ; wait for temperature to be reached
G21 ; set units to millimeters
G90 ; use absolute coordinates
M82 ; use absolute distances for extrusion
G92 E0
G1 Z0.350 F7800.000
G1 E-0.80000 F2400.00000
G92 E0
G1 X59.376 Y63.358 F7800.000
G1 E0.80000 F2400.00000
G1 X60.753 Y62.968 E0.93017 F1800.000
G1 X135.068 Y62.970 E7.68760
G1 X135.426 Y62.983 E7.72011 F1800.000
G1 X136.791 Y63.425 E7.85061
G1 X137.720 Y64.520 E7.98112
G1 X137.951 Y65.471 E8.07015
G1 X137.989 Y66.264 E8.14235
G1 X137.989 Y114.173 E12.49869
G1 X137.710 Y115.349 E12.60859
G1 X137.593 Y115.583 E12.63241
G1 X136.624 Y116.642 E12.76291
G1 X135.246 Y117.032 E12.89308
G1 X61.027 Y117.032 E19.64180
G1 X60.574 Y117.017 E19.68305
G1 X59.209 Y116.575 E19.81355
G1 X58.280 Y115.480 E19.94406
G1 X58.049 Y114.529 E20.03310
G1 X58.011 Y113.736 E20.10528
G1 X58.011 Y65.827 E24.46162
G1 X58.290 Y64.651 E24.57152
G1 X58.407 Y64.417 E24.59531
G1 X59.336 Y63.402 E24.72036
G1 X60.284 Y65.104 F7800.000
G1 X60.527 Y64.954 E24.74633 F1800.000
G1 X60.611 Y64.930 E24.75424
G1 X81.819 Y64.930 E26.68269
G1 X82.001 Y64.952 E26.69938
G1 X82.076 Y64.930 E26.70646
G1 X134.922 Y64.930 E31.51171
G1 X135.098 Y64.880 E31.52834
G1 X135.834 Y65.035 E31.59672
G1 X135.972 Y65.196 E31.61607
G1 X136.029 Y66.296 E31.71616
G1 X136.013 Y67.887 E31.86083
G1 X136.026 Y67.932 E31.86517
G1 X136.013 Y69.338 E31.99301
G1 X136.026 Y69.384 E31.99735
G1 X136.013 Y70.790 E32.12519
G1 X136.026 Y70.836 E32.12953
G1 X136.013 Y72.242 E32.25737
G1 X136.026 Y72.288 E32.26171
G1 X136.013 Y73.694 E32.38955
G1 X136.026 Y73.740 E32.39389
G1 X136.013 Y75.145 E32.52173
G1 X136.026 Y75.191 E32.52607
G1 X136.013 Y76.597 E32.65391
G1 X136.026 Y76.643 E32.65825
G1 X136.013 Y78.049 E32.78610
G1 X136.026 Y78.095 E32.79043
G1 X136.026 Y79.389 E32.90812
G1 X135.982 Y79.574 E32.92542
G1 X135.659 Y80.220 E32.99107
G1 X135.299 Y80.339 E33.02558
G1 X135.149 Y80.346 E33.03920
G1 X134.987 Y80.446 E33.05648
G1 X134.904 Y80.470 E33.06439
G1 X76.392 Y80.470 E38.38481
G1 X76.026 Y80.836 E38.43188
G1 X76.013 Y82.344 E38.56905
G1 X76.026 Y82.390 E38.57338
G1 X76.013 Y83.796 E38.70123
G1 X76.026 Y83.842 E38.70556
G1 X76.013 Y85.248 E38.83341
G1 X76.026 Y85.294 E38.83774
G1 X76.013 Y86.699 E38.96559
G1 X76.026 Y86.745 E38.96992
G1 X76.013 Y88.151 E39.09777
G1 X76.026 Y88.197 E39.10210
G1 X76.013 Y89.603 E39.22995
G1 X76.026 Y89.649 E39.23428
G1 X76.013 Y91.055 E39.36213
G1 X76.026 Y91.101 E39.36647
G1 X76.026 Y92.364 E39.48136
G1 X76.392 Y92.730 E39.52843
G1 X135.505 Y92.730 E44.90350
G1 X135.647 Y92.809 E44.91827
G1 X135.961 Y93.319 E44.97277
G1 X136.026 Y93.463 E44.98705
G1 X136.013 Y94.745 E45.10363
G1 X136.026 Y94.790 E45.10797
G1 X136.013 Y96.196 E45.23581
G1 X136.026 Y96.242 E45.24015
G1 X136.013 Y97.648 E45.36799
G1 X136.026 Y97.694 E45.37233
G1 X136.013 Y99.100 E45.50017
G1 X136.026 Y99.146 E45.50451
G1 X136.013 Y100.552 E45.63235
G1 X136.026 Y100.598 E45.63669
G1 X136.013 Y102.003 E45.76453
G1 X136.026 Y102.049 E45.76887
G1 X136.013 Y103.455 E45.89671
G1 X136.026 Y103.501 E45.90105
G1 X136.013 Y104.907 E46.02889
G1 X136.026 Y104.953 E46.03323
G1 X136.013 Y106.359 E46.16107
G1 X136.026 Y106.405 E46.16541
G1 X136.013 Y107.811 E46.29325
G1 X136.026 Y107.856 E46.29759
G1 X136.013 Y109.262 E46.42544
G1 X136.026 Y109.308 E46.42977
G1 X136.013 Y110.714 E46.55762
G1 X136.026 Y110.760 E46.56195
G1 X136.013 Y112.166 E46.68980
G1 X136.026 Y112.212 E46.69413
G1 X136.026 Y113.506 E46.81182
G1 X136.003 Y113.702 E46.82979
G1 X136.074 Y113.908 E46.84956
G1 X136.113 Y114.156 E46.87237
G1 X135.781 Y114.820 E46.93991
G1 X135.433 Y114.935 E46.97322
G1 X135.313 Y114.935 E46.98414
G1 X134.856 Y115.157 E47.03029
G1 X134.555 Y115.105 E47.05808
G1 X134.470 Y115.070 E47.06646
G1 X61.165 Y115.075 E53.73204
G1 X60.375 Y115.046 E53.80395
G1 X60.238 Y114.965 E53.81845
G1 X59.962 Y114.499 E53.86769
G1 X59.955 Y114.308 E53.88506
G1 X59.974 Y114.230 E53.89235
G1 X59.987 Y112.839 E54.01881
G1 X59.974 Y112.793 E54.02315
G1 X59.987 Y111.387 E54.15099
G1 X59.974 Y111.341 E54.15533
G1 X59.987 Y109.936 E54.28317
G1 X59.974 Y109.890 E54.28751
G1 X59.987 Y108.484 E54.41535
G1 X59.974 Y108.438 E54.41969
G1 X59.987 Y107.032 E54.54753
G1 X59.974 Y106.986 E54.55187
G1 X59.987 Y105.580 E54.67971
G1 X59.974 Y105.534 E54.68405
G1 X59.987 Y104.128 E54.81189
G1 X59.974 Y104.083 E54.81623
G1 X59.987 Y102.677 E54.94408
G1 X59.974 Y102.631 E54.94841
G1 X59.987 Y101.225 E55.07626
G1 X59.974 Y101.179 E55.08059
G1 X59.987 Y99.773 E55.20844
G1 X59.974 Y99.727 E55.21277
G1 X59.987 Y98.321 E55.34062
G1 X59.974 Y98.275 E55.34495
G1 X59.987 Y96.870 E55.47280
G1 X59.974 Y96.824 E55.47713
G1 X59.987 Y95.418 E55.60498
G1 X59.974 Y95.372 E55.60931
G1 X59.987 Y93.966 E55.73716
G1 X59.974 Y93.920 E55.74149
G1 X59.987 Y92.514 E55.86934
G1 X59.974 Y92.468 E55.87367
G1 X59.987 Y91.062 E56.00152
G1 X59.974 Y91.016 E56.00586
G1 X59.974 Y89.722 E56.12355
G1 X59.987 Y89.611 E56.13376
G1 X59.974 Y89.565 E56.13810
G1 X59.987 Y88.159 E56.26594
G1 X59.974 Y88.113 E56.27028
G1 X59.987 Y86.707 E56.39812
G1 X59.974 Y86.661 E56.40246
G1 X59.987 Y85.255 E56.53030
G1 X59.974 Y85.209 E56.53464
G1 X59.987 Y83.803 E56.66248
G1 X59.974 Y83.758 E56.66682
G1 X59.987 Y82.352 E56.79467
G1 X59.974 Y82.306 E56.79900
G1 X59.987 Y80.900 E56.92685
G1 X59.974 Y80.854 E56.93118
G1 X59.987 Y79.448 E57.05903
G1 X59.974 Y79.402 E57.06336
G1 X59.974 Y78.108 E57.18105
G1 X59.987 Y77.996 E57.19127
G1 X59.974 Y77.950 E57.19561
G1 X59.987 Y76.545 E57.32345
G1 X59.974 Y76.499 E57.32779
G1 X59.987 Y75.093 E57.45563
G1 X59.974 Y75.047 E57.45997
G1 X59.987 Y73.641 E57.58781
G1 X59.974 Y73.595 E57.59215
G1 X59.974 Y72.301 E57.70984
G1 X59.987 Y72.189 E57.72005
G1 X59.974 Y72.143 E57.72439
G1 X59.987 Y70.737 E57.85224
G1 X59.974 Y70.691 E57.85657
G1 X59.974 Y69.397 E57.97426
G1 X59.987 Y69.286 E57.98448
G1 X59.974 Y69.240 E57.98882
G1 X59.987 Y67.834 E58.11666
G1 X59.974 Y67.788 E58.12100
G1 X59.974 Y66.494 E58.23869
G1 X60.005 Y66.343 E58.25270
G1 X60.071 Y66.202 E58.26679
G1 X60.089 Y65.954 E58.28939
G1 X59.986 Y65.646 E58.31898
G1 X60.243 Y65.148 E58.36990
G1 X60.636 Y65.827 F7800.000
G1 X60.753 Y65.593 E58.38227 F1800.000
G1 X61.117 Y65.593 E58.39947
G1 X60.636 Y66.553 E58.45023
G1 X60.636 Y67.278 E58.48454
G1 X61.481 Y65.593 E58.57369
G1 X61.845 Y65.593 E58.59089
G1 X60.636 Y68.004 E58.71842
G1 X60.636 Y68.730 E58.75273
G1 X62.209 Y65.593 E58.91865
G1 X62.573 Y65.593 E58.93585
G1 X60.636 Y69.456 E59.14015
G1 X60.636 Y70.182 E59.17447
G1 X62.936 Y65.593 E59.41716
G1 X63.300 Y65.593 E59.43436
G1 X60.636 Y70.908 E59.71543
G1 X60.636 Y71.634 E59.74975
G1 X63.664 Y65.593 E60.06921
G1 X64.028 Y65.593 E60.08641
G1 X60.636 Y72.360 E60.44426
G1 X60.636 Y73.086 E60.47857
G1 X64.392 Y65.593 E60.87481
G1 X64.755 Y65.593 E60.89201
G1 X60.636 Y73.812 E61.32662
G1 X60.636 Y74.537 E61.36094
G1 X65.119 Y65.593 E61.83395
G1 X65.483 Y65.593 E61.85115
G1 X60.636 Y75.263 E62.36254
G1 X60.636 Y75.989 E62.39685
G1 X65.847 Y65.593 E62.94663
G1 X66.211 Y65.593 E62.96383
G1 X60.636 Y76.715 E63.55199
G1 X60.636 Y77.441 E63.58631
G1 X66.575 Y65.593 E64.21286
G1 X66.938 Y65.593 E64.23006
G1 X60.636 Y78.167 E64.89500
G1 X60.636 Y78.893 E64.92931
G1 X67.302 Y65.593 E65.63263
G1 X67.666 Y65.593 E65.64983
G1 X60.636 Y79.619 E66.39154
G1 X60.636 Y80.345 E66.42586
G1 X68.030 Y65.593 E67.20595
G1 X68.394 Y65.593 E67.22315
G1 X60.636 Y81.070 E68.04163
G1 X60.636 Y81.796 E68.07595
G1 X68.758 Y65.593 E68.93282
G1 X69.121 Y65.593 E68.95002
G1 X60.636 Y82.522 E69.84527
G1 X60.636 Y83.248 E69.87958
G1 X69.485 Y65.593 E70.81322
G1 X69.849 Y65.593 E70.83042
G1 X60.636 Y83.974 E71.80245
G1 X60.636 Y84.700 E71.83676
G1 X70.213 Y65.593 E72.84717
G1 X70.577 Y65.593 E72.86437
G1 X60.636 Y85.426 E73.91317
G1 X60.636 Y86.152 E73.94749
G1 X70.940 Y65.593 E75.03467
G1 X71.304 Y65.593 E75.05187
G1 X60.636 Y86.878 E76.17744
G1 X60.636 Y87.603 E76.21176
G1 X71.668 Y65.593 E77.37571
G1 X72.032 Y65.593 E77.39291
G1 X60.636 Y88.329 E78.59525
G1 X60.636 Y89.055 E78.62957
G1 X72.396 Y65.593 E79.87030
G1 X72.760 Y65.593 E79.88749
G1 X60.636 Y89.781 E81.16661
G1 X60.636 Y90.507 E81.20093
G1 X73.123 Y65.593 E82.51842
G1 X73.487 Y65.593 E82.53562
G1 X60.636 Y91.233 E83.89151
G1 X60.636 Y91.959 E83.92583
G1 X73.851 Y65.593 E85.32010
G1 X74.215 Y65.593 E85.33730
G1 X60.636 Y92.685 E86.76996
G1 X60.636 Y93.411 E86.80427
G1 X74.579 Y65.593 E88.27532
G1 X74.942 Y65.593 E88.29252
G1 X60.636 Y94.137 E89.80195
G1 X60.636 Y94.862 E89.83626
G1 X75.306 Y65.593 E91.38408
G1 X75.670 Y65.593 E91.40128
G1 X60.636 Y95.588 E92.98748
G1 X60.636 Y96.314 E93.02180
G1 X76.034 Y65.593 E94.64638
G1 X76.398 Y65.593 E94.66358
G1 X60.636 Y97.040 E96.32656
G1 X60.636 Y97.766 E96.36088
G1 X76.762 Y65.593 E98.06224
G1 X77.125 Y65.593 E98.07944
G1 X60.636 Y98.492 E99.81918
G1 X60.636 Y99.218 E99.85350
G1 X77.489 Y65.593 E101.63163
G1 X77.853 Y65.593 E101.64883
G1 X60.636 Y99.944 E103.46535
G1 X60.636 Y100.670 E103.49967
G1 X78.217 Y65.593 E105.35457
G1 X78.581 Y65.593 E105.37177
G1 X60.636 Y101.395 E107.26506
G1 X60.636 Y102.121 E107.29938
G1 X78.944 Y65.593 E109.23105
G1 X79.308 Y65.593 E109.24825
G1 X60.636 Y102.847 E111.21832
G1 X60.636 Y103.573 E111.25263
G1 X79.672 Y65.593 E113.26108
G1 X80.036 Y65.593 E113.27828
G1 X60.636 Y104.299 E115.32512
G1 X60.636 Y105.025 E115.35944
G1 X80.400 Y65.593 E117.44466
G1 X80.764 Y65.593 E117.46186
G1 X60.636 Y105.751 E119.58546
G1 X60.636 Y106.477 E119.61978
G1 X81.127 Y65.593 E121.78177
G1 X81.491 Y65.593 E121.79897
G1 X60.636 Y107.203 E123.99935
G1 X60.636 Y107.928 E124.03367
G1 X81.855 Y65.593 E126.27244
G1 E125.47244 F2400.00000
G92 E0
G1 X75.364 Y93.062 F7800.000
G1 E0.80000 F2400.00000
G1 X64.665 Y114.407 E1.92877 F1800.000
G1 X64.302 Y114.407 E1.94597
G1 X75.364 Y92.336 E3.11312
G1 X75.364 Y91.610 E3.14744
G1 X63.938 Y114.407 E4.35297
G1 X63.574 Y114.407 E4.37017
G1 X75.364 Y90.884 E5.61410
G1 X75.364 Y90.158 E5.64842
G1 X63.210 Y114.407 E6.93073
G1 X62.846 Y114.407 E6.94793
G1 X75.364 Y89.432 E8.26862
G1 X75.364 Y88.707 E8.30294
G1 X62.483 Y114.407 E9.66202
G1 X62.119 Y114.407 E9.67922
G1 X75.364 Y87.981 E11.07669
G1 X75.364 Y87.255 E11.11101
G1 X61.755 Y114.407 E12.54686
G1 X61.391 Y114.407 E12.56406
G1 X75.364 Y86.529 E14.03831
G1 X75.364 Y85.803 E14.07262
G1 X61.027 Y114.407 E15.58525
G1 X60.670 Y114.394 E15.60215
G1 X75.364 Y85.077 E17.15247
G1 X75.364 Y84.351 E17.18679
G1 X60.636 Y113.736 E18.74067
G1 X60.636 Y113.010 E18.77499
G1 X75.364 Y83.625 E20.32887
G1 X75.364 Y82.899 E20.36319
G1 X60.636 Y112.284 E21.91707
G1 X60.636 Y111.558 E21.95139
G1 X75.364 Y82.174 E23.50527
G1 X75.364 Y81.448 E23.53959
G1 X60.636 Y110.832 E25.09348
G1 X60.636 Y110.106 E25.12779
G1 X75.364 Y80.722 E26.68168
G1 X75.364 Y79.996 E26.71599
G1 X60.636 Y109.380 E28.26988
G1 X60.636 Y108.654 E28.30419
G1 X82.219 Y65.593 E30.58135
G1 X82.583 Y65.593 E30.59855
G1 X75.458 Y79.807 E31.35022
G1 X75.822 Y79.807 E31.36742
G1 X82.946 Y65.593 E32.11910
G1 X83.310 Y65.593 E32.13630
G1 X76.186 Y79.807 E32.88798
G1 X76.550 Y79.807 E32.90518
G1 X83.674 Y65.593 E33.65686
G1 X84.038 Y65.593 E33.67406
G1 X76.914 Y79.807 E34.42574
G1 X77.277 Y79.807 E34.44294
G1 X84.402 Y65.593 E35.19462
G1 X84.766 Y65.593 E35.21182
G1 X77.641 Y79.807 E35.96350
G1 X78.005 Y79.807 E35.98070
G1 X85.129 Y65.593 E36.73238
G1 X85.493 Y65.593 E36.74957
G1 X78.369 Y79.807 E37.50125
G1 X78.733 Y79.807 E37.51845
G1 X85.857 Y65.593 E38.27013
G1 X86.221 Y65.593 E38.28733
G1 X79.097 Y79.807 E39.03901
G1 X79.460 Y79.807 E39.05621
G1 X86.585 Y65.593 E39.80789
G1 X86.948 Y65.593 E39.82509
G1 X79.824 Y79.807 E40.57677
G1 X80.188 Y79.807 E40.59397
G1 X87.312 Y65.593 E41.34565
G1 X87.676 Y65.593 E41.36285
G1 X80.552 Y79.807 E42.11453
G1 X80.916 Y79.807 E42.13173
G1 X88.040 Y65.593 E42.88340
G1 X88.404 Y65.593 E42.90060
G1 X81.279 Y79.807 E43.65228
G1 X81.643 Y79.807 E43.66948
G1 X88.768 Y65.593 E44.42116
G1 X89.131 Y65.593 E44.43836
G1 X82.007 Y79.807 E45.19004
G1 X82.371 Y79.807 E45.20724
G1 X89.495 Y65.593 E45.95892
G1 X89.859 Y65.593 E45.97612
G1 X82.735 Y79.807 E46.72780
G1 X83.099 Y79.807 E46.74500
G1 X90.223 Y65.593 E47.49668
G1 X90.587 Y65.593 E47.51388
G1 X83.462 Y79.807 E48.26556
G1 X83.826 Y79.807 E48.28276
G1 X90.950 Y65.593 E49.03443
G1 X91.314 Y65.593 E49.05163
G1 X84.190 Y79.807 E49.80331
G1 X84.554 Y79.807 E49.82051
G1 X91.678 Y65.593 E50.57219
G1 X92.042 Y65.593 E50.58939
G1 X84.918 Y79.807 E51.34107
G1 X85.281 Y79.807 E51.35827
G1 X92.406 Y65.593 E52.10995
G1 X92.770 Y65.593 E52.12715
G1 X85.645 Y79.807 E52.87883
G1 X86.009 Y79.807 E52.89603
G1 X93.133 Y65.593 E53.64771
G1 X93.497 Y65.593 E53.66491
G1 X86.373 Y79.807 E54.41659
G1 X86.737 Y79.807 E54.43379
G1 X93.861 Y65.593 E55.18546
G1 X94.225 Y65.593 E55.20266
G1 X87.101 Y79.807 E55.95434
G1 X87.464 Y79.807 E55.97154
G1 X94.589 Y65.593 E56.72322
G1 X94.953 Y65.593 E56.74042
G1 X87.828 Y79.807 E57.49210
G1 X88.192 Y79.807 E57.50930
G1 X95.316 Y65.593 E58.26098
G1 X95.680 Y65.593 E58.27818
G1 X88.556 Y79.807 E59.02986
G1 X88.920 Y79.807 E59.04706
G1 X96.044 Y65.593 E59.79874
G1 X96.408 Y65.593 E59.81594
G1 X89.283 Y79.807 E60.56762
G1 X89.647 Y79.807 E60.58482
G1 X96.772 Y65.593 E61.33649
G1 X97.135 Y65.593 E61.35369
G1 X90.011 Y79.807 E62.10537
G1 X90.375 Y79.807 E62.12257
G1 X97.499 Y65.593 E62.87425
G1 X97.863 Y65.593 E62.89145
G1 X90.739 Y79.807 E63.64313
G1 X91.103 Y79.807 E63.66033
G1 X98.227 Y65.593 E64.41201
G1 X98.591 Y65.593 E64.42921
G1 X91.466 Y79.807 E65.18089
G1 X91.830 Y79.807 E65.19809
G1 X98.955 Y65.593 E65.94977
G1 X99.318 Y65.593 E65.96697
G1 X92.194 Y79.807 E66.71865
G1 X92.558 Y79.807 E66.73585
G1 X99.682 Y65.593 E67.48752
G1 X100.046 Y65.593 E67.50472
G1 X92.922 Y79.807 E68.25640
G1 X93.285 Y79.807 E68.27360
G1 X100.410 Y65.593 E69.02528
G1 X100.774 Y65.593 E69.04248
G1 X93.649 Y79.807 E69.79416
G1 X94.013 Y79.807 E69.81136
G1 X101.137 Y65.593 E70.56304
G1 X101.501 Y65.593 E70.58024
G1 X94.377 Y79.807 E71.33192
G1 X94.741 Y79.807 E71.34912
G1 X101.865 Y65.593 E72.10080
G1 X102.229 Y65.593 E72.11800
G1 X95.105 Y79.807 E72.86968
G1 X95.468 Y79.807 E72.88687
G1 X102.593 Y65.593 E73.63855
G1 X102.957 Y65.593 E73.65575
G1 X95.832 Y79.807 E74.40743
G1 X96.196 Y79.807 E74.42463
G1 X103.320 Y65.593 E75.17631
G1 X103.684 Y65.593 E75.19351
G1 X96.560 Y79.807 E75.94519
G1 X96.924 Y79.807 E75.96239
G1 X104.048 Y65.593 E76.71407
G1 X104.412 Y65.593 E76.73127
G1 X97.287 Y79.807 E77.48295
G1 X97.651 Y79.807 E77.50015
G1 X104.776 Y65.593 E78.25183
G1 X105.139 Y65.593 E78.26903
G1 X98.015 Y79.807 E79.02070
G1 X98.379 Y79.807 E79.03790
G1 X105.503 Y65.593 E79.78958
G1 X105.867 Y65.593 E79.80678
G1 X98.743 Y79.807 E80.55846
G1 X99.107 Y79.807 E80.57566
G1 X106.231 Y65.593 E81.32734
G1 X106.595 Y65.593 E81.34454
G1 X99.470 Y79.807 E82.09622
G1 X99.834 Y79.807 E82.11342
G1 X106.959 Y65.593 E82.86510
G1 X107.322 Y65.593 E82.88230
G1 X100.198 Y79.807 E83.63398
G1 X100.562 Y79.807 E83.65118
G1 X107.686 Y65.593 E84.40286
G1 X108.050 Y65.593 E84.42006
G1 X100.926 Y79.807 E85.17173
G1 X101.289 Y79.807 E85.18893
G1 X108.414 Y65.593 E85.94061
G1 X108.778 Y65.593 E85.95781
G1 X101.653 Y79.807 E86.70949
G1 X102.017 Y79.807 E86.72669
G1 X109.141 Y65.593 E87.47837
G1 X109.505 Y65.593 E87.49557
G1 X102.381 Y79.807 E88.24725
G1 X102.745 Y79.807 E88.26445
G1 X109.869 Y65.593 E89.01613
G1 X110.233 Y65.593 E89.03333
G1 X103.109 Y79.807 E89.78501
G1 X103.472 Y79.807 E89.80221
G1 X110.597 Y65.593 E90.55389
G1 X110.961 Y65.593 E90.57109
G1 X103.836 Y79.807 E91.32276
G1 X104.200 Y79.807 E91.33996
G1 X111.324 Y65.593 E92.09164
G1 X111.688 Y65.593 E92.10884
G1 X104.564 Y79.807 E92.86052
G1 X104.928 Y79.807 E92.87772
G1 X112.052 Y65.593 E93.62940
