; generated by Slic3r 1.2.9 on 2017-01-23 at 16:59:52

; external perimeters extrusion width = 0.40mm
; perimeters extrusion width = 0.67mm
; infill extrusion width = 0.67mm
; solid infill extrusion width = 0.67mm
; top infill extrusion width = 0.67mm
; support material extrusion width = 0.40mm

M107
M190 S65 ; set bed temperature
M104 S205 ; set temperature
G28 ; home all axes
G1 Z5 F5000 ; lift nozzle
M92 X80
M92 Y80
M92 Z2565

M109 S205 ; wait for temperature to be reached
G21 ; set units to millimeters
G90 ; use absolute coordinates
M82 ; use absolute distances for extrusion
G92 E0
G1 Z0.350 F7800.000
G1 E-0.80000 F2400.00000
G92 E0
G1 X64.773 Y68.258 F7800.000
G1 E0.80000 F2400.00000
G1 X66.150 Y67.868 E0.93017 F1800.000
G1 X129.851 Y67.868 E6.72250
G1 X131.232 Y68.260 E6.85301 F1800.000
G1 X132.353 Y69.699 E7.01889
G1 X132.494 Y70.144 E7.06132
G1 X132.617 Y70.938 E7.13435
G1 X132.617 Y91.273 E8.98345
G1 X132.339 Y92.449 E9.09334
G1 X132.222 Y92.683 E9.11716
G1 X131.252 Y93.742 E9.24767
G1 X129.875 Y94.132 E9.37783
G1 X66.174 Y94.132 E15.17017
G1 X64.793 Y93.740 E15.30068
G1 X63.671 Y92.300 E15.46662
G1 X63.530 Y91.855 E15.50906
G1 X63.408 Y91.062 E15.58202
G1 X63.408 Y70.727 E17.43112
G1 X63.686 Y69.551 E17.54102
G1 X63.803 Y69.317 E17.56482
G1 X64.732 Y68.302 E17.68987
G1 X65.804 Y69.928 F7800.000
G1 X65.923 Y69.854 E17.70268 F1800.000
G1 X66.007 Y69.830 E17.71059
G1 X128.026 Y69.830 E23.34997
G1 X130.128 Y69.830 E23.54105 F1800.000
G1 X130.270 Y69.909 E23.55583
G1 X130.655 Y70.552 E23.62395
G1 X130.642 Y71.835 E23.74059
G1 X130.655 Y71.881 E23.74493
G1 X130.642 Y73.287 E23.87283
G1 X130.655 Y73.333 E23.87718
G1 X130.642 Y74.740 E24.00508
G1 X130.655 Y74.786 E24.00943
G1 X130.642 Y76.192 E24.13733
G1 X130.655 Y76.238 E24.14168
G1 X130.655 Y77.533 E24.25940
G1 X130.642 Y77.645 E24.26965
G1 X130.655 Y77.691 E24.27400
G1 X130.642 Y79.097 E24.40190
G1 X130.655 Y79.143 E24.40624
G1 X130.642 Y80.550 E24.53415
G1 X130.655 Y80.596 E24.53849
G1 X130.642 Y82.002 E24.66639
G1 X130.655 Y82.049 E24.67074
G1 X130.655 Y83.343 E24.78846
G1 X130.642 Y83.455 E24.79871
G1 X130.655 Y83.501 E24.80306
G1 X130.642 Y84.908 E24.93096
G1 X130.655 Y84.954 E24.93531
G1 X130.642 Y86.360 E25.06321
G1 X130.655 Y86.406 E25.06755
G1 X130.642 Y87.813 E25.19545
G1 X130.655 Y87.859 E25.19980
G1 X130.642 Y89.265 E25.32770
G1 X130.655 Y89.311 E25.33205
G1 X130.655 Y90.606 E25.44977
G1 X130.632 Y90.802 E25.46777
G1 X130.703 Y91.008 E25.48757
G1 X130.742 Y91.256 E25.51035
G1 X130.409 Y91.920 E25.57789
G1 X130.062 Y92.035 E25.61119
G1 X129.941 Y92.035 E25.62213
G1 X129.485 Y92.257 E25.66830
G1 X129.183 Y92.205 E25.69610
G1 X129.099 Y92.170 E25.70447
G1 X65.897 Y92.170 E31.45134
G1 X65.755 Y92.091 E31.46612
G1 X65.370 Y91.448 E31.53424
G1 X65.383 Y90.165 E31.65088
G1 X65.370 Y90.119 E31.65523
G1 X65.383 Y88.713 E31.78313
G1 X65.370 Y88.667 E31.78748
G1 X65.383 Y87.260 E31.91538
G1 X65.370 Y87.214 E31.91973
G1 X65.383 Y85.807 E32.04763
G1 X65.370 Y85.761 E32.05198
G1 X65.383 Y84.355 E32.17988
G1 X65.370 Y84.309 E32.18423
G1 X65.383 Y82.902 E32.31213
G1 X65.370 Y82.856 E32.31648
G1 X65.383 Y81.450 E32.44438
G1 X65.370 Y81.404 E32.44873
G1 X65.383 Y79.997 E32.57663
G1 X65.370 Y79.951 E32.58098
G1 X65.383 Y78.545 E32.70888
G1 X65.370 Y78.499 E32.71323
G1 X65.383 Y77.092 E32.84113
G1 X65.370 Y77.046 E32.84548
G1 X65.383 Y75.640 E32.97338
G1 X65.370 Y75.594 E32.97773
G1 X65.383 Y74.187 E33.10563
G1 X65.370 Y74.141 E33.10998
G1 X65.383 Y72.735 E33.23788
G1 X65.370 Y72.689 E33.24222
G1 X65.370 Y71.394 E33.35994
G1 X65.402 Y71.243 E33.37396
G1 X65.467 Y71.103 E33.38806
G1 X65.485 Y70.855 E33.41066
G1 X65.382 Y70.546 E33.44028
G1 X65.622 Y70.068 E33.48883
G1 X65.753 Y69.960 E33.50430
G1 X66.033 Y70.727 F7800.000
G1 X66.150 Y70.493 E33.51667 F1800.000
G1 X66.514 Y70.493 E33.53388
G1 X66.033 Y71.453 E33.58466
G1 X66.033 Y72.179 E33.61900
G1 X66.878 Y70.493 E33.70818
G1 X67.242 Y70.493 E33.72539
G1 X66.033 Y72.906 E33.85298
G1 X66.033 Y73.632 E33.88732
G1 X67.606 Y70.493 E34.05332
G1 X67.970 Y70.493 E34.07053
G1 X66.033 Y74.358 E34.27493
G1 X66.033 Y75.084 E34.30927
G1 X68.334 Y70.493 E34.55208
G1 X68.698 Y70.493 E34.56928
G1 X66.033 Y75.811 E34.85050
G1 X66.033 Y76.537 E34.88484
G1 X69.062 Y70.493 E35.20446
G1 X69.426 Y70.493 E35.22167
G1 X66.033 Y77.263 E35.57970
G1 X66.033 Y77.989 E35.61403
G1 X69.790 Y70.493 E36.01046
G1 X70.154 Y70.493 E36.02767
G1 X66.033 Y78.716 E36.46251
G1 X66.033 Y79.442 E36.49685
G1 X70.518 Y70.493 E36.97009
G1 X70.882 Y70.493 E36.98730
G1 X66.033 Y80.168 E37.49896
G1 X66.033 Y80.895 E37.53329
G1 X71.246 Y70.493 E38.08335
G1 X71.610 Y70.493 E38.10056
G1 X66.033 Y81.621 E38.68902
G1 X66.033 Y82.347 E38.72336
G1 X71.974 Y70.493 E39.35023
G1 X72.338 Y70.493 E39.36743
G1 X66.033 Y83.073 E40.03271
G1 X66.033 Y83.800 E40.06705
G1 X72.702 Y70.493 E40.77073
G1 X73.066 Y70.493 E40.78794
G1 X66.033 Y84.526 E41.53002
G1 X66.033 Y85.252 E41.56436
G1 X73.430 Y70.493 E42.34485
G1 X73.794 Y70.493 E42.36206
G1 X66.033 Y85.978 E43.18096
G1 X66.033 Y86.705 E43.21530
G1 X74.158 Y70.493 E44.07260
G1 X74.522 Y70.493 E44.08981
G1 X66.033 Y87.431 E44.98552
G1 X66.033 Y88.157 E45.01986
G1 X74.886 Y70.493 E45.95398
G1 X75.250 Y70.493 E45.97118
G1 X66.033 Y88.883 E46.94371
G1 X66.033 Y89.610 E46.97804
G1 X75.614 Y70.493 E47.98897
G1 X75.978 Y70.493 E48.00618
G1 X66.033 Y90.336 E49.05552
G1 X66.033 Y91.062 E49.08985
G1 X76.342 Y70.493 E50.17759
G1 X76.706 Y70.493 E50.19480
G1 X66.174 Y91.507 E51.30607
G1 X66.538 Y91.507 E51.32328
G1 X77.070 Y70.493 E52.43455
G1 X77.434 Y70.493 E52.45176
G1 X66.902 Y91.507 E53.56303
G1 X67.266 Y91.507 E53.58024
G1 X77.798 Y70.493 E54.69151
G1 X78.162 Y70.493 E54.70872
G1 X67.630 Y91.507 E55.81999
G1 X67.994 Y91.507 E55.83720
G1 X78.526 Y70.493 E56.94847
G1 X78.890 Y70.493 E56.96568
G1 X68.358 Y91.507 E58.07695
G1 X68.722 Y91.507 E58.09416
G1 X79.254 Y70.493 E59.20543
G1 X79.618 Y70.493 E59.22264
G1 X69.086 Y91.507 E60.33391
G1 X69.450 Y91.507 E60.35112
G1 X79.982 Y70.493 E61.46239
G1 X80.346 Y70.493 E61.47960
G1 X69.814 Y91.507 E62.59087
G1 X70.178 Y91.507 E62.60808
G1 X80.710 Y70.493 E63.71935
G1 X81.074 Y70.493 E63.73656
G1 X70.542 Y91.507 E64.84783
G1 X70.906 Y91.507 E64.86504
G1 X81.438 Y70.493 E65.97631
G1 X81.802 Y70.493 E65.99352
G1 X71.270 Y91.507 E67.10479
G1 X71.634 Y91.507 E67.12200
G1 X82.166 Y70.493 E68.23327
G1 X82.530 Y70.493 E68.25048
G1 X71.998 Y91.507 E69.36175
G1 X72.362 Y91.507 E69.37896
G1 X82.894 Y70.493 E70.49023
G1 X83.258 Y70.493 E70.50744
G1 X72.726 Y91.507 E71.61871
G1 X73.090 Y91.507 E71.63592
G1 X83.622 Y70.493 E72.74719
G1 X83.986 Y70.493 E72.76439
G1 X73.454 Y91.507 E73.87567
G1 X73.818 Y91.507 E73.89287
G1 X84.350 Y70.493 E75.00415
G1 X84.714 Y70.493 E75.02135
G1 X74.182 Y91.507 E76.13263
G1 X74.546 Y91.507 E76.14983
G1 X85.078 Y70.493 E77.26110
G1 X85.442 Y70.493 E77.27831
G1 X74.910 Y91.507 E78.38958
G1 X75.274 Y91.507 E78.40679
G1 X85.806 Y70.493 E79.51806
G1 X86.170 Y70.493 E79.53527
G1 X75.638 Y91.507 E80.64654
G1 X76.002 Y91.507 E80.66375
G1 X86.534 Y70.493 E81.77502
G1 X86.898 Y70.493 E81.79223
G1 X76.366 Y91.507 E82.90350
G1 X76.730 Y91.507 E82.92071
G1 X87.262 Y70.493 E84.03198
G1 X87.626 Y70.493 E84.04919
G1 X77.094 Y91.507 E85.16046
G1 X77.458 Y91.507 E85.17767
G1 X87.990 Y70.493 E86.28894
G1 X88.354 Y70.493 E86.30615
G1 X77.822 Y91.507 E87.41742
G1 X78.186 Y91.507 E87.43463
G1 X88.718 Y70.493 E88.54590
G1 X89.082 Y70.493 E88.56311
G1 X78.550 Y91.507 E89.67438
G1 X78.914 Y91.507 E89.69159
G1 X89.446 Y70.493 E90.80286
G1 X89.810 Y70.493 E90.82007
G1 X79.278 Y91.507 E91.93134
G1 X79.642 Y91.507 E91.94855
G1 X90.174 Y70.493 E93.05982
G1 X90.538 Y70.493 E93.07703
G1 X80.006 Y91.507 E94.18830
G1 X80.370 Y91.507 E94.20551
G1 X90.902 Y70.493 E95.31678
G1 X91.266 Y70.493 E95.33399
G1 X80.734 Y91.507 E96.44526
G1 X81.098 Y91.507 E96.46247
G1 X91.630 Y70.493 E97.57374
G1 X91.994 Y70.493 E97.59095
G1 X81.462 Y91.507 E98.70222
G1 X81.826 Y91.507 E98.71943
G1 X92.358 Y70.493 E99.83070
G1 X92.723 Y70.493 E99.84791
G1 X82.190 Y91.507 E100.95918
G1 X82.554 Y91.507 E100.97639
G1 X93.087 Y70.493 E102.08766
G1 X93.451 Y70.493 E102.10487
G1 X82.918 Y91.507 E103.21614
G1 X83.282 Y91.507 E103.23335
G1 X93.815 Y70.493 E104.34462
G1 X94.179 Y70.493 E104.36183
G1 X83.646 Y91.507 E105.47310
G1 X84.010 Y91.507 E105.49031
G1 X94.543 Y70.493 E106.60158
G1 X94.907 Y70.493 E106.61879
G1 X84.374 Y91.507 E107.73006
G1 X84.738 Y91.507 E107.74727
G1 X95.271 Y70.493 E108.85854
G1 X95.635 Y70.493 E108.87574
G1 X85.102 Y91.507 E109.98702
G1 X85.466 Y91.507 E110.00422
G1 X95.999 Y70.493 E111.11550
G1 X96.363 Y70.493 E111.13270
G1 X85.830 Y91.507 E112.24398
G1 X86.194 Y91.507 E112.26118
G1 X96.727 Y70.493 E113.37246
G1 X97.091 Y70.493 E113.38966
G1 X86.558 Y91.507 E114.50093
G1 X86.922 Y91.507 E114.51814
G1 X97.455 Y70.493 E115.62941
G1 X97.819 Y70.493 E115.64662
G1 X87.286 Y91.507 E116.75789
G1 X87.650 Y91.507 E116.77510
G1 X98.183 Y70.493 E117.88637
G1 X98.547 Y70.493 E117.90358
G1 X88.014 Y91.507 E119.01485
G1 X88.378 Y91.507 E119.03206
G1 X98.911 Y70.493 E120.14333
G1 X99.275 Y70.493 E120.16054
G1 X88.742 Y91.507 E121.27181
G1 X89.106 Y91.507 E121.28902
G1 X99.639 Y70.493 E122.40029
G1 X100.003 Y70.493 E122.41750
G1 X89.470 Y91.507 E123.52877
G1 X89.834 Y91.507 E123.54598
G1 X100.367 Y70.493 E124.65725
G1 X100.731 Y70.493 E124.67446
G1 X90.198 Y91.507 E125.78573
G1 X90.562 Y91.507 E125.80294
G1 X101.095 Y70.493 E126.91421
G1 X101.459 Y70.493 E126.93142
G1 X90.926 Y91.507 E128.04269
G1 X91.290 Y91.507 E128.05990
G1 X101.823 Y70.493 E129.17117
G1 X102.187 Y70.493 E129.18838
G1 X91.654 Y91.507 E130.29965
G1 X92.018 Y91.507 E130.31686
G1 X102.551 Y70.493 E131.42813
G1 X102.915 Y70.493 E131.44534
G1 X92.382 Y91.507 E132.55661
G1 X92.746 Y91.507 E132.57382
G1 X103.279 Y70.493 E133.68509
G1 X103.643 Y70.493 E133.70230
G1 X93.110 Y91.507 E134.81357
G1 X93.474 Y91.507 E134.83078
G1 X104.007 Y70.493 E135.94205
G1 X104.371 Y70.493 E135.95926
G1 X93.838 Y91.507 E137.07053
G1 X94.202 Y91.507 E137.08774
G1 X104.735 Y70.493 E138.19901
G1 X105.099 Y70.493 E138.21622
G1 X94.566 Y91.507 E139.32749
G1 X94.930 Y91.507 E139.34470
G1 X105.463 Y70.493 E140.45597
G1 X105.827 Y70.493 E140.47318
G1 X95.294 Y91.507 E141.58445
G1 X95.658 Y91.507 E141.60166
G1 X106.191 Y70.493 E142.71293
G1 X106.555 Y70.493 E142.73014
G1 X96.022 Y91.507 E143.84141
G1 X96.386 Y91.507 E143.85862
G1 X106.919 Y70.493 E144.96989
G1 X107.283 Y70.493 E144.98710
G1 X96.750 Y91.507 E146.09837
G1 X97.114 Y91.507 E146.11558
G1 X107.647 Y70.493 E147.22685
G1 X108.011 Y70.493 E147.24406
G1 X97.478 Y91.507 E148.35533
G1 X97.842 Y91.507 E148.37254
G1 X108.375 Y70.493 E149.48381
G1 X108.739 Y70.493 E149.50102
G1 X98.206 Y91.507 E150.61229
G1 X98.570 Y91.507 E150.62949
G1 X109.103 Y70.493 E151.74077
G1 X109.467 Y70.493 E151.75797
G1 X98.934 Y91.507 E152.86925
G1 X99.298 Y91.507 E152.88645
G1 X109.831 Y70.493 E153.99773
G1 X110.195 Y70.493 E154.01493
G1 X99.662 Y91.507 E155.12621
G1 X100.026 Y91.507 E155.14341
G1 X110.559 Y70.493 E156.25468
G1 X110.923 Y70.493 E156.27189
G1 X100.390 Y91.507 E157.38316
G1 X100.754 Y91.507 E157.40037
G1 X111.287 Y70.493 E158.51164
G1 X111.651 Y70.493 E158.52885
G1 X101.118 Y91.507 E159.64012
G1 X101.482 Y91.507 E159.65733
G1 X112.015 Y70.493 E160.76860
G1 X112.379 Y70.493 E160.78581
G1 X101.846 Y91.507 E161.89708
G1 X102.210 Y91.507 E161.91429
G1 X112.743 Y70.493 E163.02556
G1 X113.107 Y70.493 E163.04277
G1 X102.574 Y91.507 E164.15404
G1 X102.938 Y91.507 E164.17125
G1 X113.471 Y70.493 E165.28252
G1 X113.835 Y70.493 E165.29973
G1 X103.302 Y91.507 E166.41100
G1 X103.666 Y91.507 E166.42821
G1 X114.199 Y70.493 E167.53948
G1 X114.563 Y70.493 E167.55669
G1 X104.030 Y91.507 E168.66796
G1 X104.394 Y91.507 E168.68517
G1 X114.927 Y70.493 E169.79644
G1 X115.291 Y70.493 E169.81365
G1 X104.758 Y91.507 E170.92492
G1 X105.122 Y91.507 E170.94213
G1 X115.655 Y70.493 E172.05340
G1 X116.019 Y70.493 E172.07061
G1 X105.486 Y91.507 E173.18188
G1 X105.850 Y91.507 E173.19909
G1 X116.383 Y70.493 E174.31036
G1 X116.747 Y70.493 E174.32757
G1 X106.215 Y91.507 E175.43884
G1 X106.579 Y91.507 E175.45605
G1 X117.111 Y70.493 E176.56732
G1 X117.475 Y70.493 E176.58453
G1 X106.943 Y91.507 E177.69580
G1 X107.307 Y91.507 E177.71301
G1 X117.839 Y70.493 E178.82428
G1 X118.203 Y70.493 E178.84149
G1 X107.671 Y91.507 E179.95276
G1 X108.035 Y91.507 E179.96997
G1 X118.567 Y70.493 E181.08124
G1 X118.931 Y70.493 E181.09845
G1 X108.399 Y91.507 E182.20972
G1 X108.763 Y91.507 E182.22693
G1 X119.295 Y70.493 E183.33820
G1 X119.659 Y70.493 E183.35541
G1 X109.127 Y91.507 E184.46668
G1 X109.491 Y91.507 E184.48389
G1 X120.023 Y70.493 E185.59516
G1 X120.387 Y70.493 E185.61237
G1 X109.855 Y91.507 E186.72364
G1 X110.219 Y91.507 E186.74085
G1 X120.751 Y70.493 E187.85212
G1 X121.115 Y70.493 E187.86933
G1 X110.583 Y91.507 E188.98060
G1 X110.947 Y91.507 E188.99781
G1 X121.479 Y70.493 E190.10908
G1 X121.843 Y70.493 E190.12629
G1 X111.311 Y91.507 E191.23756
G1 X111.675 Y91.507 E191.25477
G1 X122.207 Y70.493 E192.36604
G1 X122.571 Y70.493 E192.38325
G1 X112.039 Y91.507 E193.49452
G1 X112.403 Y91.507 E193.51173
G1 X122.935 Y70.493 E194.62300
G1 X123.299 Y70.493 E194.64021
G1 X112.767 Y91.507 E195.75148
G1 X113.131 Y91.507 E195.76868
G1 X123.663 Y70.493 E196.87996
G1 X124.027 Y70.493 E196.89716
G1 X113.495 Y91.507 E198.00844
G1 X113.859 Y91.507 E198.02564
G1 X124.391 Y70.493 E199.13692
G1 X124.755 Y70.493 E199.15412
G1 X114.223 Y91.507 E200.26540
G1 X114.587 Y91.507 E200.28260
G1 X125.119 Y70.493 E201.39387
G1 X125.483 Y70.493 E201.41108
G1 X114.951 Y91.507 E202.52235
G1 X115.315 Y91.507 E202.53956
G1 X125.847 Y70.493 E203.65083
G1 X126.211 Y70.493 E203.66804
G1 X115.679 Y91.507 E204.77931
G1 X116.043 Y91.507 E204.79652
G1 X126.575 Y70.493 E205.90779
G1 X126.939 Y70.493 E205.92500
G1 X116.407 Y91.507 E207.03627
G1 X116.771 Y91.507 E207.05348
G1 X127.303 Y70.493 E208.16475
G1 X127.667 Y70.493 E208.18196
G1 X117.135 Y91.507 E209.29323
G1 X117.499 Y91.507 E209.31044
G1 X128.031 Y70.493 E210.42171
G1 X128.395 Y70.493 E210.43892
G1 X117.863 Y91.507 E211.55019
G1 X118.227 Y91.507 E211.56740
G1 X128.759 Y70.493 E212.67867
G1 X129.123 Y70.493 E212.69588
G1 X118.591 Y91.507 E213.80715
G1 X118.955 Y91.507 E213.82436
G1 X129.487 Y70.493 E214.93563
G1 X129.851 Y70.493 E214.95284
G1 X119.319 Y91.507 E216.06411
G1 X119.683 Y91.507 E216.08132
G1 X129.992 Y70.938 E217.16907
G1 X129.992 Y71.664 E217.20341
G1 X120.047 Y91.507 E218.25275
G1 X120.411 Y91.507 E218.26996
G1 X129.992 Y72.390 E219.28090
G1 X129.992 Y73.116 E219.31523
G1 X120.775 Y91.507 E220.28777
G1 X121.139 Y91.507 E220.30497
G1 X129.992 Y73.843 E221.23910
G1 X129.992 Y74.569 E221.27344
G1 X121.503 Y91.507 E222.16916
G1 X121.867 Y91.507 E222.18637
G1 X129.992 Y75.295 E223.04368
G1 X129.992 Y76.021 E223.07801
G1 X122.231 Y91.507 E223.89692
G1 X122.595 Y91.507 E223.91413
G1 X129.992 Y76.748 E224.69464
G1 X129.992 Y77.474 E224.72897
G1 X122.959 Y91.507 E225.47107
G1 X123.323 Y91.507 E225.48828
G1 X129.992 Y78.200 E226.19197
G1 X129.992 Y78.926 E226.22630
G1 X123.687 Y91.507 E226.89159
G1 X124.051 Y91.507 E226.90879
G1 X129.992 Y79.653 E227.53567
G1 X129.992 Y80.379 E227.57001
G1 X124.415 Y91.507 E228.15848
G1 X124.779 Y91.507 E228.17569
G1 X129.992 Y81.105 E228.72576
G1 X129.992 Y81.832 E228.76009
G1 X125.143 Y91.507 E229.27175
G1 X125.507 Y91.507 E229.28896
G1 X129.992 Y82.558 E229.76222
G1 X129.992 Y83.284 E229.79655
G1 X125.871 Y91.507 E230.23140
G1 X126.235 Y91.507 E230.24861
G1 X129.992 Y84.010 E230.64505
G1 X129.992 Y84.737 E230.67939
G1 X126.599 Y91.507 E231.03742
G1 X126.963 Y91.507 E231.05463
G1 X129.992 Y85.463 E231.37426
G1 X129.992 Y86.189 E231.40860
G1 X127.327 Y91.507 E231.68982
G1 X127.691 Y91.507 E231.70703
G1 X129.992 Y86.915 E231.94985
G1 X129.992 Y87.642 E231.98419
G1 X128.055 Y91.507 E232.18860
G1 X128.419 Y91.507 E232.20581
G1 X129.992 Y88.368 E232.37182
G1 X129.992 Y89.094 E232.40615
G1 X128.783 Y91.507 E232.53375
G1 X129.147 Y91.507 E232.55096
G1 X129.992 Y89.821 E232.64016
G1 X129.992 Y90.547 E232.67449
