; generated by Slic3r 1.2.9 on 2017-01-23 at 16:58:26

; external perimeters extrusion width = 0.40mm
; perimeters extrusion width = 0.67mm
; infill extrusion width = 0.67mm
; solid infill extrusion width = 0.67mm
; top infill extrusion width = 0.67mm
; support material extrusion width = 0.40mm

M107
M190 S65 ; set bed temperature
M104 S205 ; set temperature
G28 ; home all axes
G1 Z5 F5000 ; lift nozzle
M92 X80
M92 Y80
M92 Z2565

M109 S205 ; wait for temperature to be reached
G21 ; set units to millimeters
G90 ; use absolute coordinates
M82 ; use absolute distances for extrusion
G92 E0
G1 Z0.350 F7800.000
G1 E-0.80000 F2400.00000
G92 E0
G1 X69.376 Y73.108 F7800.000
G1 E0.80000 F2400.00000
G1 X70.754 Y72.718 E0.93017 F1800.000
G1 X119.258 Y72.718 E5.34062
G1 X120.638 Y73.110 E5.47112
G1 X121.828 Y74.813 E5.66006 F1800.000
G1 X121.935 Y75.329 E5.70793
G1 X121.989 Y75.858 E5.75633
G1 X121.989 Y114.423 E9.26299
G1 X121.710 Y115.599 E9.37289
G1 X121.593 Y115.833 E9.39671
G1 X120.624 Y116.892 E9.52721
G1 X119.246 Y117.282 E9.65738
G1 X70.742 Y117.282 E14.06783
G1 X69.362 Y116.890 E14.19834
G1 X68.171 Y115.186 E14.38731
G1 X68.065 Y114.670 E14.43520
G1 X68.011 Y114.141 E14.48355
G1 X68.011 Y75.577 E17.99021
G1 X68.290 Y74.401 E18.10011
G1 X68.407 Y74.167 E18.12392
G1 X69.336 Y73.152 E18.24897
G1 E17.44897 F2400.00000
G92 E0
G1 X70.324 Y115.241 F7800.000
G1 E0.80000 F2400.00000
G1 X70.033 Y114.770 E0.85028 F1800.000
G1 X70.026 Y114.608 E0.86506
G1 X70.071 Y114.518 E0.87417
G1 X70.089 Y114.270 E0.89677
G1 X69.986 Y113.960 E0.92646
G1 X70.071 Y113.790 E0.94373
G1 X70.089 Y113.542 E0.96634
G1 X69.986 Y113.233 E0.99603
G1 X70.071 Y113.063 E1.01330
G1 X70.089 Y112.815 E1.03591
G1 X69.986 Y112.505 E1.06560
G1 X70.071 Y112.335 E1.08287
G1 X70.089 Y112.087 E1.10547
G1 X69.986 Y111.777 E1.13517
G1 X70.071 Y111.608 E1.15244
G1 X70.089 Y111.360 E1.17504
G1 X69.986 Y111.050 E1.20473
G1 X70.071 Y110.880 E1.22200
G1 X70.089 Y110.632 E1.24461
G1 X69.986 Y110.322 E1.27430
G1 X70.071 Y110.152 E1.29157
G1 X70.089 Y109.904 E1.31417
G1 X69.986 Y109.594 E1.34387
G1 X70.071 Y109.425 E1.36114
G1 X70.089 Y109.177 E1.38374
G1 X69.986 Y108.867 E1.41343
G1 X70.071 Y108.697 E1.43070
G1 X70.089 Y108.449 E1.45331
G1 X69.986 Y108.139 E1.48300
G1 X70.071 Y107.969 E1.50027
G1 X70.089 Y107.721 E1.52288
G1 X69.986 Y107.412 E1.55257
G1 X70.071 Y107.242 E1.56984
G1 X70.089 Y106.994 E1.59244
G1 X69.986 Y106.684 E1.62214
G1 X70.071 Y106.514 E1.63941
G1 X70.089 Y106.266 E1.66201
G1 X69.986 Y105.956 E1.69170
G1 X70.071 Y105.786 E1.70897
G1 X70.089 Y105.539 E1.73158
G1 X69.986 Y105.229 E1.76127
G1 X70.071 Y105.059 E1.77854
G1 X70.089 Y104.811 E1.80115
G1 X69.986 Y104.501 E1.83084
G1 X70.071 Y104.331 E1.84811
G1 X70.089 Y104.083 E1.87071
G1 X69.986 Y103.773 E1.90041
G1 X70.071 Y103.604 E1.91768
G1 X70.089 Y103.356 E1.94028
G1 X69.986 Y103.046 E1.96997
G1 X70.071 Y102.876 E1.98724
G1 X70.089 Y102.628 E2.00985
G1 X69.986 Y102.318 E2.03954
G1 X70.071 Y102.148 E2.05681
G1 X70.089 Y101.900 E2.07941
G1 X69.986 Y101.590 E2.10911
G1 X70.071 Y101.421 E2.12638
G1 X70.089 Y101.173 E2.14898
G1 X69.986 Y100.863 E2.17867
G1 X70.071 Y100.693 E2.19594
G1 X70.089 Y100.445 E2.21855
G1 X69.986 Y100.135 E2.24824
G1 X70.071 Y99.965 E2.26551
G1 X70.089 Y99.717 E2.28812
G1 X69.986 Y99.408 E2.31781
G1 X70.071 Y99.238 E2.33508
G1 X70.089 Y98.990 E2.35768
G1 X69.986 Y98.680 E2.38738
G1 X70.071 Y98.510 E2.40465
G1 X70.089 Y98.262 E2.42725
G1 X69.986 Y97.952 E2.45694
G1 X70.071 Y97.783 E2.47421
G1 X70.089 Y97.535 E2.49682
G1 X69.986 Y97.225 E2.52651
G1 X70.071 Y97.055 E2.54378
G1 X70.089 Y96.807 E2.56639
G1 X69.986 Y96.497 E2.59608
G1 X70.071 Y96.327 E2.61335
G1 X70.089 Y96.079 E2.63595
G1 X69.986 Y95.769 E2.66564
G1 X70.071 Y95.600 E2.68291
G1 X70.089 Y95.352 E2.70552
G1 X69.986 Y95.042 E2.73521
G1 X70.071 Y94.872 E2.75248
G1 X70.089 Y94.624 E2.77509
G1 X69.986 Y94.314 E2.80478
G1 X70.071 Y94.144 E2.82205
G1 X70.089 Y93.896 E2.84465
G1 X69.986 Y93.587 E2.87435
G1 X70.071 Y93.417 E2.89162
G1 X70.089 Y93.169 E2.91422
G1 X69.986 Y92.859 E2.94391
G1 X70.071 Y92.689 E2.96118
G1 X70.089 Y92.441 E2.98379
G1 X69.986 Y92.131 E3.01348
G1 X70.071 Y91.961 E3.03075
G1 X70.089 Y91.713 E3.05336
G1 X69.986 Y91.404 E3.08305
G1 X70.071 Y91.234 E3.10032
G1 X70.089 Y90.986 E3.12292
G1 X69.986 Y90.676 E3.15262
G1 X70.071 Y90.506 E3.16989
G1 X70.089 Y90.258 E3.19249
G1 X69.986 Y89.948 E3.22218
G1 X70.071 Y89.779 E3.23945
G1 X70.089 Y89.531 E3.26206
G1 X69.986 Y89.221 E3.29175
G1 X70.071 Y89.051 E3.30902
G1 X70.089 Y88.803 E3.33162
G1 X69.986 Y88.493 E3.36132
G1 X70.071 Y88.323 E3.37859
G1 X70.089 Y88.075 E3.40119
G1 X69.986 Y87.765 E3.43088
G1 X70.071 Y87.596 E3.44815
G1 X70.089 Y87.348 E3.47076
G1 X69.986 Y87.038 E3.50045
G1 X70.071 Y86.868 E3.51772
G1 X70.089 Y86.620 E3.54033
G1 X69.986 Y86.310 E3.57002
G1 X70.071 Y86.140 E3.58729
G1 X70.089 Y85.892 E3.60989
G1 X69.986 Y85.583 E3.63959
G1 X70.071 Y85.413 E3.65686
G1 X70.089 Y85.165 E3.67946
G1 X69.986 Y84.855 E3.70915
G1 X70.071 Y84.685 E3.72642
G1 X70.089 Y84.437 E3.74903
G1 X69.986 Y84.127 E3.77872
G1 X70.071 Y83.957 E3.79599
G1 X70.089 Y83.710 E3.81860
G1 X69.986 Y83.400 E3.84829
G1 X70.071 Y83.230 E3.86556
G1 X70.089 Y82.982 E3.88816
G1 X69.986 Y82.672 E3.91785
G1 X70.071 Y82.502 E3.93512
G1 X70.089 Y82.254 E3.95773
G1 X69.986 Y81.944 E3.98742
G1 X70.071 Y81.775 E4.00469
G1 X70.089 Y81.527 E4.02730
G1 X69.986 Y81.217 E4.05699
G1 X70.071 Y81.047 E4.07426
G1 X70.089 Y80.799 E4.09686
G1 X69.986 Y80.489 E4.12656
G1 X70.071 Y80.319 E4.14383
G1 X70.089 Y80.071 E4.16643
G1 X69.986 Y79.761 E4.19612
G1 X70.071 Y79.592 E4.21339
G1 X70.089 Y79.344 E4.23600
G1 X69.986 Y79.034 E4.26569
G1 X70.071 Y78.864 E4.28296
G1 X70.089 Y78.616 E4.30557
G1 X69.986 Y78.306 E4.33526
G1 X70.071 Y78.136 E4.35253
G1 X70.089 Y77.888 E4.37513
G1 X69.986 Y77.579 E4.40483
G1 X70.071 Y77.409 E4.42210
G1 X70.089 Y77.161 E4.44470
G1 X69.986 Y76.851 E4.47439
G1 X70.071 Y76.681 E4.49166
G1 X70.089 Y76.433 E4.51427
G1 X69.986 Y76.123 E4.54396
G1 X70.071 Y75.954 E4.56123
G1 X70.089 Y75.706 E4.58383
G1 X69.986 Y75.396 E4.61353
G1 X70.219 Y74.930 E4.66087
G1 X70.579 Y74.811 E4.69530
G1 X70.730 Y74.804 E4.70904
G1 X70.892 Y74.704 E4.72636
G1 X70.975 Y74.680 E4.73427
G1 X118.844 Y74.680 E9.08695
G1 X118.998 Y74.640 E9.10141
G1 X119.690 Y74.731 E9.16486
G1 X119.836 Y74.867 E9.18301
G1 X120.032 Y75.860 E9.27504
G1 X120.009 Y76.029 E9.29052
G1 X119.929 Y76.209 E9.30847
G1 X119.911 Y76.457 E9.33107
G1 X120.014 Y76.767 E9.36076
G1 X119.929 Y76.937 E9.37803
G1 X119.911 Y77.185 E9.40064
G1 X120.014 Y77.495 E9.43033
G1 X119.929 Y77.665 E9.44760
G1 X119.911 Y77.913 E9.47021
G1 X120.014 Y78.223 E9.49990
G1 X119.929 Y78.392 E9.51717
G1 X119.911 Y78.640 E9.53977
G1 X120.014 Y78.950 E9.56947
G1 X119.929 Y79.120 E9.58674
G1 X119.911 Y79.368 E9.60934
G1 X120.014 Y79.678 E9.63903
G1 X119.929 Y79.848 E9.65630
G1 X119.911 Y80.096 E9.67891
G1 X120.014 Y80.405 E9.70860
G1 X119.929 Y80.575 E9.72587
G1 X119.911 Y80.823 E9.74847
G1 X120.014 Y81.133 E9.77817
G1 X119.929 Y81.303 E9.79544
G1 X119.911 Y81.551 E9.81804
G1 X120.014 Y81.861 E9.84773
G1 X119.929 Y82.030 E9.86500
G1 X119.911 Y82.278 E9.88761
G1 X120.014 Y82.588 E9.91730
G1 X119.929 Y82.758 E9.93457
G1 X119.911 Y83.006 E9.95718
G1 X120.014 Y83.316 E9.98687
G1 X119.929 Y83.486 E10.00414
G1 X119.911 Y83.734 E10.02674
G1 X120.014 Y84.044 E10.05644
G1 X119.929 Y84.213 E10.07371
G1 X119.911 Y84.461 E10.09631
G1 X120.014 Y84.771 E10.12600
G1 X119.929 Y84.941 E10.14327
G1 X119.911 Y85.189 E10.16588
G1 X120.014 Y85.499 E10.19557
G1 X119.929 Y85.669 E10.21284
G1 X119.911 Y85.917 E10.23545
G1 X120.014 Y86.226 E10.26514
G1 X119.929 Y86.396 E10.28241
G1 X119.911 Y86.644 E10.30501
G1 X120.014 Y86.954 E10.33470
G1 X119.929 Y87.124 E10.35198
G1 X119.911 Y87.372 E10.37458
G1 X120.014 Y87.682 E10.40427
G1 X119.929 Y87.852 E10.42154
G1 X119.911 Y88.099 E10.44415
G1 X120.014 Y88.409 E10.47384
G1 X119.929 Y88.579 E10.49111
G1 X119.911 Y88.827 E10.51371
G1 X120.014 Y89.137 E10.54341
G1 X119.929 Y89.307 E10.56068
G1 X119.911 Y89.555 E10.58328
G1 X120.014 Y89.865 E10.61297
G1 X119.929 Y90.034 E10.63024
G1 X119.911 Y90.282 E10.65285
G1 X120.014 Y90.592 E10.68254
G1 X119.929 Y90.762 E10.69981
G1 X119.911 Y91.010 E10.72242
G1 X120.014 Y91.320 E10.75211
G1 X119.929 Y91.490 E10.76938
G1 X119.911 Y91.738 E10.79198
G1 X120.014 Y92.048 E10.82168
G1 X119.929 Y92.217 E10.83895
G1 X119.911 Y92.465 E10.86155
G1 X120.014 Y92.775 E10.89124
G1 X119.929 Y92.945 E10.90851
G1 X119.911 Y93.193 E10.93112
G1 X120.014 Y93.503 E10.96081
G1 X119.929 Y93.673 E10.97808
G1 X119.911 Y93.921 E11.00068
G1 X120.014 Y94.230 E11.03038
G1 X119.929 Y94.400 E11.04765
G1 X119.911 Y94.648 E11.07025
G1 X120.014 Y94.958 E11.09994
G1 X119.929 Y95.128 E11.11721
G1 X119.911 Y95.376 E11.13982
G1 X120.014 Y95.686 E11.16951
G1 X119.929 Y95.856 E11.18678
G1 X119.911 Y96.103 E11.20939
G1 X120.014 Y96.413 E11.23908
G1 X119.929 Y96.583 E11.25635
G1 X119.911 Y96.831 E11.27895
G1 X120.014 Y97.141 E11.30865
G1 X119.929 Y97.311 E11.32592
G1 X119.911 Y97.559 E11.34852
G1 X120.014 Y97.869 E11.37821
G1 X119.929 Y98.038 E11.39548
G1 X119.911 Y98.286 E11.41809
G1 X120.014 Y98.596 E11.44778
G1 X119.929 Y98.766 E11.46505
G1 X119.911 Y99.014 E11.48766
G1 X120.014 Y99.324 E11.51735
G1 X119.929 Y99.494 E11.53462
G1 X119.911 Y99.742 E11.55722
G1 X120.014 Y100.052 E11.58691
G1 X119.929 Y100.221 E11.60419
G1 X119.911 Y100.469 E11.62679
G1 X120.014 Y100.779 E11.65648
G1 X119.929 Y100.949 E11.67375
G1 X119.911 Y101.197 E11.69636
G1 X120.014 Y101.507 E11.72605
G1 X119.929 Y101.677 E11.74332
G1 X119.911 Y101.925 E11.76592
G1 X120.014 Y102.234 E11.79562
G1 X119.929 Y102.404 E11.81289
G1 X119.911 Y102.652 E11.83549
G1 X120.014 Y102.962 E11.86518
G1 X119.929 Y103.132 E11.88245
G1 X119.911 Y103.380 E11.90506
G1 X120.014 Y103.690 E11.93475
G1 X119.929 Y103.859 E11.95202
G1 X119.911 Y104.107 E11.97463
G1 X120.014 Y104.417 E12.00432
G1 X119.929 Y104.587 E12.02159
G1 X119.911 Y104.835 E12.04419
G1 X120.014 Y105.145 E12.07389
G1 X119.929 Y105.315 E12.09116
G1 X119.911 Y105.563 E12.11376
G1 X120.014 Y105.873 E12.14345
G1 X119.929 Y106.042 E12.16072
G1 X119.911 Y106.290 E12.18333
G1 X120.014 Y106.600 E12.21302
G1 X119.929 Y106.770 E12.23029
G1 X119.911 Y107.018 E12.25290
G1 X120.014 Y107.328 E12.28259
G1 X119.929 Y107.498 E12.29986
G1 X119.911 Y107.746 E12.32246
G1 X120.014 Y108.055 E12.35215
G1 X119.929 Y108.225 E12.36942
G1 X119.911 Y108.473 E12.39203
G1 X120.014 Y108.783 E12.42172
G1 X119.929 Y108.953 E12.43899
G1 X119.911 Y109.201 E12.46160
G1 X120.014 Y109.511 E12.49129
G1 X119.929 Y109.681 E12.50856
G1 X119.911 Y109.928 E12.53116
G1 X120.014 Y110.238 E12.56086
G1 X119.929 Y110.408 E12.57813
G1 X119.911 Y110.656 E12.60073
G1 X120.014 Y110.966 E12.63042
G1 X119.929 Y111.136 E12.64769
G1 X119.911 Y111.384 E12.67030
G1 X120.014 Y111.694 E12.69999
G1 X119.929 Y111.863 E12.71726
G1 X119.911 Y112.111 E12.73987
G1 X120.014 Y112.421 E12.76956
G1 X119.929 Y112.591 E12.78683
G1 X119.911 Y112.839 E12.80943
G1 X120.014 Y113.149 E12.83913
G1 X119.929 Y113.319 E12.85640
G1 X119.911 Y113.567 E12.87900
G1 X120.044 Y113.966 E12.91723
G1 X120.113 Y114.406 E12.95776
G1 X119.781 Y115.070 E13.02528
G1 X119.434 Y115.185 E13.05853
G1 X119.313 Y115.184 E13.06952
G1 X118.855 Y115.407 E13.11578
G1 X118.553 Y115.355 E13.14363
G1 X118.469 Y115.320 E13.15193
G1 X70.466 Y115.320 E17.51684
G1 X70.376 Y115.270 E17.52616
G1 X70.636 Y114.141 F7800.000
G1 X90.082 Y75.343 E19.57788 F1800.000
G1 X90.447 Y75.343 E19.59512
G1 X70.742 Y114.657 E21.67412
G1 X71.107 Y114.657 E21.69136
G1 X90.812 Y75.343 E23.77036
G1 X91.176 Y75.343 E23.78760
G1 X71.472 Y114.657 E25.86660
G1 X71.836 Y114.657 E25.88384
G1 X91.541 Y75.343 E27.96284
G1 X91.906 Y75.343 E27.98008
G1 X72.201 Y114.657 E30.05908
G1 X72.566 Y114.657 E30.07632
G1 X92.270 Y75.343 E32.15532
G1 X92.635 Y75.343 E32.17256
G1 X72.931 Y114.657 E34.25156
G1 X73.295 Y114.657 E34.26880
G1 X93.000 Y75.343 E36.34780
G1 X93.364 Y75.343 E36.36504
G1 X73.660 Y114.657 E38.44403
G1 X74.025 Y114.657 E38.46128
G1 X93.729 Y75.343 E40.54027
G1 X94.094 Y75.343 E40.55751
G1 X74.389 Y114.657 E42.63651
G1 X74.754 Y114.657 E42.65375
G1 X94.459 Y75.343 E44.73275
G1 X94.823 Y75.343 E44.74999
G1 X75.119 Y114.657 E46.82899
G1 X75.483 Y114.657 E46.84623
G1 X95.188 Y75.343 E48.92523
G1 X95.553 Y75.343 E48.94247
G1 X75.848 Y114.657 E51.02147
G1 X76.213 Y114.657 E51.03871
G1 X95.917 Y75.343 E53.11771
G1 X96.282 Y75.343 E53.13495
G1 X76.577 Y114.657 E55.21395
G1 X76.942 Y114.657 E55.23119
G1 X96.647 Y75.343 E57.31019
G1 X97.011 Y75.343 E57.32743
G1 X77.307 Y114.657 E59.40643
G1 X77.672 Y114.657 E59.42367
G1 X97.376 Y75.343 E61.50266
G1 X97.741 Y75.343 E61.51991
G1 X78.036 Y114.657 E63.59890
G1 X78.401 Y114.657 E63.61614
G1 X98.105 Y75.343 E65.69514
G1 X98.470 Y75.343 E65.71238
G1 X78.766 Y114.657 E67.79138
G1 X79.130 Y114.657 E67.80862
G1 X98.835 Y75.343 E69.88762
G1 X99.199 Y75.343 E69.90486
G1 X79.495 Y114.657 E71.98386
G1 X79.860 Y114.657 E72.00110
G1 X99.564 Y75.343 E74.08010
G1 X99.929 Y75.343 E74.09734
G1 X80.224 Y114.657 E76.17634
G1 X80.589 Y114.657 E76.19358
G1 X100.294 Y75.343 E78.27258
G1 X100.658 Y75.343 E78.28982
G1 X80.954 Y114.657 E80.36882
G1 X81.318 Y114.657 E80.38606
G1 X101.023 Y75.343 E82.46506
G1 X101.388 Y75.343 E82.48230
G1 X81.683 Y114.657 E84.56129
G1 X82.048 Y114.657 E84.57854
G1 X101.752 Y75.343 E86.65753
G1 X102.117 Y75.343 E86.67477
G1 X82.413 Y114.657 E88.75377
G1 X82.777 Y114.657 E88.77101
G1 X102.482 Y75.343 E90.85001
G1 X102.846 Y75.343 E90.86725
G1 X83.142 Y114.657 E92.94625
G1 X83.507 Y114.657 E92.96349
G1 X103.211 Y75.343 E95.04249
G1 X103.576 Y75.343 E95.05973
G1 X83.871 Y114.657 E97.13873
G1 X84.236 Y114.657 E97.15597
G1 X103.940 Y75.343 E99.23497
G1 X104.305 Y75.343 E99.25221
G1 X84.601 Y114.657 E101.33121
G1 X84.965 Y114.657 E101.34845
G1 X104.670 Y75.343 E103.42745
G1 X105.035 Y75.343 E103.44469
G1 X85.330 Y114.657 E105.52369
G1 X85.695 Y114.657 E105.54093
G1 X105.399 Y75.343 E107.61992
G1 X105.764 Y75.343 E107.63717
G1 X86.059 Y114.657 E109.71616
G1 X86.424 Y114.657 E109.73340
G1 X106.129 Y75.343 E111.81240
G1 X106.493 Y75.343 E111.82964
G1 X86.789 Y114.657 E113.90864
G1 X87.154 Y114.657 E113.92588
G1 X106.858 Y75.343 E116.00488
G1 X107.223 Y75.343 E116.02212
G1 X87.518 Y114.657 E118.10112
G1 X87.883 Y114.657 E118.11836
G1 X107.587 Y75.343 E120.19736
G1 X107.952 Y75.343 E120.21460
G1 X88.248 Y114.657 E122.29360
G1 X88.612 Y114.657 E122.31084
G1 X108.317 Y75.343 E124.38984
G1 X108.681 Y75.343 E124.40708
G1 X88.977 Y114.657 E126.48608
G1 X89.342 Y114.657 E126.50332
G1 X109.046 Y75.343 E128.58232
G1 X109.411 Y75.343 E128.59956
G1 X89.706 Y114.657 E130.67855
G1 X90.071 Y114.657 E130.69580
G1 X109.776 Y75.343 E132.77479
G1 X110.140 Y75.343 E132.79203
G1 X90.436 Y114.657 E134.87103
G1 X90.800 Y114.657 E134.88827
G1 X110.505 Y75.343 E136.96727
G1 X110.870 Y75.343 E136.98451
G1 X91.165 Y114.657 E139.06351
G1 X91.530 Y114.657 E139.08075
G1 X111.234 Y75.343 E141.15975
G1 X111.599 Y75.343 E141.17699
G1 X91.895 Y114.657 E143.25599
G1 X92.259 Y114.657 E143.27323
G1 X111.964 Y75.343 E145.35223
G1 X112.328 Y75.343 E145.36947
G1 X92.624 Y114.657 E147.44847
G1 X92.989 Y114.657 E147.46571
G1 X112.693 Y75.343 E149.54471
G1 X113.058 Y75.343 E149.56195
G1 X93.353 Y114.657 E151.64095
G1 X93.718 Y114.657 E151.65819
G1 X113.422 Y75.343 E153.73718
G1 X113.787 Y75.343 E153.75443
G1 X94.083 Y114.657 E155.83342
G1 X94.447 Y114.657 E155.85066
G1 X114.152 Y75.343 E157.92966
G1 X114.517 Y75.343 E157.94690
G1 X94.812 Y114.657 E160.02590
G1 X95.177 Y114.657 E160.04314
G1 X114.881 Y75.343 E162.12214
G1 X115.246 Y75.343 E162.13938
G1 X95.541 Y114.657 E164.21838
G1 X95.906 Y114.657 E164.23562
G1 X115.611 Y75.343 E166.31462
G1 X115.975 Y75.343 E166.33186
G1 X96.271 Y114.657 E168.41086
G1 X96.635 Y114.657 E168.42810
G1 X116.340 Y75.343 E170.50710
G1 X116.705 Y75.343 E170.52434
G1 X97.000 Y114.657 E172.60334
G1 X97.365 Y114.657 E172.62058
G1 X117.069 Y75.343 E174.69958
G1 X117.434 Y75.343 E174.71682
G1 X97.730 Y114.657 E176.79581
