; generated by Slic3r 1.2.9 on 2017-01-17 at 17:06:02

; external perimeters extrusion width = 0.40mm
; perimeters extrusion width = 0.48mm
; infill extrusion width = 0.48mm
; solid infill extrusion width = 0.48mm
; top infill extrusion width = 0.48mm
; support material extrusion width = 0.40mm

M107
M190 S65 ; set bed temperature
M104 S205 ; set temperature
G28 ; home all axes
G1 Z5 F5000 ; lift nozzle
M92 X80
M92 Y80
M92 Z2565

M109 S205 ; wait for temperature to be reached
G21 ; set units to millimeters
G90 ; use absolute coordinates
M82 ; use absolute distances for extrusion
G92 E0
G1 Z0.400 F7800.000
G1 E-0.80000 F2400.00000
G92 E0
G1 X35.980 Y19.329 F7800.000
G1 E0.80000 F2400.00000
G1 X37.363 Y17.859 E1.03972 F1800.000
G1 X39.205 Y17.034 E1.27943
G1 X40.248 Y16.907 E1.40430
G1 X131.113 Y15.195 E12.19773
G1 X155.175 Y15.194 E15.05546
G1 X155.630 Y15.214 E15.10954 F1800.000
G1 X174.900 Y16.926 E17.40722
G1 X176.836 Y17.495 E17.64694
G1 X178.404 Y18.767 E17.88666
G1 X179.362 Y20.543 E18.12637
G1 X179.587 Y21.965 E18.29736
G1 X181.203 Y122.027 E30.18272
G1 X181.196 Y141.525 E32.49840
G1 X179.580 Y170.241 E35.91427
G1 X179.073 Y172.194 E36.15399
G1 X177.854 Y173.803 E36.39370
G1 X176.109 Y174.818 E36.63342
G1 X174.446 Y175.094 E36.83370
G1 X21.549 Y175.094 E54.99247
G1 X19.570 Y174.698 E55.23219
G1 X17.896 Y173.571 E55.47191
G1 X16.784 Y171.886 E55.71162
G1 X16.418 Y169.606 E55.98588
G1 X18.260 Y142.424 E59.22154
G1 X28.028 Y65.555 E68.42428
G1 X35.270 Y21.219 E73.75970
G1 X35.959 Y19.386 E73.99229
G1 X36.659 Y19.596 F7800.000
G1 X38.004 Y18.290 E74.21503 F1800.000
G1 X40.262 Y17.621 E74.49474
G1 X131.126 Y15.909 E85.28816
G1 X155.175 Y15.908 E88.14430
G1 X155.566 Y15.926 E88.19087 F1800.000
G1 X174.837 Y17.637 E90.48855
G1 X176.624 Y18.193 E90.71082
G1 X178.022 Y19.437 E90.93310
G1 X178.873 Y21.977 E91.25116
G1 X180.489 Y122.038 E103.13653
G1 X180.490 Y141.236 E105.41654
G1 X178.867 Y170.201 E108.86194
G1 X178.369 Y172.005 E109.08422
G1 X177.171 Y173.442 E109.30649
G1 X175.486 Y174.256 E109.52877
G1 X174.446 Y174.380 E109.65316
G1 X21.549 Y174.380 E127.81193
G1 X19.720 Y173.985 E128.03420
G1 X18.218 Y172.869 E128.25648
G1 X17.310 Y171.232 E128.47875
G1 X17.131 Y169.654 E128.66737
G1 X18.968 Y142.514 E131.89802
G1 X28.737 Y65.645 E141.10076
G1 X35.975 Y21.334 E146.43316
G1 X36.637 Y19.652 E146.64780
G1 X37.334 Y19.878 F7800.000
G1 X38.635 Y18.751 E146.85218 F1800.000
G1 X40.275 Y18.335 E147.05317
G1 X131.140 Y16.623 E157.84660
G1 X155.175 Y16.622 E160.70114
G1 X155.503 Y16.637 E160.74020 F1800.000
G1 X174.774 Y18.349 E163.03788
G1 X176.398 Y18.889 E163.24122
G1 X177.608 Y20.101 E163.44456
G1 X178.159 Y21.988 E163.67808
G1 X179.775 Y122.050 E175.56344
G1 X179.775 Y141.236 E177.84208
G1 X178.154 Y170.160 E181.28272
G1 X177.666 Y171.802 E181.48606
G1 X176.495 Y173.050 E181.68940
G1 X174.446 Y173.666 E181.94349
G1 X21.549 Y173.666 E200.10226
G1 X19.883 Y173.271 E200.30560
G1 X18.571 Y172.171 E200.50894
G1 X17.892 Y170.600 E200.71228
G1 X17.844 Y169.702 E200.81906
G1 X19.677 Y142.604 E204.04470
G1 X29.445 Y65.736 E213.24743
G1 X36.680 Y21.449 E218.57682
G1 X37.311 Y19.933 E218.77187
G1 E217.97187 F2400.00000
G92 E0
G1 X128.501 Y30.825 F7800.000
G1 E0.80000 F2400.00000
G1 X48.823 Y30.825 E10.26296 F1800.000
G1 X48.418 Y31.182 E10.32711
G1 X44.299 Y64.090 E14.26593
G1 X44.513 Y64.491 E14.31983
G1 X45.794 Y65.133 E14.49009
G1 X46.074 Y65.975 E14.59549
G1 X44.990 Y68.137 E14.88271
G1 X45.017 Y68.526 E14.92899
G1 X45.464 Y69.179 E15.02299
G1 X45.558 Y69.450 E15.05708
G1 X45.593 Y69.954 E15.11709
G1 X45.536 Y70.235 E15.15118
G1 X44.458 Y72.386 E15.43687
G1 X44.485 Y72.775 E15.48315
G1 X44.932 Y73.428 E15.57715
G1 X45.027 Y73.699 E15.61124
G1 X45.061 Y74.203 E15.67125
G1 X45.004 Y74.484 E15.70534
G1 X43.750 Y76.987 E16.03785
G1 X43.937 Y77.549 E16.10812
G1 X44.278 Y77.720 E16.15354
G1 X44.558 Y78.562 E16.25894
G1 X43.395 Y80.884 E16.56732
G1 X43.421 Y81.272 E16.61360
G1 X43.869 Y81.925 E16.70760
G1 X43.963 Y82.196 E16.74169
G1 X43.997 Y82.700 E16.80170
G1 X43.941 Y82.982 E16.83579
G1 X42.686 Y85.485 E17.16830
G1 X42.873 Y86.046 E17.23857
G1 X43.215 Y86.218 E17.28399
G1 X43.495 Y87.060 E17.38939
G1 X42.331 Y89.381 E17.69777
G1 X42.358 Y89.770 E17.74406
G1 X42.805 Y90.423 E17.83805
G1 X42.899 Y90.694 E17.87214
G1 X42.934 Y91.198 E17.93215
G1 X42.877 Y91.479 E17.96624
G1 X41.799 Y93.630 E18.25193
G1 X41.826 Y94.019 E18.29822
G1 X42.273 Y94.672 E18.39220
G1 X42.367 Y94.943 E18.42629
G1 X42.402 Y95.447 E18.48631
G1 X42.345 Y95.728 E18.52040
G1 X41.267 Y97.879 E18.80609
G1 X41.294 Y98.268 E18.85237
G1 X41.741 Y98.920 E18.94636
G1 X41.836 Y99.191 E18.98045
G1 X41.870 Y99.696 E19.04047
G1 X41.813 Y99.977 E19.07456
G1 X40.213 Y103.170 E19.49869
G1 X39.603 Y103.372 E19.57502
G1 X39.342 Y103.691 E19.62405
G1 X36.876 Y123.386 E21.98134
G1 X37.090 Y123.786 E22.03525
G1 X38.428 Y124.457 E22.21300
G1 X38.708 Y125.299 E22.31840
G1 X37.545 Y127.621 E22.62678
G1 X37.571 Y128.009 E22.67306
G1 X38.018 Y128.662 E22.76705
G1 X38.113 Y128.933 E22.80114
G1 X38.147 Y129.437 E22.86116
G1 X38.091 Y129.719 E22.89525
G1 X37.013 Y131.869 E23.18094
G1 X37.039 Y132.258 E23.22723
G1 X37.487 Y132.911 E23.32121
G1 X37.581 Y133.182 E23.35530
G1 X37.615 Y133.686 E23.41532
G1 X37.559 Y133.968 E23.44941
G1 X36.304 Y136.471 E23.78193
G1 X36.491 Y137.032 E23.85219
G1 X36.833 Y137.203 E23.89762
G1 X37.112 Y138.046 E24.00301
G1 X35.949 Y140.367 E24.31140
G1 X35.976 Y140.756 E24.35768
G1 X36.423 Y141.409 E24.45167
G1 X36.517 Y141.680 E24.48576
G1 X36.552 Y142.184 E24.54578
G1 X36.495 Y142.465 E24.57987
G1 X35.087 Y145.274 E24.95302
G1 X35.274 Y145.836 E25.02329
G1 X35.616 Y146.007 E25.06871
G1 X35.895 Y146.849 E25.17411
G1 X34.645 Y149.343 E25.50545
G1 X33.814 Y149.619 E25.60944
G1 X33.553 Y149.939 E25.65847
G1 X32.417 Y159.012 E26.74449
G1 X32.843 Y159.495 E26.82102
G1 X104.768 Y159.495 E35.36320
G1 X105.396 Y160.123 E35.46860
G1 X105.396 Y170.396 E36.68867
G1 X104.768 Y171.023 E36.79406
G1 X101.775 Y171.023 E37.14960
G1 X101.147 Y170.396 E37.25500
G1 X101.147 Y164.256 E37.98417
G1 X100.729 Y163.838 E38.05444
G1 X32.173 Y163.838 E46.19646
G1 X31.768 Y164.195 E46.26062
G1 X30.980 Y170.487 E47.01370
G1 X30.373 Y171.023 E47.10993
G1 X21.065 Y171.023 E48.21535
G1 X20.426 Y170.297 E48.33029
G1 X23.272 Y147.895 E51.01226
G1 X23.059 Y147.494 E51.06625
G1 X22.052 Y146.989 E51.19996
G1 X21.772 Y146.147 E51.30536
G1 X22.478 Y144.740 E51.49231
G1 X22.452 Y144.353 E51.53837
G1 X22.003 Y143.690 E51.63349
G1 X21.910 Y143.420 E51.66743
G1 X21.877 Y142.918 E51.72716
G1 X21.933 Y142.638 E51.76109
G1 X23.020 Y140.469 E52.04917
G1 X22.995 Y140.082 E52.09523
G1 X22.545 Y139.420 E52.19035
G1 X22.452 Y139.149 E52.22429
G1 X22.419 Y138.648 E52.28401
G1 X22.476 Y138.367 E52.31795
G1 X23.563 Y136.199 E52.60603
G1 X23.537 Y135.812 E52.65209
G1 X23.088 Y135.149 E52.74721
G1 X22.995 Y134.879 E52.78114
G1 X22.962 Y134.377 E52.84087
G1 X23.019 Y134.097 E52.87480
G1 X24.106 Y131.928 E53.16289
G1 X24.080 Y131.541 E53.20895
G1 X23.631 Y130.879 E53.30407
G1 X23.538 Y130.608 E53.33800
G1 X23.505 Y130.107 E53.39773
G1 X23.561 Y129.827 E53.43166
G1 X24.826 Y127.303 E53.76692
G1 X24.640 Y126.741 E53.83718
G1 X24.298 Y126.570 E53.88261
G1 X24.018 Y125.728 E53.98800
G1 X25.877 Y122.019 E54.48076
G1 X26.360 Y121.858 E54.54119
G1 X26.622 Y121.540 E54.59014
G1 X29.103 Y102.017 E56.92741
G1 X28.889 Y101.616 E56.98140
G1 X27.554 Y100.947 E57.15871
G1 X27.274 Y100.105 E57.26411
G1 X28.625 Y97.409 E57.62220
G1 X28.439 Y96.848 E57.69246
G1 X28.097 Y96.677 E57.73788
G1 X27.817 Y95.835 E57.84328
G1 X28.990 Y93.494 E58.15420
G1 X28.965 Y93.107 E58.20026
G1 X28.515 Y92.444 E58.29538
G1 X28.422 Y92.174 E58.32931
G1 X28.389 Y91.672 E58.38904
G1 X28.446 Y91.392 E58.42297
G1 X29.533 Y89.224 E58.71105
G1 X29.507 Y88.837 E58.75711
G1 X29.058 Y88.174 E58.85224
G1 X28.965 Y87.904 E58.88617
G1 X28.932 Y87.402 E58.94590
G1 X28.988 Y87.122 E58.97983
G1 X30.075 Y84.953 E59.26791
G1 X30.050 Y84.566 E59.31397
G1 X29.600 Y83.903 E59.40910
G1 X29.508 Y83.633 E59.44303
G1 X29.475 Y83.131 E59.50276
G1 X29.531 Y82.851 E59.53669
G1 X30.618 Y80.683 E59.82477
G1 X30.593 Y80.296 E59.87083
G1 X30.143 Y79.633 E59.96595
G1 X30.050 Y79.363 E59.99989
G1 X30.017 Y78.861 E60.05962
G1 X30.074 Y78.581 E60.09355
G1 X31.339 Y76.057 E60.42880
G1 X31.152 Y75.496 E60.49906
G1 X30.810 Y75.324 E60.54449
G1 X30.530 Y74.482 E60.64988
G1 X31.703 Y72.142 E60.96080
G1 X31.678 Y71.755 E61.00686
G1 X31.228 Y71.092 E61.10198
G1 X31.136 Y70.822 E61.13592
G1 X31.103 Y70.320 E61.19565
G1 X31.159 Y70.040 E61.22958
G1 X32.424 Y67.516 E61.56483
G1 X32.238 Y66.955 E61.63509
G1 X31.896 Y66.783 E61.68052
G1 X31.616 Y65.941 E61.78591
G1 X32.923 Y63.334 E62.13233
G1 X33.836 Y63.030 E62.24661
G1 X34.098 Y62.712 E62.29556
G1 X39.333 Y21.512 E67.22805
G1 X39.941 Y20.977 E67.32415
G1 X129.005 Y20.977 E77.90185
G1 X129.350 Y20.764 E77.95000
G1 X130.012 Y19.443 E78.12554
G1 X130.213 Y19.223 E78.16095
G1 X130.660 Y18.947 E78.22332
G1 X130.947 Y18.865 E78.25873
G1 X133.309 Y18.865 E78.53926
G1 X133.456 Y18.947 E78.55921
G1 X133.738 Y18.980 E78.59295
G1 X134.142 Y18.865 E78.64288
G1 X136.504 Y18.865 E78.92341
G1 X136.642 Y18.942 E78.94210
G1 X136.897 Y18.981 E78.97279
G1 X137.726 Y18.807 E79.07343
G1 X138.202 Y18.924 E79.13161
G1 X138.962 Y19.554 E79.24881
G1 X139.532 Y19.515 E79.31666
G1 X139.799 Y19.223 E79.36373
G1 X140.246 Y18.947 E79.42611
G1 X140.533 Y18.865 E79.46152
G1 X142.895 Y18.865 E79.74204
G1 X143.042 Y18.947 E79.76200
G1 X143.324 Y18.980 E79.79574
G1 X143.728 Y18.865 E79.84567
G1 X146.090 Y18.865 E80.12619
G1 X146.212 Y18.934 E80.14281
G1 X146.474 Y18.971 E80.17421
G1 X147.011 Y18.849 E80.23963
G1 X149.564 Y19.031 E80.54362
G1 X150.119 Y18.865 E80.61235
G1 X152.481 Y18.865 E80.89287
G1 X152.628 Y18.947 E80.91283
G1 X152.910 Y18.980 E80.94657
G1 X153.314 Y18.865 E80.99650
G1 X155.676 Y18.865 E81.27702
G1 X156.163 Y19.137 E81.34320
G1 X156.690 Y19.991 E81.46237
G1 X156.716 Y20.581 E81.53251
G1 X157.130 Y20.977 E81.60059
G1 X174.889 Y20.977 E83.70968
G1 X175.516 Y21.604 E83.81508
G1 X175.517 Y120.400 E95.54859
G1 X175.730 Y120.745 E95.59673
G1 X177.295 Y121.530 E95.80474
G1 X177.575 Y122.372 E95.91013
G1 X176.914 Y123.691 E96.08530
G1 X177.017 Y124.178 E96.14446
G1 X177.248 Y124.371 E96.18023
G1 X177.435 Y124.682 E96.22332
G1 X177.567 Y125.310 E96.29955
G1 X177.520 Y125.670 E96.34265
G1 X176.914 Y126.878 E96.50323
G1 X177.017 Y127.366 E96.56242
G1 X177.248 Y127.558 E96.59804
G1 X177.435 Y127.869 E96.64116
G1 X177.567 Y128.497 E96.71744
G1 X177.520 Y128.857 E96.76056
G1 X176.914 Y130.066 E96.92115
G1 X177.017 Y130.554 E96.98038
G1 X177.247 Y130.745 E97.01585
G1 X177.435 Y131.056 E97.05900
G1 X177.567 Y131.684 E97.13531
G1 X177.520 Y132.045 E97.17846
G1 X176.914 Y133.254 E97.33907
G1 X177.017 Y133.742 E97.39833
G1 X177.247 Y133.932 E97.43366
G1 X177.435 Y134.243 E97.47683
G1 X177.567 Y134.872 E97.55319
G1 X177.521 Y135.232 E97.59636
G1 X176.767 Y136.736 E97.79608
G1 X176.954 Y137.297 E97.86634
G1 X177.295 Y137.468 E97.91177
G1 X177.575 Y138.311 E98.01716
G1 X176.915 Y139.629 E98.19230
G1 X177.018 Y140.118 E98.25163
G1 X177.246 Y140.305 E98.28667
G1 X177.434 Y140.617 E98.32989
G1 X177.567 Y141.246 E98.40633
G1 X177.521 Y141.607 E98.44955
G1 X176.380 Y143.883 E98.75182
G1 X175.787 Y144.080 E98.82608
G1 X175.517 Y144.454 E98.88089
G1 X175.517 Y170.396 E101.96185
G1 X174.889 Y171.023 E102.06725
G1 X165.586 Y171.023 E103.17215
G1 X164.959 Y170.395 E103.27761
G1 X164.975 Y143.832 E106.43238
G1 X164.762 Y143.487 E106.48056
G1 X163.198 Y142.703 E106.68834
G1 X162.919 Y141.861 E106.79373
G1 X163.581 Y140.538 E106.96941
G1 X163.479 Y140.050 E107.02863
G1 X163.249 Y139.860 E107.06413
G1 X163.061 Y139.549 E107.10727
G1 X162.929 Y138.920 E107.18358
G1 X162.975 Y138.560 E107.22672
G1 X163.731 Y137.052 E107.42693
G1 X163.544 Y136.491 E107.49720
G1 X163.202 Y136.320 E107.54262
G1 X162.922 Y135.477 E107.64802
G1 X163.585 Y134.155 E107.82370
G1 X163.483 Y133.667 E107.88286
G1 X163.251 Y133.475 E107.91864
G1 X163.064 Y133.164 E107.96174
G1 X162.933 Y132.536 E108.03796
G1 X162.979 Y132.176 E108.08105
G1 X163.587 Y130.963 E108.24216
G1 X163.485 Y130.476 E108.30128
G1 X163.253 Y130.283 E108.33721
G1 X163.066 Y129.972 E108.38028
G1 X162.935 Y129.344 E108.45646
G1 X162.981 Y128.984 E108.49953
G1 X163.737 Y127.478 E108.69967
G1 X163.550 Y126.916 E108.76994
G1 X163.208 Y126.745 E108.81536
G1 X162.928 Y125.903 E108.92076
G1 X163.591 Y124.580 E109.09647
G1 X163.490 Y124.093 E109.15551
G1 X163.256 Y123.898 E109.19174
G1 X163.069 Y123.587 E109.23476
G1 X162.939 Y122.960 E109.31085
G1 X162.986 Y122.601 E109.35387
G1 X163.797 Y120.982 E109.56891
G1 X164.720 Y120.675 E109.68448
G1 X164.990 Y120.301 E109.73926
G1 X165.003 Y99.732 E112.18213
G1 X164.585 Y99.314 E112.25242
G1 X137.418 Y99.314 E115.47886
G1 X137.000 Y99.732 E115.54913
G1 X137.000 Y170.396 E123.94146
G1 X136.372 Y171.023 E124.04686
G1 X133.865 Y171.023 E124.34458
G1 X133.238 Y170.396 E124.44998
G1 X133.238 Y95.561 E133.33770
G1 X133.865 Y94.934 E133.44310
G1 X164.588 Y94.934 E137.09189
G1 X165.006 Y94.516 E137.16213
G1 X165.045 Y31.244 E144.67664
G1 X164.626 Y30.825 E144.74693
G1 X156.595 Y30.825 E145.70082
G1 X156.250 Y31.038 E145.74896
G1 X155.506 Y32.521 E145.94601
G1 X154.664 Y32.801 E146.05140
G1 X154.173 Y32.555 E146.11669
G1 X153.802 Y32.571 E146.16081
G1 X153.342 Y32.855 E146.22501
G1 X153.055 Y32.936 E146.26042
G1 X150.693 Y32.936 E146.54095
G1 X150.377 Y32.760 E146.58386
G1 X150.078 Y32.732 E146.61956
G1 X149.871 Y32.801 E146.64545
G1 X149.372 Y32.551 E146.71180
G1 X149.088 Y32.530 E146.74554
G1 X148.274 Y32.801 E146.84752
G1 X147.782 Y32.555 E146.91281
G1 X147.411 Y32.571 E146.95692
G1 X146.951 Y32.855 E147.02113
G1 X146.664 Y32.936 E147.05654
G1 X144.302 Y32.936 E147.33706
G1 X144.155 Y32.855 E147.35702
G1 X143.873 Y32.822 E147.39076
G1 X143.469 Y32.936 E147.44069
G1 X141.107 Y32.936 E147.72121
G1 X140.791 Y32.760 E147.76412
G1 X140.492 Y32.732 E147.79982
G1 X140.285 Y32.801 E147.82571
G1 X139.786 Y32.551 E147.89206
G1 X139.502 Y32.530 E147.92580
G1 X138.687 Y32.801 E148.02778
G1 X138.196 Y32.555 E148.09307
G1 X137.825 Y32.571 E148.13719
G1 X137.365 Y32.855 E148.20139
G1 X137.078 Y32.936 E148.23680
G1 X134.716 Y32.936 E148.51732
G1 X134.569 Y32.855 E148.53728
G1 X134.287 Y32.822 E148.57102
G1 X133.883 Y32.936 E148.62095
G1 X131.521 Y32.936 E148.90147
G1 X131.205 Y32.760 E148.94439
G1 X130.906 Y32.732 E148.98008
G1 X130.699 Y32.801 E149.00597
G1 X129.191 Y32.045 E149.20638
G1 X128.875 Y31.095 E149.32527
G1 X128.549 Y30.860 E149.37295
G1 E148.57295 F2400.00000
G92 E0
G1 X43.504 Y64.687 F7800.000
G1 E0.80000 F2400.00000
G1 X44.113 Y65.187 E0.89356 F1800.000
G1 X44.230 Y65.148 E0.90819
G1 X45.210 Y65.639 E1.03834
G1 X45.303 Y65.920 E1.07347
G1 X44.163 Y68.194 E1.37556
G1 X44.190 Y68.582 E1.42184
G1 X44.821 Y69.504 E1.55449
G1 X44.852 Y69.594 E1.56585
G1 X44.874 Y69.907 E1.60314
G1 X44.855 Y70.001 E1.61450
G1 X43.631 Y72.442 E1.93883
G1 X43.658 Y72.831 E1.98511
G1 X44.289 Y73.752 E2.11775
G1 X44.321 Y73.843 E2.12911
G1 X44.342 Y74.156 E2.16640
G1 X44.323 Y74.250 E2.17776
G1 X42.792 Y77.306 E2.58373
G1 X42.978 Y77.867 E2.65400
G1 X43.694 Y78.226 E2.74910
G1 X43.787 Y78.507 E2.78424
G1 X42.568 Y80.940 E3.10749
G1 X42.594 Y81.329 E3.15377
G1 X43.226 Y82.250 E3.28641
G1 X43.257 Y82.340 E3.29777
G1 X43.278 Y82.654 E3.33506
G1 X43.259 Y82.747 E3.34642
G1 X41.728 Y85.803 E3.75239
G1 X41.914 Y86.365 E3.82266
G1 X42.630 Y86.724 E3.91776
G1 X42.724 Y87.004 E3.95290
G1 X41.504 Y89.438 E4.27615
G1 X41.531 Y89.826 E4.32244
G1 X42.162 Y90.748 E4.45507
G1 X42.193 Y90.838 E4.46644
G1 X42.215 Y91.151 E4.50372
G1 X42.196 Y91.245 E4.51509
G1 X40.972 Y93.686 E4.83942
G1 X40.999 Y94.075 E4.88570
G1 X41.630 Y94.996 E5.01834
G1 X41.661 Y95.087 E5.02970
G1 X41.683 Y95.400 E5.06699
G1 X41.664 Y95.494 E5.07835
G1 X40.440 Y97.935 E5.40269
G1 X40.467 Y98.324 E5.44897
G1 X41.098 Y99.245 E5.58160
G1 X41.130 Y99.336 E5.59297
G1 X41.151 Y99.649 E5.63025
G1 X41.132 Y99.743 E5.64162
G1 X39.707 Y102.585 E6.01925
G1 X38.951 Y102.837 E6.11395
