; generated by Slic3r 1.2.9 on 2017-01-20 at 09:32:58

; external perimeters extrusion width = 0.40mm
; perimeters extrusion width = 0.48mm
; infill extrusion width = 0.48mm
; solid infill extrusion width = 0.48mm
; top infill extrusion width = 0.48mm
; support material extrusion width = 0.40mm

M107
M190 S65 ; set bed temperature
M104 S205 ; set temperature
G28 ; home all axes
G1 Z5 F5000 ; lift nozzle
M92 X80
M92 Y80
M92 Z2565

M109 S205 ; wait for temperature to be reached
G21 ; set units to millimeters
G90 ; use absolute coordinates
M82 ; use absolute distances for extrusion
G92 E0
G1 Z0.400 F7800.000
G1 E-0.80000 F2400.00000
G92 E0
G1 X17.501 Y18.880 F7800.000
G1 E0.80000 F2400.00000
G1 X19.033 Y17.565 E1.03972 F1800.000
G1 X21.552 Y16.906 E1.34902
G1 X174.448 Y16.906 E19.50771
G1 X176.427 Y17.302 E19.74743
G1 X178.101 Y18.429 E19.98715 F1800.000
G1 X179.213 Y20.114 E20.22686
G1 X179.590 Y22.048 E20.46091
G1 X179.590 Y169.952 E38.02673
G1 X179.194 Y171.931 E38.26644
G1 X178.067 Y173.605 E38.50616
G1 X176.382 Y174.717 E38.74588
G1 X174.448 Y175.094 E38.97993
G1 X40.348 Y175.094 E54.90634
G1 X38.369 Y174.698 E55.14606
G1 X36.695 Y173.571 E55.38577
G1 X35.583 Y171.886 E55.62549
G1 X35.246 Y170.600 E55.78336
G1 X16.451 Y22.696 E73.49044
G1 X16.594 Y20.683 E73.73015
G1 X17.474 Y18.934 E73.96274
G1 X18.160 Y19.250 F7800.000
G1 X18.238 Y19.111 E73.98179 F1800.000
G1 X19.748 Y18.004 E74.20406
G1 X21.552 Y17.620 E74.42317
G1 X174.448 Y17.620 E92.58186
G1 X176.277 Y18.015 E92.80413
G1 X177.780 Y19.131 E93.02641 F1800.000
G1 X178.687 Y20.768 E93.24868
G1 X178.876 Y22.048 E93.40236
G1 X178.876 Y169.952 E110.96818
G1 X178.481 Y171.781 E111.19045
G1 X177.365 Y173.284 E111.41272
G1 X175.728 Y174.191 E111.63500
G1 X174.448 Y174.380 E111.78869
G1 X40.348 Y174.380 E127.71510
G1 X38.519 Y173.985 E127.93737
G1 X37.016 Y172.869 E128.15964
G1 X35.955 Y170.510 E128.46683
G1 X17.159 Y22.606 E146.17391
G1 X17.321 Y20.742 E146.39618
G1 X18.130 Y19.303 E146.59228
G1 X18.792 Y19.657 F7800.000
G1 X18.975 Y19.374 E146.63232 F1800.000
G1 X20.448 Y18.502 E146.83565
G1 X21.552 Y18.334 E146.96826
G1 X174.448 Y18.334 E165.12695
G1 X176.114 Y18.729 E165.33028
G1 X177.426 Y19.829 E165.53362 F1800.000
G1 X178.162 Y22.048 E165.81134
G1 X178.162 Y169.952 E183.37716
G1 X177.767 Y171.618 E183.58050
G1 X176.667 Y172.930 E183.78383
G1 X174.448 Y173.666 E184.06156
G1 X40.348 Y173.666 E199.98797
G1 X38.682 Y173.271 E200.19131
G1 X37.370 Y172.171 E200.39465
G1 X36.663 Y170.420 E200.61893
G1 X17.868 Y22.516 E218.32601
G1 X18.049 Y20.814 E218.52935
G1 X18.760 Y19.708 E218.68553
G1 E217.88553 F2400.00000
G92 E0
G1 X20.728 Y21.363 F7800.000
G1 E0.80000 F2400.00000
G1 X21.068 Y20.977 E0.86105 F1800.000
G1 X30.376 Y20.977 E1.96646
G1 X30.983 Y21.513 E2.06269
G1 X31.771 Y27.805 E2.81577 F1800.000
G1 X32.176 Y28.162 E2.87993
G1 X100.731 Y28.162 E11.02195
G1 X101.150 Y27.744 E11.09221
G1 X101.150 Y21.604 E11.82138
G1 X101.777 Y20.977 E11.92678
G1 X104.771 Y20.977 E12.28232
G1 X105.398 Y21.604 E12.38772
G1 X105.398 Y31.877 E13.60778
G1 X104.771 Y32.505 E13.71318
G1 X32.846 Y32.505 E22.25536
G1 X32.419 Y32.988 E22.33190
G1 X48.420 Y160.818 E37.63208
G1 X48.825 Y161.175 E37.69623
G1 X56.002 Y161.175 E38.54860
G1 X56.630 Y161.803 E38.65400
G1 X56.630 Y170.396 E39.67454
G1 X56.002 Y171.023 E39.77994
G1 X39.943 Y171.023 E41.68719
G1 X39.336 Y170.488 E41.78328
G1 X20.428 Y21.703 E59.59589
G1 X20.689 Y21.408 E59.64266
G1 E58.84266 F2400.00000
G92 E0
G1 X30.106 Y21.691 F7800.000
G1 E0.80000 F2400.00000
G1 X30.308 Y21.870 E0.83208 F1800.000
G1 X31.140 Y28.519 E1.62794
G1 X31.545 Y28.877 E1.69210
G1 X101.446 Y28.877 E9.99380
G1 X101.864 Y28.458 E10.06406
G1 X101.864 Y21.900 E10.84292
G1 X102.073 Y21.691 E10.87805
G1 X104.475 Y21.691 E11.16333
G1 X104.684 Y21.900 E11.19846
G1 X104.684 Y31.582 E12.34825
G1 X104.475 Y31.791 E12.38339
G1 X32.037 Y31.791 E20.98653
G1 X31.610 Y32.274 E21.06307
G1 X47.790 Y161.532 E36.53421
G1 X48.195 Y161.889 E36.59837
G1 X55.707 Y161.889 E37.49046
G1 X55.916 Y162.098 E37.52560
G1 X55.916 Y170.100 E38.47588
G1 X55.707 Y170.309 E38.51101
G1 X40.213 Y170.309 E40.35109
G1 X40.011 Y170.131 E40.38312
G1 X21.177 Y21.933 E58.12538
G1 X21.391 Y21.691 E58.16369
G1 X30.046 Y21.691 E59.19158
G1 E58.39158 F2400.00000
G92 E0
G1 X164.963 Y21.612 F7800.000
G1 E0.80000 F2400.00000
G1 X165.590 Y20.977 E0.90602 F1800.000
G1 X174.891 Y20.977 E2.01065
G1 X175.519 Y21.604 E2.11605
G1 X175.519 Y33.309 E3.50620 F1800.000
G1 X174.892 Y33.937 E3.61155
G1 X165.598 Y33.943 E4.71538
G1 X164.970 Y33.315 E4.82077
G1 X164.963 Y21.672 E6.20364
G1 X165.677 Y21.900 F7800.000
G1 X165.886 Y21.691 E6.23879 F1800.000
G1 X174.596 Y21.691 E7.27314
G1 X174.805 Y21.900 E7.30827 F1800.000
G1 X174.805 Y33.014 E8.62818
G1 X174.596 Y33.223 E8.66329
G1 X165.893 Y33.228 E9.69687
G1 X165.684 Y33.019 E9.73200
G1 X165.677 Y21.960 E11.04540
G1 E10.24540 F2400.00000
G92 E0
G1 X137.002 Y21.900 F7800.000
G1 E0.80000 F2400.00000
G1 X137.002 Y34.848 E2.33777 F1800.000
G1 X136.375 Y35.476 E2.44316
G1 X133.868 Y35.476 E2.74088
G1 X133.240 Y34.848 E2.84628
G1 X133.240 Y21.604 E4.41919
G1 X133.868 Y20.977 E4.52459
G1 X136.375 Y20.977 E4.82231
G1 X137.002 Y21.604 E4.92771
G1 X137.002 Y21.840 E4.95573 F1800.000
G1 E4.15573 F2400.00000
G92 E0
G1 X133.955 Y21.900 F7800.000
G1 E0.80000 F2400.00000
G1 X134.164 Y21.691 E0.83513 F1800.000
G1 X136.079 Y21.691 E1.06258
G1 X136.288 Y21.900 E1.09772
G1 X136.288 Y34.553 E2.60037
G1 X136.079 Y34.762 E2.63550
G1 X134.164 Y34.762 E2.86295
G1 X133.955 Y34.553 E2.89809
G1 X133.955 Y21.960 E4.39361
G1 E3.59361 F2400.00000
G92 E0
G1 X133.955 Y48.233 F7800.000
G1 E0.80000 F2400.00000
G1 X136.375 Y48.233 E1.08743 F1800.000
G1 X137.002 Y48.861 E1.19282
G1 X137.002 Y92.268 E6.34804 F1800.000
G1 X137.421 Y92.686 E6.41831
G1 X164.587 Y92.686 E9.64478
G1 X165.006 Y92.267 E9.71508
G1 X164.980 Y50.448 E14.68183
G1 X165.608 Y49.820 E14.78723
G1 X174.891 Y49.814 E15.88980
G1 X175.519 Y50.442 E15.99524
G1 X175.519 Y170.396 E30.24160
G1 X174.892 Y171.023 E30.34699
G1 X120.924 Y171.023 E36.75641
G1 X120.297 Y170.396 E36.86181
G1 X120.297 Y161.803 E37.88236
G1 X120.924 Y161.175 E37.98775
G1 X164.629 Y161.175 E43.17835
G1 X165.048 Y160.756 E43.24865
G1 X165.009 Y97.484 E50.76316
G1 X164.591 Y97.066 E50.83339
G1 X133.868 Y97.066 E54.48219
G1 X133.240 Y96.439 E54.58758
G1 X133.240 Y48.861 E60.23818
G1 X133.868 Y48.233 E60.34358
G1 X133.895 Y48.233 E60.34675
G1 X133.955 Y49.157 F7800.000
G1 X134.164 Y48.948 E60.38188 F1800.000
G1 X136.079 Y48.948 E60.60933
G1 X136.288 Y49.157 E60.64446
G1 X136.288 Y92.982 E65.84937
G1 X136.706 Y93.400 E65.91963
G1 X165.302 Y93.400 E69.31579
G1 X165.720 Y92.982 E69.38609
G1 X165.695 Y50.743 E74.40258
G1 X165.904 Y50.534 E74.43771
G1 X174.596 Y50.528 E75.47000
G1 X174.805 Y50.738 E75.50515
G1 X174.805 Y170.100 E89.68122
G1 X174.596 Y170.309 E89.71636
G1 X121.220 Y170.309 E96.05551
G1 X121.011 Y170.100 E96.09064
G1 X121.011 Y162.098 E97.04092
G1 X121.220 Y161.889 E97.07606
G1 X165.344 Y161.889 E102.31639
G1 X165.762 Y161.471 E102.38668
G1 X165.723 Y96.770 E110.07083
G1 X165.304 Y96.352 E110.14107
G1 X134.164 Y96.352 E113.83949
G1 X133.955 Y96.143 E113.87462
G1 X133.955 Y49.217 E119.44783
G1 E118.64783 F2400.00000
G92 E0
G1 X166.478 Y94.157 F7800.000
G1 E0.80000 F2400.00000
G1 X166.452 Y51.290 E5.89110 F1800.000
G1 X174.048 Y51.286 E6.79322
G1 X174.048 Y169.552 E20.83911
G1 X121.768 Y169.552 E27.04812
G1 X121.768 Y162.646 E27.86826
G1 X166.520 Y162.646 E33.18321
G1 X166.479 Y95.595 E41.14655
G1 X134.712 Y95.595 E44.91942
G1 X134.712 Y49.705 E50.36961
G1 X135.531 Y49.705 E50.46692
G1 X135.531 Y94.157 E55.74635
G1 X166.418 Y94.157 E59.41467
G1 X166.878 Y94.157 F7800.000
G1 X167.235 Y163.360 F7800.000
G1 X167.167 Y52.004 E72.63994 F1800.000
G1 X173.334 Y52.000 E73.37236
G1 X173.334 Y168.838 E87.24857
G1 X122.482 Y168.838 E93.28794
G1 X122.482 Y163.360 E93.93845
G1 X167.175 Y163.360 E99.24632
G1 X167.949 Y164.075 F7800.000
G1 X167.881 Y52.718 E112.47164 F1800.000
G1 X172.620 Y52.715 E113.03438
G1 X172.620 Y168.124 E126.74090
G1 X123.197 Y168.124 E132.61064
G1 X123.197 Y164.075 E133.09151
G1 X167.889 Y164.075 E138.39944
G1 X123.632 Y167.345 F7800.000
G1 X123.975 Y167.688 E138.45732 F1800.000
G1 X124.990 Y167.688 E138.57847
G1 X123.632 Y166.330 E138.80770
G1 X123.632 Y165.315 E138.92885
G1 X126.005 Y167.688 E139.32940
G1 X127.020 Y167.688 E139.45055
G1 X123.842 Y164.510 E139.98697
G1 X124.857 Y164.510 E140.10812
G1 X128.035 Y167.688 E140.64454
G1 X129.050 Y167.688 E140.76569
G1 X125.872 Y164.510 E141.30211
G1 X126.887 Y164.510 E141.42326
G1 X130.065 Y167.688 E141.95968
G1 X131.080 Y167.688 E142.08084
G1 X127.902 Y164.510 E142.61725
G1 X128.917 Y164.510 E142.73841
G1 X132.095 Y167.688 E143.27482
G1 X133.110 Y167.688 E143.39598
G1 X129.932 Y164.510 E143.93239
G1 X130.947 Y164.510 E144.05355
G1 X134.125 Y167.688 E144.58997
G1 X135.140 Y167.688 E144.71112
G1 X131.962 Y164.510 E145.24754
G1 X132.977 Y164.510 E145.36869
G1 X136.155 Y167.688 E145.90511
G1 X137.170 Y167.688 E146.02626
G1 X133.992 Y164.510 E146.56268
G1 X135.007 Y164.510 E146.68383
G1 X138.185 Y167.688 E147.22025
G1 X139.200 Y167.688 E147.34140
G1 X136.022 Y164.510 E147.87782
G1 X137.037 Y164.510 E147.99897
G1 X140.215 Y167.688 E148.53539
G1 X141.230 Y167.688 E148.65654
G1 X138.052 Y164.510 E149.19296
G1 X139.067 Y164.510 E149.31411
G1 X142.245 Y167.688 E149.85053
G1 X143.260 Y167.688 E149.97168
G1 X140.082 Y164.510 E150.50810
G1 X141.098 Y164.510 E150.62925
G1 X144.275 Y167.688 E151.16567
G1 X145.290 Y167.688 E151.28682
G1 X142.113 Y164.510 E151.82324
G1 X143.128 Y164.510 E151.94439
G1 X146.305 Y167.688 E152.48081
G1 X147.320 Y167.688 E152.60196
G1 X144.143 Y164.510 E153.13838
G1 X145.158 Y164.510 E153.25953
G1 X148.335 Y167.688 E153.79595
G1 X149.350 Y167.688 E153.91710
G1 X146.173 Y164.510 E154.45352
G1 X147.188 Y164.510 E154.57467
G1 X150.365 Y167.688 E155.11109
G1 X151.381 Y167.688 E155.23224
G1 X148.203 Y164.510 E155.76866
G1 X149.218 Y164.510 E155.88981
G1 X152.396 Y167.688 E156.42623
G1 X153.411 Y167.688 E156.54738
G1 X150.233 Y164.510 E157.08380
G1 X151.248 Y164.510 E157.20495
G1 X154.426 Y167.688 E157.74137
G1 X155.441 Y167.688 E157.86252
G1 X152.263 Y164.510 E158.39894
G1 X153.278 Y164.510 E158.52009
G1 X156.456 Y167.688 E159.05651
G1 X157.471 Y167.688 E159.17766
G1 X154.293 Y164.510 E159.71408
G1 X155.308 Y164.510 E159.83523
G1 X158.486 Y167.688 E160.37165
G1 X159.501 Y167.688 E160.49280
G1 X156.323 Y164.510 E161.02922
G1 X157.338 Y164.510 E161.15037
G1 X160.516 Y167.688 E161.68679
G1 X161.531 Y167.688 E161.80794
G1 X158.353 Y164.510 E162.34436
G1 X159.368 Y164.510 E162.46552
G1 X162.546 Y167.688 E163.00193
G1 X163.561 Y167.688 E163.12309
G1 X160.383 Y164.510 E163.65950
G1 X161.398 Y164.510 E163.78066
G1 X164.576 Y167.688 E164.31707
G1 X165.591 Y167.688 E164.43823
G1 X162.413 Y164.510 E164.97464
G1 X163.428 Y164.510 E165.09580
G1 X166.606 Y167.688 E165.63222
G1 X167.621 Y167.688 E165.75337
G1 X164.443 Y164.510 E166.28979
G1 X165.458 Y164.510 E166.41094
G1 X168.636 Y167.688 E166.94736
G1 X169.651 Y167.688 E167.06851
G1 X166.473 Y164.510 E167.60493
G1 X167.488 Y164.510 E167.72608
G1 X170.666 Y167.688 E168.26250
G1 X171.681 Y167.688 E168.38365
G1 X168.385 Y164.392 E168.94001
G1 X168.384 Y163.376 E169.06123
G1 X172.184 Y167.176 E169.70262
G1 X172.184 Y166.161 E169.82377
G1 X168.384 Y162.361 E170.46527
G1 X168.383 Y161.345 E170.58649
G1 X172.184 Y165.146 E171.22809
G1 X172.184 Y164.131 E171.34924
G1 X168.382 Y160.329 E171.99095
G1 X168.382 Y159.314 E172.11217
G1 X172.184 Y163.116 E172.75398
G1 X172.184 Y162.101 E172.87513
G1 X168.381 Y158.298 E173.51705
G1 X168.381 Y157.283 E173.63827
G1 X172.184 Y161.086 E174.28029
G1 X172.184 Y160.071 E174.40144
G1 X168.380 Y156.267 E175.04356
G1 X168.379 Y155.251 E175.16479
G1 X172.184 Y159.056 E175.80701
G1 X172.184 Y158.041 E175.92817
G1 X168.379 Y154.236 E176.57050
G1 X168.378 Y153.220 E176.69172
G1 X172.184 Y157.026 E177.33416
G1 X172.184 Y156.011 E177.45531
G1 X168.378 Y152.204 E178.09785
G1 X168.377 Y151.189 E178.21907
G1 X172.184 Y154.996 E178.86172
G1 X172.184 Y153.981 E178.98287
G1 X168.376 Y150.173 E179.62562
G1 X168.376 Y149.157 E179.74684
G1 X172.184 Y152.966 E180.38969
G1 X172.184 Y151.951 E180.51085
G1 X168.375 Y148.142 E181.15380
G1 X168.374 Y147.126 E181.27503
G1 X172.184 Y150.936 E181.91809
G1 X172.184 Y149.921 E182.03924
G1 X168.374 Y146.111 E182.68241
G1 X168.373 Y145.095 E182.80363
G1 X172.184 Y148.906 E183.44690
G1 X172.184 Y147.891 E183.56805
G1 X168.373 Y144.079 E184.21143
G1 X168.372 Y143.064 E184.33265
G1 X172.184 Y146.876 E184.97613
G1 X172.184 Y145.861 E185.09728
G1 X168.371 Y142.048 E185.74087
G1 X168.371 Y141.032 E185.86209
G1 X172.184 Y144.846 E186.50578
G1 X172.184 Y143.831 E186.62693
G1 X168.370 Y140.017 E187.27072
G1 X168.369 Y139.001 E187.39195
G1 X172.184 Y142.816 E188.03584
G1 X172.184 Y141.801 E188.15700
G1 X168.369 Y137.985 E188.80100
G1 X168.368 Y136.970 E188.92222
G1 X172.184 Y140.786 E189.56633
G1 X172.184 Y139.771 E189.68748
G1 X168.368 Y135.954 E190.33169
G1 X168.367 Y134.938 E190.45291
G1 X172.184 Y138.756 E191.09723
G1 X172.184 Y137.741 E191.21838
G1 X168.366 Y133.923 E191.86280
G1 X168.366 Y132.907 E191.98402
G1 X172.184 Y136.725 E192.62854
G1 X172.184 Y135.710 E192.74970
G1 X168.365 Y131.892 E193.39432
G1 X168.365 Y130.876 E193.51555
G1 X172.184 Y134.695 E194.16028
G1 X172.184 Y133.680 E194.28143
G1 X168.364 Y129.860 E194.92627
G1 X168.363 Y128.845 E195.04749
G1 X172.184 Y132.665 E195.69243
G1 X172.184 Y131.650 E195.81358
G1 X168.363 Y127.829 E196.45863
G1 X168.362 Y126.813 E196.57985
G1 X172.184 Y130.635 E197.22500
G1 X172.184 Y129.620 E197.34615
G1 X168.361 Y125.798 E197.99141
G1 X168.361 Y124.782 E198.11263
G1 X172.184 Y128.605 E198.75799
G1 X172.184 Y127.590 E198.87914
G1 X168.360 Y123.766 E199.52460
G1 X168.360 Y122.751 E199.64583
G1 X172.184 Y126.575 E200.29140
G1 X172.184 Y125.560 E200.41255
G1 X168.359 Y121.735 E201.05822
G1 X168.358 Y120.720 E201.17944
G1 X172.184 Y124.545 E201.82522
G1 X172.184 Y123.530 E201.94637
G1 X168.358 Y119.704 E202.59225
G1 X168.357 Y118.688 E202.71347
G1 X172.184 Y122.515 E203.35946
G1 X172.184 Y121.500 E203.48061
G1 X168.356 Y117.673 E204.12670
G1 X168.356 Y116.657 E204.24792
G1 X172.184 Y120.485 E204.89412
G1 X172.184 Y119.470 E205.01527
G1 X168.355 Y115.641 E205.66157
G1 X168.355 Y114.626 E205.78279
G1 X172.184 Y118.455 E206.42919
G1 X172.184 Y117.440 E206.55034
G1 X168.354 Y113.610 E207.19685
G1 X168.353 Y112.594 E207.31808
G1 X172.184 Y116.425 E207.96469
G1 X172.184 Y115.410 E208.08584
G1 X168.353 Y111.579 E208.73255
G1 X168.352 Y110.563 E208.85378
G1 X172.184 Y114.395 E209.50060
G1 X172.184 Y113.380 E209.62175
G1 X168.352 Y109.548 E210.26867
G1 X168.351 Y108.532 E210.38990
G1 X172.184 Y112.365 E211.03693
G1 X172.184 Y111.350 E211.15808
G1 X168.350 Y107.516 E211.80521
G1 X168.350 Y106.501 E211.92643
G1 X172.184 Y110.335 E212.57367
G1 X172.184 Y109.320 E212.69482
G1 X168.349 Y105.485 E213.34216
G1 X168.348 Y104.469 E213.46339
G1 X172.184 Y108.305 E214.11084
G1 X172.184 Y107.290 E214.23199
G1 X168.348 Y103.454 E214.87954
G1 X168.347 Y102.438 E215.00076
G1 X172.184 Y106.275 E215.64842
G1 X172.184 Y105.260 E215.76957
G1 X168.347 Y101.422 E216.41733
G1 X168.346 Y100.407 E216.53855
G1 X172.184 Y104.245 E217.18642
G1 X172.184 Y103.230 E217.30757
G1 X168.345 Y99.391 E217.95553
G1 X168.345 Y98.375 E218.07676
G1 X172.184 Y102.215 E218.72483
G1 X172.184 Y101.200 E218.84598
G1 X168.344 Y97.360 E219.49416
G1 X168.344 Y96.344 E219.61538
G1 X172.184 Y100.185 E220.26367
G1 X172.184 Y99.170 E220.38482
G1 X168.343 Y95.329 E221.03320
G1 X168.342 Y94.313 E221.15443
G1 X172.184 Y98.155 E221.80292
G1 X172.184 Y97.140 E221.92407
G1 X168.342 Y93.297 E222.57266
G1 X168.341 Y92.282 E222.69389
G1 X172.184 Y96.125 E223.34259
G1 X172.184 Y95.110 E223.46374
G1 X168.340 Y91.266 E224.11254
G1 X168.340 Y90.250 E224.23377
G1 X172.184 Y94.095 E224.88267
G1 X172.184 Y93.080 E225.00382
G1 X168.339 Y89.235 E225.65284
G1 X168.339 Y88.219 E225.77406
G1 X172.184 Y92.065 E226.42318
