;FLAVOR:RepRap
;TIME:3812
;Generated with Cura_SteamEngine 2.3.1
G21 ; set units to millimeters
G90 ; use absolute positioning
M82 ; absolute extrusion mode
G28 W ; home all without mesh bed level
G80 ; mesh bed leveling
M104 S180 ; set extruder temp
M140 S55 ; set bed temp
M190 S55 ; wait for bed temp
M109 S180 ; wait for extruder temp
G92 E0.0 ; reset extruder distance position
G1 Y-3.0 F1000.0 ; go outside print area
G1 X60.0 E9.0 F1000.0 ; intro line
G1 X100.0 E21.5 F1000.0 ; intro line
G92 E0.0 ; reset extruder distance position
;LAYER_COUNT:30
;LAYER:0
M107
G1 F2100 E-0.8
G0 F3600 X131.382 Y51.781 Z.15
G0 X131.573 Y51.329
;TYPE:SKIRT
G1 F2100 E0
G1 F1800 X131.815 Y50.851 E0.01336
G1 X132.092 Y50.392 E0.02674
G1 X132.415 Y50 E0.03941
G1 X132.893 Y49.496 E0.05674
G1 X133.29 Y49.135 E0.07012
G1 X133.736 Y48.838 E0.08349
G1 X134.016 Y48.695 E0.09133
G1 X134.727 Y48.372 E0.11081
G1 X135.23 Y48.188 E0.12417
G1 X135.889 Y48.065 E0.14089
G1 X136.546 Y48.005 E0.15735
G1 X136.874 Y47.99 E0.16554
G1 X173.331 Y48.002 E1.07497
G1 X174.057 Y48.076 E1.09317
G1 X174.532 Y48.174 E1.10527
G1 X175.048 Y48.321 E1.11865
G1 X175.582 Y48.569 E1.13334
G1 X176.239 Y48.942 E1.15218
G1 X176.685 Y49.241 E1.16558
G1 X177.24 Y49.784 E1.18495
G1 X177.652 Y50.284 E1.20111
G1 X177.962 Y50.722 E1.21449
G1 X178.264 Y51.361 E1.23213
G1 X178.521 Y52.08 E1.25117
G1 X178.663 Y52.597 E1.26455
G1 X178.731 Y53.324 E1.28276
G1 X178.725 Y54.005 E1.29975
G1 X178.672 Y54.588 E1.31435
G1 X164.148 Y138.344 E3.43483
G1 X163.362 Y143.794 E3.57219
G1 X162.888 Y149.235 E3.70843
G1 X162.694 Y154.256 E3.83377
G1 X162.61 Y154.903 E3.85005
G1 X162.437 Y155.676 E3.86981
G1 X162.281 Y156.189 E3.88318
G1 X162.173 Y156.44 E3.89
G1 X161.704 Y157.423 E3.91717
G1 X161.438 Y157.889 E3.93055
G1 X161.146 Y158.264 E3.94241
G1 X160.292 Y159.225 E3.97448
G1 X159.907 Y159.599 E3.98787
G1 X159.64 Y159.801 E3.99622
G1 X159.013 Y160.232 E4.0152
G1 X158.398 Y160.571 E4.03272
G1 X157.634 Y160.9 E4.05347
G1 X157.038 Y161.098 E4.06913
G1 X156.386 Y161.252 E4.08585
G1 X155.654 Y161.347 E4.10426
G1 X154.602 Y161.375 E4.13051
G1 X154.066 Y161.349 E4.1439
G1 X153.756 Y161.297 E4.15174
G1 X152.836 Y161.101 E4.1752
G1 X152.321 Y160.95 E4.18859
G1 X151.942 Y160.783 E4.19892
G1 X150.82 Y160.207 E4.23038
G1 X150.362 Y159.927 E4.24377
G1 X149.998 Y159.626 E4.25556
G1 X149.174 Y158.851 E4.28377
G1 X148.667 Y158.259 E4.30322
G1 X148.295 Y157.714 E4.31968
G1 X147.94 Y157.057 E4.33831
G1 X147.525 Y156.051 E4.36545
G1 X147.358 Y155.541 E4.37884
G1 X147.293 Y155.215 E4.38713
G1 X147.148 Y154.253 E4.4114
G1 X147.11 Y153.827 E4.42207
G1 X147 Y150.245 E4.51146
G1 X146.581 Y144.744 E4.64908
G1 X146.259 Y142.051 E4.71674
G1 X145.683 Y138.292 E4.8116
G1 X131.134 Y54.13 E6.94217
G1 X131.082 Y53.596 E6.95555
G1 X131.141 Y52.862 E6.97392
G1 X131.245 Y52.3 E6.98818
G1 X131.382 Y51.781 E7.00157
G1 X131.573 Y51.329 E7.01381
G0 F3600 X131.93 Y51.51
G1 F1800 X132.172 Y51.032 E7.02718
G1 X132.435 Y50.6 E7.03979
G1 X132.705 Y50.275 E7.05033
G1 X133.183 Y49.771 E7.06766
G1 X133.559 Y49.433 E7.08027
G1 X134.181 Y49.06 E7.09836
G1 X134.892 Y48.737 E7.11784
G1 X135.368 Y48.564 E7.13048
G1 X135.925 Y48.463 E7.1446
G1 X136.582 Y48.403 E7.16105
G1 X136.874 Y48.39 E7.16835
G1 X173.331 Y48.402 E8.07777
G1 X173.977 Y48.468 E8.09397
G1 X174.452 Y48.566 E8.10607
G1 X174.937 Y48.707 E8.11867
G1 X175.385 Y48.917 E8.13101
G1 X176.042 Y49.29 E8.14985
G1 X176.46 Y49.574 E8.16246
G1 X176.932 Y50.038 E8.17897
G1 X177.344 Y50.538 E8.19513
G1 X177.633 Y50.952 E8.20773
G1 X177.887 Y51.496 E8.2227
G1 X178.144 Y52.215 E8.24175
G1 X178.276 Y52.703 E8.25436
G1 X178.331 Y53.32 E8.26981
G1 X178.325 Y54.001 E8.2868
G1 X178.278 Y54.52 E8.2998
G1 X163.754 Y138.278 E10.42033
G1 X162.966 Y143.739 E10.55797
G1 X162.489 Y149.205 E10.69484
G1 X162.295 Y154.24 E10.82053
G1 X162.22 Y154.816 E10.83502
G1 X162.047 Y155.589 E10.85478
G1 X161.812 Y156.268 E10.8727
G1 X161.343 Y157.251 E10.89987
G1 X161.09 Y157.689 E10.91249
G1 X160.847 Y157.999 E10.92231
G1 X159.993 Y158.96 E10.95438
G1 X159.628 Y159.31 E10.967
G1 X159.414 Y159.471 E10.97368
G1 X158.787 Y159.902 E10.99266
G1 X158.24 Y160.204 E11.00824
G1 X157.476 Y160.533 E11.02899
G1 X156.946 Y160.708 E11.04292
G1 X156.294 Y160.862 E11.05963
G1 X155.643 Y160.947 E11.07601
G1 X154.591 Y160.975 E11.10226
G1 X153.839 Y160.906 E11.12109
G1 X152.919 Y160.71 E11.14456
G1 X152.435 Y160.566 E11.15716
G1 X152.125 Y160.427 E11.16563
G1 X151.003 Y159.851 E11.19709
G1 X150.572 Y159.585 E11.20973
G1 X150.272 Y159.335 E11.21947
G1 X149.448 Y158.56 E11.24768
G1 X148.997 Y158.033 E11.26499
G1 X148.625 Y157.488 E11.28145
G1 X148.31 Y156.904 E11.298
G1 X147.895 Y155.898 E11.32515
G1 X147.74 Y155.417 E11.33775
G1 X147.689 Y155.155 E11.34441
G1 X147.544 Y154.193 E11.36868
G1 X147.51 Y153.814 E11.37817
G1 X147.4 Y150.224 E11.46777
G1 X146.978 Y144.692 E11.60616
G1 X146.661 Y142.034 E11.67294
G1 X146.076 Y138.218 E11.76924
G1 X131.528 Y54.062 E13.89966
G1 X131.481 Y53.559 E13.91226
G1 X131.534 Y52.935 E13.92788
G1 X131.638 Y52.373 E13.94214
G1 X131.769 Y51.884 E13.95477
G1 X131.93 Y51.51 E13.96492
G1 F2100 E13.16492
G0 F3600 X134.224 Y52.537
G0 X135.406 Y53.087
G0 X135.461 Y53.109
G0 X135.369 Y53.073
;TYPE:WALL-INNER
G1 F2100 E13.96492
G1 F1800 X135.444 Y52.913 E13.96933
G1 X135.541 Y52.76 E13.97385
G1 X135.649 Y52.629 E13.97808
G1 X135.779 Y52.507 E13.98253
G1 X135.92 Y52.404 E13.98689
G1 X136.073 Y52.32 E13.99124
G1 X136.236 Y52.255 E13.99562
G1 X136.411 Y52.211 E14.00012
G1 X136.582 Y52.189 E14.00442
G1 X173.259 Y52.189 E14.91933
G1 X173.434 Y52.212 E14.92374
G1 X173.6 Y52.254 E14.92801
G1 X173.77 Y52.321 E14.93256
G1 X173.914 Y52.401 E14.93667
G1 X174.063 Y52.509 E14.94126
G1 X174.191 Y52.629 E14.94564
G1 X174.301 Y52.762 E14.94995
G1 X174.396 Y52.911 E14.95435
G1 X174.472 Y53.072 E14.9588
G1 X174.525 Y53.237 E14.96312
G1 X174.557 Y53.405 E14.96738
G1 X174.568 Y53.585 E14.97188
G1 X174.556 Y53.77 E14.97651
G1 X157.659 Y151.182 E17.44275
G1 X157.983 Y151.646 E17.45686
G1 X158.094 Y151.833 E17.46229
G1 X158.199 Y152.04 E17.46808
G1 X158.285 Y152.24 E17.47351
G1 X158.365 Y152.458 E17.4793
G1 X158.431 Y152.685 E17.4852
G1 X158.478 Y152.895 E17.49057
G1 X158.514 Y153.121 E17.49627
G1 X158.536 Y153.34 E17.50176
G1 X158.545 Y153.582 E17.50781
G1 X158.537 Y153.82 E17.51375
G1 X158.515 Y154.044 E17.51936
G1 X158.482 Y154.256 E17.52471
G1 X158.435 Y154.471 E17.5302
G1 X158.365 Y154.71 E17.53641
G1 X158.291 Y154.917 E17.5419
G1 X158.198 Y155.131 E17.54772
G1 X158.099 Y155.328 E17.55322
G1 X157.986 Y155.518 E17.55873
G1 X157.845 Y155.725 E17.56498
G1 X157.705 Y155.904 E17.57065
G1 X157.571 Y156.057 E17.57572
G1 X157.395 Y156.232 E17.58191
G1 X157.228 Y156.378 E17.58745
G1 X157.042 Y156.523 E17.59333
G1 X156.852 Y156.651 E17.59905
G1 X156.659 Y156.765 E17.60464
G1 X156.447 Y156.871 E17.61055
G1 X156.253 Y156.956 E17.61583
G1 X156.033 Y157.034 E17.62166
G1 X155.82 Y157.096 E17.62719
G1 X155.591 Y157.146 E17.63304
G1 X155.359 Y157.182 E17.63889
G1 X155.155 Y157.201 E17.644
G1 X154.915 Y157.209 E17.64999
G1 X154.675 Y157.2 E17.65599
G1 X154.455 Y157.179 E17.6615
G1 X154.232 Y157.144 E17.66713
G1 X154.032 Y157.099 E17.67224
G1 X153.778 Y157.024 E17.67885
G1 X153.583 Y156.954 E17.68402
G1 X153.356 Y156.854 E17.6902
G1 X153.18 Y156.764 E17.69514
G1 X152.969 Y156.638 E17.70127
G1 X152.785 Y156.513 E17.70682
G1 X152.6 Y156.368 E17.71268
G1 X152.426 Y156.214 E17.71848
G1 X152.274 Y156.062 E17.72384
G1 X152.128 Y155.894 E17.72939
G1 X151.98 Y155.704 E17.7354
G1 X151.857 Y155.522 E17.74088
G1 X151.743 Y155.33 E17.74645
G1 X151.635 Y155.116 E17.75243
G1 X151.551 Y154.921 E17.75772
G1 X151.47 Y154.694 E17.76374
G1 X151.404 Y154.467 E17.76963
G1 X151.359 Y154.264 E17.77482
G1 X151.322 Y154.031 E17.7807
G1 X151.304 Y153.829 E17.78576
G1 X151.295 Y153.591 E17.7917
G1 X151.304 Y153.34 E17.79797
G1 X151.322 Y153.137 E17.80305
G1 X151.36 Y152.901 E17.80902
G1 X151.407 Y152.691 E17.81438
G1 X151.474 Y152.461 E17.82036
G1 X151.552 Y152.244 E17.82611
G1 X151.641 Y152.038 E17.83171
G1 X151.735 Y151.854 E17.83686
G1 X151.856 Y151.648 E17.84282
G1 X152.181 Y151.182 E17.857
G1 X135.284 Y53.77 E20.32323
G1 X135.272 Y53.585 E20.32786
G1 X135.283 Y53.404 E20.33238
G1 X135.315 Y53.238 E20.3366
G1 X135.369 Y53.073 E20.34093
G0 F3600 X135.461 Y53.109
G0 X154.388 Y150.821
G0 X154.406 Y150.919
G1 F1800 X154.076 Y151.005 E20.34944
G1 X153.769 Y151.128 E20.35769
G1 X153.601 Y151.213 E20.36238
G1 X153.321 Y151.392 E20.37067
G1 X153.059 Y151.609 E20.37916
G1 X152.825 Y151.859 E20.3877
G1 X152.626 Y152.136 E20.39621
G1 X152.463 Y152.434 E20.40468
G1 X152.338 Y152.75 E20.41316
G1 X152.253 Y153.081 E20.42168
G1 X152.212 Y153.419 E20.43018
G1 X152.211 Y153.739 E20.43816
G1 X152.228 Y153.927 E20.44287
G1 X152.29 Y154.254 E20.45117
G1 X152.395 Y154.578 E20.45967
G1 X152.538 Y154.885 E20.46811
G1 X152.715 Y155.164 E20.47636
G1 X152.822 Y155.307 E20.48081
G1 X152.945 Y155.446 E20.48544
G1 X153.187 Y155.671 E20.49368
G1 X153.451 Y155.865 E20.50186
G1 X153.616 Y155.964 E20.50666
G1 X153.905 Y156.098 E20.5146
G1 X154.072 Y156.162 E20.51906
G1 X154.251 Y156.214 E20.52371
G1 X154.563 Y156.272 E20.53163
G1 X154.749 Y156.292 E20.5363
G1 X155.084 Y156.294 E20.54465
G1 X155.422 Y156.252 E20.55315
G1 X155.752 Y156.169 E20.56164
G1 X156.071 Y156.043 E20.57019
G1 X156.368 Y155.879 E20.57866
G1 X156.644 Y155.681 E20.58713
G1 X156.894 Y155.446 E20.59569
G1 X157.104 Y155.192 E20.60391
G1 X157.212 Y155.037 E20.60862
G1 X157.372 Y154.746 E20.61691
G1 X157.494 Y154.438 E20.62517
G1 X157.548 Y154.256 E20.62991
G1 X157.608 Y153.941 E20.63791
G1 X157.626 Y153.764 E20.64234
G1 X157.633 Y153.571 E20.64716
G1 X157.611 Y153.239 E20.65546
G1 X157.547 Y152.904 E20.66397
G1 X157.444 Y152.591 E20.67219
G1 X157.37 Y152.418 E20.67688
G1 X157.209 Y152.125 E20.68522
G1 X157.007 Y151.851 E20.69371
G1 X156.774 Y151.602 E20.70222
G1 X156.511 Y151.386 E20.71071
G1 X156.222 Y151.203 E20.71924
G1 X155.922 Y151.064 E20.72749
G1 X155.755 Y151.004 E20.73192
G1 X155.592 Y150.955 E20.73616
G1 X155.413 Y150.916 E20.74073
G1 X155.085 Y150.876 E20.74898
G1 X154.745 Y150.876 E20.75746
G1 X154.406 Y150.919 E20.76598
G0 F3600 X154.482 Y151.313
;TYPE:WALL-OUTER
G1 F1800 X154.201 Y151.386 E20.77322
G1 X153.934 Y151.493 E20.7804
G1 X153.799 Y151.561 E20.78417
G1 X153.557 Y151.716 E20.79134
G1 X153.334 Y151.901 E20.79857
G1 X153.134 Y152.114 E20.80585
G1 X152.965 Y152.349 E20.81307
G1 X152.826 Y152.604 E20.82032
G1 X152.719 Y152.874 E20.82756
G1 X152.647 Y153.155 E20.8348
G1 X152.612 Y153.444 E20.84206
G1 X152.611 Y153.721 E20.84897
G1 X152.625 Y153.872 E20.85275
G1 X152.678 Y154.155 E20.85994
G1 X152.768 Y154.431 E20.86718
G1 X152.89 Y154.693 E20.87439
G1 X153.044 Y154.936 E20.88156
G1 X153.133 Y155.054 E20.88525
G1 X153.232 Y155.167 E20.889
G1 X153.442 Y155.362 E20.89615
G1 X153.673 Y155.532 E20.9033
G1 X153.803 Y155.61 E20.90708
G1 X154.06 Y155.729 E20.91415
G1 X154.199 Y155.782 E20.91786
G1 X154.344 Y155.824 E20.92162
G1 X154.621 Y155.876 E20.92866
G1 X154.772 Y155.892 E20.93244
G1 X155.06 Y155.894 E20.93963
G1 X155.348 Y155.858 E20.94687
G1 X155.629 Y155.787 E20.9541
G1 X155.9 Y155.68 E20.96137
G1 X156.154 Y155.54 E20.9686
G1 X156.39 Y155.371 E20.97584
G1 X156.602 Y155.172 E20.98309
G1 X156.785 Y154.951 E20.99025
G1 X156.871 Y154.826 E20.99404
G1 X157.01 Y154.575 E21.00119
G1 X157.116 Y154.307 E21.00838
G1 X157.159 Y154.162 E21.01216
G1 X157.212 Y153.883 E21.01924
G1 X157.227 Y153.736 E21.02293
G1 X157.233 Y153.577 E21.0269
G1 X157.214 Y153.29 E21.03407
G1 X157.159 Y153.005 E21.04131
G1 X157.069 Y152.732 E21.04848
G1 X157.01 Y152.593 E21.05225
G1 X156.871 Y152.341 E21.05943
G1 X156.699 Y152.107 E21.06667
G1 X156.5 Y151.895 E21.07392
G1 X156.276 Y151.711 E21.08116
G1 X156.03 Y151.555 E21.08842
G1 X155.77 Y151.434 E21.09558
G1 X155.631 Y151.384 E21.09926
G1 X155.492 Y151.343 E21.10288
G1 X155.346 Y151.311 E21.1066
G1 X155.061 Y151.276 E21.11377
G1 X154.771 Y151.276 E21.121
G1 X154.482 Y151.313 E21.12827
G0 F3600 X154.357 Y150.829
G0 X152.251 Y151.004
G0 X151.759 Y151.088
G1 F1800 X134.886 Y53.817 E23.59094
G1 X134.871 Y53.585 E23.59674
G1 X134.886 Y53.352 E23.60256
G1 X134.926 Y53.141 E23.60792
G1 X134.997 Y52.924 E23.61361
G1 X135.093 Y52.719 E23.61926
G1 X135.216 Y52.525 E23.62499
G1 X135.355 Y52.356 E23.63045
G1 X135.525 Y52.197 E23.63626
G1 X135.706 Y52.065 E23.64184
G1 X135.9 Y51.959 E23.64736
G1 X136.115 Y51.873 E23.65314
G1 X136.337 Y51.817 E23.65885
G1 X136.554 Y51.789 E23.6643
G1 X173.287 Y51.789 E24.58061
G1 X173.503 Y51.817 E24.58605
G1 X173.725 Y51.874 E24.59176
G1 X173.941 Y51.959 E24.59755
G1 X174.133 Y52.065 E24.60303
G1 X174.315 Y52.197 E24.60863
G1 X174.485 Y52.356 E24.61444
G1 X174.624 Y52.525 E24.6199
G1 X174.748 Y52.719 E24.62564
G1 X174.845 Y52.926 E24.63134
G1 X174.913 Y53.138 E24.6369
G1 X174.954 Y53.352 E24.64233
G1 X174.969 Y53.585 E24.64816
G1 X174.954 Y53.817 E24.65396
G1 X158.081 Y151.088 E27.11663
G1 X158.32 Y151.43 E27.12703
G1 X158.448 Y151.646 E27.1333
G1 X158.556 Y151.859 E27.13926
G1 X158.661 Y152.103 E27.14588
G1 X158.744 Y152.33 E27.15191
G1 X158.815 Y152.573 E27.15823
G1 X158.873 Y152.832 E27.16485
G1 X158.911 Y153.07 E27.17086
G1 X158.936 Y153.321 E27.17715
G1 X158.945 Y153.582 E27.18367
G1 X158.937 Y153.842 E27.19015
G1 X158.912 Y154.096 E27.19652
G1 X158.874 Y154.336 E27.20258
G1 X158.819 Y154.583 E27.20889
G1 X158.748 Y154.826 E27.21521
G1 X158.662 Y155.065 E27.22155
G1 X158.559 Y155.304 E27.22804
G1 X158.449 Y155.522 E27.23413
G1 X158.32 Y155.739 E27.24043
G1 X158.168 Y155.962 E27.24716
G1 X158.02 Y156.151 E27.25315
G1 X157.853 Y156.341 E27.25946
G1 X157.674 Y156.519 E27.26575
G1 X157.474 Y156.694 E27.27238
G1 X157.28 Y156.845 E27.27852
G1 X157.066 Y156.989 E27.28495
G1 X156.852 Y157.116 E27.29116
G1 X156.623 Y157.23 E27.29754
G1 X156.392 Y157.331 E27.30383
G1 X156.162 Y157.413 E27.30992
G1 X155.909 Y157.486 E27.31649
G1 X155.673 Y157.538 E27.32252
G1 X155.411 Y157.579 E27.32913
G1 X155.17 Y157.601 E27.33517
G1 X154.913 Y157.609 E27.34158
G1 X154.656 Y157.6 E27.348
G1 X154.402 Y157.576 E27.35436
G1 X154.163 Y157.538 E27.3604
G1 X153.917 Y157.483 E27.36669
G1 X153.664 Y157.408 E27.37327
G1 X153.434 Y157.325 E27.37937
G1 X153.195 Y157.22 E27.38588
G1 X152.975 Y157.108 E27.39204
G1 X152.757 Y156.978 E27.39837
G1 X152.551 Y156.838 E27.40458
G1 X152.344 Y156.676 E27.41114
G1 X152.154 Y156.508 E27.41747
G1 X151.985 Y156.339 E27.42343
G1 X151.812 Y156.14 E27.43
G1 X151.664 Y155.95 E27.43601
G1 X151.519 Y155.736 E27.44246
G1 X151.39 Y155.518 E27.44878
G1 X151.278 Y155.297 E27.45496
G1 X151.176 Y155.061 E27.46137
G1 X151.093 Y154.829 E27.46752
G1 X151.02 Y154.579 E27.47402
G1 X150.965 Y154.332 E27.48033
G1 X150.926 Y154.086 E27.48654
G1 X150.904 Y153.843 E27.49263
G1 X150.895 Y153.591 E27.49892
G1 X150.904 Y153.326 E27.50553
G1 X150.927 Y153.073 E27.51187
G1 X150.965 Y152.837 E27.51783
G1 X151.02 Y152.59 E27.52415
G1 X151.094 Y152.335 E27.53077
G1 X151.176 Y152.108 E27.53679
G1 X151.281 Y151.864 E27.54342
G1 X151.39 Y151.651 E27.54938
G1 X151.517 Y151.435 E27.55563
G1 X151.759 Y151.088 E27.56619
G0 F3600 X152.329 Y151.763
G1 F1800 X152.57 Y151.439 E27.58049
G0 F3600 X152.254 Y150.557
;TYPE:SKIN
G1 F1800 X153.065 Y151.368 E27.6091
G0 X153.135 Y151.438
G0 F3600 X153.394 Y151.131
G1 F1800 X152.135 Y149.872 E27.65352
G0 X152.065 Y149.802
G0 F3600 X152.016 Y149.188
G1 F1800 X153.764 Y150.936 E27.71518
G0 X153.834 Y151.006
G0 F3600 X154.184 Y150.79
G1 F1800 X151.897 Y148.503 E27.79586
G0 X151.827 Y148.433
G0 F3600 X151.779 Y147.819
G1 F1800 X154.664 Y150.704 E27.89764
G0 X154.734 Y150.774
G0 F3600 X155.238 Y150.713
G1 F1800 X151.66 Y147.134 E28.02388
G0 X151.59 Y147.064
G0 F3600 X151.542 Y146.451
G1 F1800 X155.987 Y150.896 E28.18069
G0 X156.057 Y150.966
G0 F3600 X157.549 Y150.76
G1 F1800 X151.185 Y144.397 E28.40518
G0 X151.115 Y144.327
G0 F3600 X151.066 Y143.713
G1 F1800 X157.633 Y150.279 E28.63683
G0 X157.703 Y150.349
G0 F3600 X157.716 Y149.797
G1 F1800 X150.948 Y143.028 E28.87561
G0 X150.878 Y142.958
G0 F3600 X150.829 Y142.344
G1 F1800 X157.8 Y149.314 E29.12151
