;FLAVOR:RepRap
;TIME:2460
;Generated with Cura_SteamEngine 2.3.1
G21 ; set units to millimeters
G90 ; use absolute positioning
M82 ; absolute extrusion mode
G28 W ; home all without mesh bed level
G80 ; mesh bed leveling
M104 S200 ; set extruder temp
M140 S60 ; set bed temp
M190 S60 ; wait for bed temp
M109 S200 ; wait for extruder temp
G92 E0.0 ; reset extruder distance position
G1 Y-3.0 F1000.0 ; go outside print area
G1 X60.0 E9.0 F1000.0 ; intro line
G1 X100.0 E21.5 F1000.0 ; intro line
G92 E0.0 ; reset extruder distance position
;LAYER_COUNT:60
;LAYER:0
M107
G1 F2100 E-0.8
G0 F3600 X66.119 Y83.279 Z.15
;TYPE:SKIRT
G1 F2100 E0
G1 F1800 X66.685 Y82.868 E0.01745
G1 X67.014 Y82.679 E0.02691
G1 X67.268 Y82.589 E0.03364
G1 X67.951 Y82.402 E0.0513
G1 X68.426 Y82.338 E0.06326
G1 X131.396 Y82.331 E1.63405
G1 X131.634 Y82.347 E1.64
G1 X132.167 Y82.418 E1.65341
G1 X132.535 Y82.507 E1.66286
G1 X132.71 Y82.58 E1.66759
G1 X133.337 Y82.882 E1.68495
G1 X133.659 Y83.082 E1.6944
G1 X133.857 Y83.26 E1.70104
G1 X134.343 Y83.768 E1.71858
G1 X134.574 Y84.068 E1.72803
G1 X134.696 Y84.301 E1.73459
G1 X134.975 Y84.95 E1.75221
G1 X135.087 Y85.312 E1.76166
G1 X135.121 Y85.658 E1.77033
G1 X135.169 Y113.889 E2.47456
G1 X135.149 Y114.162 E2.48139
G1 X135.056 Y114.775 E2.49686
G1 X134.96 Y115.142 E2.50632
G1 X134.861 Y115.357 E2.51222
G1 X134.525 Y115.982 E2.52992
G1 X134.312 Y116.295 E2.53937
G1 X134.12 Y116.489 E2.54618
G1 X133.589 Y116.95 E2.56372
G1 X133.278 Y117.167 E2.57318
G1 X133.046 Y117.275 E2.57956
G1 X132.39 Y117.523 E2.59706
G1 X132.023 Y117.619 E2.60652
G1 X131.754 Y117.639 E2.61325
G1 X68.6 Y117.669 E4.18863
G1 X68.282 Y117.641 E4.19659
G1 X67.59 Y117.517 E4.21413
G1 X67.226 Y117.411 E4.22359
G1 X66.978 Y117.287 E4.2305
G1 X66.372 Y116.922 E4.24815
G1 X66.07 Y116.693 E4.25761
G1 X65.893 Y116.502 E4.2641
G1 X65.457 Y115.955 E4.28155
G1 X65.254 Y115.635 E4.291
G1 X65.155 Y115.394 E4.2975
G1 X64.938 Y114.732 E4.31488
G1 X64.848 Y114.172 E4.32903
G1 X64.832 Y86.012 E5.03148
G1 X64.877 Y85.613 E5.0415
G1 X65.032 Y84.93 E5.05897
G1 X65.154 Y84.571 E5.06843
G1 X65.284 Y84.338 E5.07508
G1 X65.674 Y83.746 E5.09277
G1 X65.914 Y83.453 E5.10222
G1 X66.119 Y83.279 E5.10892
G0 F3600 X66.354 Y83.603
G1 F1800 X66.92 Y83.192 E5.12637
G1 X67.212 Y83.03 E5.1347
G1 X67.373 Y82.975 E5.13895
G1 X68.056 Y82.788 E5.15661
G1 X68.426 Y82.738 E5.16592
G1 X131.396 Y82.731 E6.73672
G1 X131.581 Y82.743 E6.74134
G1 X132.114 Y82.814 E6.75476
G1 X132.537 Y82.941 E6.76577
G1 X133.164 Y83.243 E6.78313
G1 X133.568 Y83.536 E6.79558
G1 X134.054 Y84.044 E6.81312
G1 X134.328 Y84.459 E6.82552
G1 X134.607 Y85.108 E6.84315
G1 X134.702 Y85.429 E6.8515
G1 X134.721 Y85.659 E6.85725
G1 X134.769 Y113.89 E7.56148
G1 X134.753 Y114.102 E7.56678
G1 X134.66 Y114.715 E7.58225
G1 X134.509 Y115.168 E7.59416
G1 X134.173 Y115.793 E7.61186
G1 X133.981 Y116.066 E7.62019
G1 X133.858 Y116.187 E7.62449
G1 X133.327 Y116.648 E7.64203
G1 X132.904 Y116.901 E7.65433
G1 X132.248 Y117.149 E7.67182
G1 X131.924 Y117.229 E7.68015
G1 X131.754 Y117.239 E7.6844
G1 X68.6 Y117.269 E9.25978
G1 X68.352 Y117.247 E9.26599
G1 X67.66 Y117.123 E9.28353
G1 X67.341 Y117.025 E9.29185
G1 X67.185 Y116.944 E9.29624
G1 X66.579 Y116.579 E9.31388
G1 X66.206 Y116.253 E9.32624
G1 X65.77 Y115.706 E9.34369
G1 X65.535 Y115.269 E9.35607
G1 X65.318 Y114.607 E9.37344
G1 X65.248 Y114.172 E9.38443
G1 X65.232 Y86.012 E10.08689
G1 X65.267 Y85.701 E10.0947
G1 X65.422 Y85.018 E10.11217
G1 X65.534 Y84.704 E10.12048
G1 X65.618 Y84.558 E10.12468
G1 X66.008 Y83.966 E10.14237
G1 X66.224 Y83.711 E10.1507
G1 X66.354 Y83.603 E10.15492
G0 F3600 X66.589 Y83.927
G1 F1800 X67.155 Y83.516 E10.17237
G1 X67.479 Y83.36 E10.18134
G1 X68.162 Y83.173 E10.199
G1 X68.426 Y83.138 E10.20565
G1 X131.396 Y83.131 E11.77644
G1 X131.528 Y83.14 E11.77974
G1 X132.061 Y83.211 E11.79315
G1 X132.363 Y83.301 E11.80101
G1 X132.99 Y83.603 E11.81838
G1 X133.279 Y83.813 E11.82729
G1 X133.765 Y84.321 E11.84482
G1 X133.961 Y84.617 E11.85368
G1 X134.24 Y85.266 E11.8713
G1 X134.321 Y85.659 E11.88131
G1 X134.369 Y113.89 E12.58554
G1 X134.358 Y114.042 E12.58934
G1 X134.265 Y114.655 E12.60481
G1 X134.157 Y114.979 E12.61332
G1 X133.821 Y115.604 E12.63103
G1 X133.596 Y115.885 E12.64001
G1 X133.065 Y116.346 E12.65755
G1 X132.763 Y116.526 E12.66632
G1 X132.107 Y116.774 E12.68381
G1 X131.753 Y116.839 E12.69279
G1 X68.599 Y116.869 E14.26817
G1 X68.423 Y116.853 E14.27258
G1 X67.731 Y116.729 E14.29012
G1 X67.391 Y116.602 E14.29917
G1 X66.785 Y116.237 E14.31682
G1 X66.519 Y116.003 E14.32566
G1 X66.083 Y115.456 E14.3431
G1 X65.915 Y115.144 E14.35194
G1 X65.698 Y114.482 E14.36932
G1 X65.648 Y114.172 E14.37716
G1 X65.632 Y86.012 E15.07961
G1 X65.657 Y85.79 E15.08518
G1 X65.812 Y85.107 E15.10265
G1 X65.952 Y84.778 E15.11157
G1 X66.342 Y84.186 E15.12926
G1 X66.589 Y83.927 E15.13818
G0 F3600 X66.824 Y84.25
G1 F1800 X67.39 Y83.839 E15.15563
G1 X67.585 Y83.746 E15.16102
G1 X68.268 Y83.559 E15.17869
G1 X68.426 Y83.538 E15.18266
G1 X131.396 Y83.531 E16.75346
G1 X131.475 Y83.536 E16.75543
G1 X132.008 Y83.607 E16.76884
G1 X132.189 Y83.661 E16.77355
G1 X132.816 Y83.963 E16.79092
G1 X132.99 Y84.089 E16.79627
G1 X133.476 Y84.597 E16.81381
G1 X133.593 Y84.775 E16.81912
G1 X133.872 Y85.424 E16.83675
G1 X133.921 Y85.66 E16.84276
G1 X133.969 Y113.891 E17.54699
G1 X133.962 Y113.982 E17.54926
G1 X133.869 Y114.595 E17.56473
G1 X133.804 Y114.789 E17.56983
G1 X133.468 Y115.414 E17.58753
G1 X133.333 Y115.583 E17.59293
G1 X132.802 Y116.044 E17.61047
G1 X132.621 Y116.152 E17.61573
G1 X131.965 Y116.4 E17.63322
G1 X131.753 Y116.439 E17.6386
G1 X68.599 Y116.469 E19.21398
G1 X68.493 Y116.46 E19.21664
G1 X67.801 Y116.336 E19.23417
G1 X67.597 Y116.259 E19.23961
G1 X66.991 Y115.894 E19.25726
G1 X66.832 Y115.754 E19.26254
G1 X66.396 Y115.207 E19.27999
G1 X66.295 Y115.02 E19.28529
G1 X66.078 Y114.358 E19.30267
G1 X66.048 Y114.171 E19.3074
G1 X66.032 Y86.011 E20.00985
G1 X66.047 Y85.878 E20.01319
G1 X66.202 Y85.195 E20.03066
G1 X66.286 Y84.998 E20.036
G1 X66.676 Y84.406 E20.05369
G1 X66.824 Y84.25 E20.05905
G0 F3600 X67.01 Y84.626
G1 F1800 X67.059 Y84.574 E20.06083
G1 X67.625 Y84.163 E20.07828
G1 X67.69 Y84.132 E20.08008
G1 X68.373 Y83.945 E20.09774
G1 X68.426 Y83.938 E20.09908
G1 X131.396 Y83.931 E21.66987
G1 X131.422 Y83.933 E21.67052
G1 X131.955 Y84.004 E21.68393
G1 X132.016 Y84.022 E21.68552
G1 X132.643 Y84.324 E21.70288
G1 X132.701 Y84.366 E21.70467
G1 X133.187 Y84.874 E21.7222
G1 X133.226 Y84.933 E21.72397
G1 X133.505 Y85.582 E21.74159
G1 X133.521 Y85.661 E21.7436
G1 X133.569 Y113.892 E22.44783
G1 X133.567 Y113.922 E22.44858
G1 X133.474 Y114.535 E22.46404
G1 X133.452 Y114.6 E22.46576
G1 X133.116 Y115.225 E22.48346
G1 X133.071 Y115.281 E22.48525
G1 X132.54 Y115.742 E22.50279
G1 X132.48 Y115.778 E22.50453
G1 X131.824 Y116.026 E22.52203
G1 X131.753 Y116.039 E22.52383
G1 X68.599 Y116.069 E24.09921
G1 X68.564 Y116.066 E24.10009
G1 X67.872 Y115.942 E24.11763
G1 X67.804 Y115.916 E24.11944
G1 X67.198 Y115.551 E24.13709
G1 X67.145 Y115.505 E24.13884
G1 X66.709 Y114.958 E24.15629
G1 X66.675 Y114.895 E24.15807
G1 X66.458 Y114.233 E24.17545
G1 X66.448 Y114.171 E24.17702
G1 X66.432 Y86.011 E24.87947
G1 X66.437 Y85.967 E24.88058
G1 X66.592 Y85.284 E24.89805
G1 X66.62 Y85.218 E24.89984
G1 X67.01 Y84.626 E24.91752
G1 F2100 E24.11752
G0 F3600 X67.64 Y85.18
G0 X67.684 Y85.222
G0 X67.612 Y85.153
;TYPE:WALL-INNER
G1 F2100 E24.91752
G1 F1800 X67.798 Y84.991 E24.92367
G1 X68.006 Y84.867 E24.92971
G1 X68.228 Y84.783 E24.93564
G1 X68.49 Y84.736 E24.94228
G1 X68.627 Y84.73 E24.9457
G1 X131.51 Y84.736 E26.51432
G1 X131.772 Y84.783 E26.52096
G1 X131.994 Y84.867 E26.52688
G1 X132.202 Y84.991 E26.53292
G1 X132.388 Y85.153 E26.53907
G1 X132.541 Y85.345 E26.5452
G1 X132.658 Y85.561 E26.55133
G1 X132.734 Y85.799 E26.55756
G1 X132.768 Y86.048 E26.56383
G1 X132.769 Y113.877 E27.25802
G1 X132.756 Y114.083 E27.26317
G1 X132.702 Y114.32 E27.26924
G1 X132.604 Y114.547 E27.2754
G1 X132.47 Y114.752 E27.28151
G1 X132.298 Y114.931 E27.28771
G1 X132.101 Y115.075 E27.29379
G1 X131.885 Y115.179 E27.29977
G1 X131.64 Y115.247 E27.30612
G1 X131.379 Y115.27 E27.31265
G1 X68.619 Y115.269 E28.87821
G1 X68.361 Y115.246 E28.88467
G1 X68.115 Y115.179 E28.89103
G1 X67.899 Y115.075 E28.89701
G1 X67.702 Y114.931 E28.9031
G1 X67.53 Y114.752 E28.90929
G1 X67.396 Y114.547 E28.9154
G1 X67.298 Y114.32 E28.92156
G1 X67.244 Y114.083 E28.92763
G1 X67.23 Y113.873 E28.93288
G1 X67.232 Y86.048 E29.62698
G1 X67.266 Y85.799 E29.63324
G1 X67.342 Y85.561 E29.63948
G1 X67.459 Y85.345 E29.6456
G1 X67.612 Y85.153 E29.65173
G0 F3600 X67.321 Y84.877
;TYPE:WALL-OUTER
G1 F1800 X67.561 Y84.667 E29.65968
G1 X67.832 Y84.505 E29.66756
G1 X68.125 Y84.395 E29.67537
G1 X68.446 Y84.337 E29.6835
G1 X68.61 Y84.33 E29.6876
G1 X131.392 Y84.331 E31.2537
G1 X131.554 Y84.337 E31.25775
G1 X131.875 Y84.395 E31.26588
G1 X132.168 Y84.505 E31.27369
G1 X132.439 Y84.667 E31.28157
G1 X132.679 Y84.877 E31.28952
G1 X132.876 Y85.124 E31.2974
G1 X133.028 Y85.405 E31.30537
G1 X133.125 Y85.706 E31.31326
G1 X133.168 Y86.023 E31.32124
G1 X133.169 Y113.886 E32.01629
G1 X133.153 Y114.14 E32.02263
G1 X133.084 Y114.445 E32.03043
G1 X132.957 Y114.739 E32.03842
G1 X132.784 Y115.003 E32.0463
G1 X132.566 Y115.23 E32.05415
G1 X132.305 Y115.42 E32.0622
G1 X132.024 Y115.556 E32.06999
G1 X131.715 Y115.641 E32.07798
G1 X131.393 Y115.67 E32.08605
G1 X68.607 Y115.669 E33.65225
G1 X68.286 Y115.641 E33.66029
G1 X67.976 Y115.556 E33.66831
G1 X67.695 Y115.42 E33.67609
G1 X67.434 Y115.23 E33.68415
G1 X67.216 Y115.003 E33.692
G1 X67.043 Y114.739 E33.69987
G1 X66.916 Y114.445 E33.70786
G1 X66.847 Y114.14 E33.71566
G1 X66.83 Y113.885 E33.72204
G1 X66.832 Y86.023 E34.41706
G1 X66.875 Y85.706 E34.42504
G1 X66.972 Y85.405 E34.43293
G1 X67.124 Y85.124 E34.44089
G1 X67.321 Y84.877 E34.44878
G0 F3600 X67.741 Y85.277
;TYPE:SKIN
G1 F1800 X97.552 Y115.088 E35.50044
G0 X97.622 Y115.158
G0 F3600 X96.986 Y115.088
G1 F1800 X67.515 Y85.617 E36.54011
G0 X67.445 Y85.547
G0 F3600 X67.411 Y86.078
G1 F1800 X96.421 Y115.088 E37.56351
G0 X96.491 Y115.158
G0 F3600 X95.855 Y115.088
G1 F1800 X67.411 Y86.644 E38.56695
G0 X67.341 Y86.574
G0 F3600 X67.411 Y87.21
G1 F1800 X95.289 Y115.088 E39.55043
G0 X95.359 Y115.158
G0 F3600 X94.724 Y115.088
G1 F1800 X67.411 Y87.775 E40.51397
G0 X67.341 Y87.705
G0 F3600 X67.411 Y88.341
G1 F1800 X94.158 Y115.088 E41.45754
G0 X94.228 Y115.158
G0 F3600 X93.592 Y115.088
G1 F1800 X67.411 Y88.907 E42.38114
G0 X67.341 Y88.837
G0 F3600 X67.411 Y89.473
G1 F1800 X93.026 Y115.088 E43.28478
G0 X93.096 Y115.158
G0 F3600 X92.461 Y115.088
G1 F1800 X67.411 Y90.038 E44.16849
G0 X67.341 Y89.968
G0 F3600 X67.411 Y90.604
G1 F1800 X91.895 Y115.088 E45.03223
G0 X91.965 Y115.158
G0 F3600 X91.329 Y115.088
G1 F1800 X67.411 Y91.17 E45.876
G0 X67.341 Y91.1
G0 F3600 X67.411 Y91.735
G1 F1800 X90.764 Y115.088 E46.69984
G0 X90.834 Y115.158
G0 F3600 X90.198 Y115.088
G1 F1800 X67.411 Y92.301 E47.50371
G0 X67.341 Y92.231
G0 F3600 X67.411 Y92.867
G1 F1800 X89.632 Y115.088 E48.28762
G0 X89.702 Y115.158
G0 F3600 X89.067 Y115.088
G1 F1800 X67.411 Y93.432 E49.05159
G0 X67.341 Y93.362
G0 F3600 X67.411 Y93.998
G1 F1800 X88.501 Y115.088 E49.7956
G0 X88.571 Y115.158
G0 F3600 X87.935 Y115.088
G1 F1800 X67.411 Y94.564 E50.51964
G0 X67.341 Y94.494
G0 F3600 X67.411 Y95.129
G1 F1800 X87.37 Y115.088 E51.22375
G0 X87.44 Y115.158
G0 F3600 X86.804 Y115.088
G1 F1800 X67.41 Y95.694 E51.90792
G0 X67.34 Y95.624
G0 F3600 X67.41 Y96.26
G1 F1800 X86.238 Y115.088 E52.57213
G0 X86.308 Y115.158
G0 F3600 X85.673 Y115.088
G1 F1800 X67.41 Y96.826 E53.21639
G0 X67.34 Y96.756
G0 F3600 X67.41 Y97.391
G1 F1800 X85.107 Y115.088 E53.8407
G0 X85.177 Y115.158
G0 F3600 X84.541 Y115.088
G1 F1800 X67.41 Y97.957 E54.44504
G0 X67.34 Y97.887
G0 F3600 X67.41 Y98.523
G1 F1800 X83.976 Y115.088 E55.02943
G0 X84.046 Y115.158
G0 F3600 X83.41 Y115.088
G1 F1800 X67.41 Y99.088 E55.59388
G0 X67.34 Y99.018
G0 F3600 X67.41 Y99.654
G1 F1800 X82.844 Y115.088 E56.13835
G0 X82.914 Y115.158
G0 F3600 X82.278 Y115.088
G1 F1800 X67.41 Y100.22 E56.66286
G0 X67.34 Y100.15
G0 F3600 X67.41 Y100.786
G1 F1800 X81.713 Y115.088 E57.16742
G0 X81.783 Y115.158
G0 F3600 X81.147 Y115.088
G1 F1800 X67.41 Y101.351 E57.65203
G0 X67.34 Y101.281
G0 F3600 X67.41 Y101.917
G1 F1800 X80.581 Y115.088 E58.11667
G0 X80.651 Y115.158
G0 F3600 X80.016 Y115.088
G1 F1800 X67.41 Y102.483 E58.56137
G0 X67.34 Y102.413
G0 F3600 X67.41 Y103.048
G1 F1800 X79.45 Y115.088 E58.98611
G0 X79.52 Y115.158
G0 F3600 X78.884 Y115.088
G1 F1800 X67.41 Y103.614 E59.39089
G0 X67.34 Y103.544
G0 F3600 X67.41 Y104.18
G1 F1800 X78.319 Y115.088 E59.77571
G0 X78.389 Y115.158
G0 F3600 X77.753 Y115.088
G1 F1800 X67.409 Y104.745 E60.14061
G0 X67.339 Y104.675
G0 F3600 X67.409 Y105.31
G1 F1800 X77.187 Y115.088 E60.48555
G0 X77.257 Y115.158
G0 F3600 X76.622 Y115.088
G1 F1800 X67.409 Y105.876 E60.81055
G0 X67.339 Y105.806
G0 F3600 X67.409 Y106.442
G1 F1800 X76.056 Y115.088 E61.11558
G0 X76.126 Y115.158
G0 F3600 X75.49 Y115.088
G1 F1800 X67.409 Y107.007 E61.40066
G0 X67.339 Y106.937
G0 F3600 X67.409 Y107.573
G1 F1800 X74.925 Y115.088 E61.66579
G0 X74.995 Y115.158
G0 F3600 X74.359 Y115.088
G1 F1800 X67.409 Y108.139 E61.91095
G0 X67.339 Y108.069
G0 F3600 X67.409 Y108.704
G1 F1800 X73.793 Y115.088 E62.13616
G0 X73.863 Y115.158
G0 F3600 X73.227 Y115.088
G1 F1800 X67.409 Y109.27 E62.34141
G0 X67.339 Y109.2
G0 F3600 X67.409 Y109.836
G1 F1800 X72.662 Y115.088 E62.5267
G0 X72.732 Y115.158
G0 F3600 X72.096 Y115.088
G1 F1800 X67.409 Y110.401 E62.69205
G0 X67.339 Y110.331
G0 F3600 X67.409 Y110.967
G1 F1800 X71.53 Y115.088 E62.83743
G0 X71.6 Y115.158
G0 F3600 X70.965 Y115.088
G1 F1800 X67.409 Y111.533 E62.96286
G0 X67.339 Y111.463
G0 F3600 X67.409 Y112.099
G1 F1800 X70.399 Y115.088 E63.06832
G0 X70.469 Y115.158
G0 F3600 X69.833 Y115.088
G1 F1800 X67.409 Y112.664 E63.15384
G0 X67.339 Y112.594
G0 F3600 X67.409 Y113.23
G1 F1800 X69.268 Y115.088 E63.2194
G0 X69.338 Y115.158
G0 F3600 X68.702 Y115.088
G1 F1800 X67.409 Y113.796 E63.265
G0 X67.339 Y113.726
G0 F3600 X67.641 Y114.593
G1 F1800 X67.901 Y114.853 E63.27417
G0 F3600 X68.068 Y85.038
G1 F1800 X98.118 Y115.088 E64.33426
G0 X98.188 Y115.158
G0 F3600 X98.683 Y115.088
G1 F1800 X68.509 Y84.914 E65.39873
G0 X68.439 Y84.844
G0 F3600 X69.07 Y84.91
G1 F1800 X99.249 Y115.088 E66.46336
G0 X99.319 Y115.158
G0 F3600 X99.815 Y115.088
G1 F1800 X69.636 Y84.91 E67.52799
G0 X69.566 Y84.84
G0 F3600 X70.202 Y84.91
G1 F1800 X100.381 Y115.089 E68.59263
G0 X100.451 Y115.159
G0 F3600 X100.947 Y115.089
G1 F1800 X70.767 Y84.91 E69.6573
G0 X70.697 Y84.84
G0 F3600 X71.333 Y84.91
G1 F1800 X101.512 Y115.089 E70.72194
G0 X101.582 Y115.159
G0 F3600 X102.078 Y115.089
G1 F1800 X71.899 Y84.91 E71.78659
G0 X71.829 Y84.84
G0 F3600 X72.465 Y84.91
G1 F1800 X102.644 Y115.089 E72.85123
G0 X102.714 Y115.159
G0 F3600 X103.21 Y115.089
G1 F1800 X73.03 Y84.91 E73.9159
G0 X72.96 Y84.84
G0 F3600 X73.596 Y84.91
G1 F1800 X103.775 Y115.089 E74.98054
G0 X103.845 Y115.159
G0 F3600 X104.341 Y115.089
G1 F1800 X74.162 Y84.91 E76.04519
G0 X74.092 Y84.84
G0 F3600 X74.727 Y84.91
G1 F1800 X104.907 Y115.089 E77.10985
G0 X104.977 Y115.159
G0 F3600 X105.472 Y115.089
G1 F1800 X75.293 Y84.91 E78.1745
G0 X75.223 Y84.84
G0 F3600 X75.859 Y84.91
G1 F1800 X106.038 Y115.089 E79.23914
G0 X106.108 Y115.159
G0 F3600 X106.604 Y115.089
G1 F1800 X76.425 Y84.91 E80.30379
G0 X76.355 Y84.84
G0 F3600 X76.991 Y84.91
G1 F1800 X107.169 Y115.089 E81.36842
G0 X107.239 Y115.159
G0 F3600 X107.735 Y115.089
G1 F1800 X77.556 Y84.91 E82.43306
G0 X77.486 Y84.84
G0 F3600 X78.122 Y84.91
G1 F1800 X108.301 Y115.089 E83.49771
G0 X108.371 Y115.159
G0 F3600 X108.866 Y115.089
G1 F1800 X78.688 Y84.91 E84.56234
G0 X78.618 Y84.84
G0 F3600 X79.253 Y84.91
G1 F1800 X109.432 Y115.089 E85.62698
G0 X109.502 Y115.159
G0 F3600 X109.998 Y115.089
G1 F1800 X79.819 Y84.91 E86.69163
G0 X79.749 Y84.84
G0 F3600 X80.385 Y84.91
G1 F1800 X110.563 Y115.089 E87.75626
G0 X110.633 Y115.159
G0 F3600 X111.129 Y115.089
G1 F1800 X80.95 Y84.91 E88.8209
G0 X80.88 Y84.84
G0 F3600 X81.516 Y84.91
G1 F1800 X111.695 Y115.089 E89.88555
G0 X111.765 Y115.159
