;FLAVOR:RepRap
;TIME:1417
;Generated with Cura_SteamEngine 2.3.1
G21 ; set units to millimeters
G90 ; use absolute positioning
M82 ; absolute extrusion mode
G28 W ; home all without mesh bed level
G80 ; mesh bed leveling
M104 S200 ; set extruder temp
M140 S60 ; set bed temp
M190 S60 ; wait for bed temp
M109 S200 ; wait for extruder temp
G92 E0.0 ; reset extruder distance position
G1 Y-3.0 F1000.0 ; go outside print area
G1 X60.0 E9.0 F1000.0 ; intro line
G1 X100.0 E21.5 F1000.0 ; intro line
G92 E0.0 ; reset extruder distance position
;LAYER_COUNT:17
;LAYER:0
M107
G1 F2100 E-0.8
G0 F3600 X66.722 Y121.112 Z.15
G0 X66.954 Y121.004
;TYPE:SKIRT
G1 F2100 E0
G1 F1800 X67.61 Y120.756 E0.01749
G1 X67.977 Y120.66 E0.02696
G1 X68.246 Y120.64 E0.03369
G1 X131.4 Y120.61 E1.60907
G1 X131.718 Y120.638 E1.61703
G1 X132.41 Y120.762 E1.63457
G1 X132.774 Y120.868 E1.64403
G1 X133.022 Y120.992 E1.65094
G1 X133.628 Y121.357 E1.66859
G1 X133.93 Y121.586 E1.67804
G1 X134.107 Y121.777 E1.68454
G1 X134.543 Y122.324 E1.70199
G1 X134.746 Y122.644 E1.71144
G1 X134.845 Y122.885 E1.71794
G1 X135.062 Y123.547 E1.73532
G1 X135.152 Y124.107 E1.74947
G1 X135.168 Y152.268 E2.45195
G1 X135.123 Y152.667 E2.46196
G1 X134.968 Y153.35 E2.47943
G1 X134.846 Y153.709 E2.48889
G1 X134.717 Y153.942 E2.49554
G1 X134.328 Y154.533 E2.51319
G1 X134.087 Y154.825 E2.52263
G1 X133.882 Y154.999 E2.52934
G1 X133.315 Y155.411 E2.54682
G1 X132.987 Y155.6 E2.55626
G1 X132.732 Y155.691 E2.56302
G1 X132.049 Y155.878 E2.58068
G1 X131.574 Y155.942 E2.59264
G1 X68.606 Y155.949 E4.16338
G1 X68.369 Y155.933 E4.16931
G1 X67.834 Y155.862 E4.18277
G1 X67.466 Y155.773 E4.19221
G1 X67.289 Y155.699 E4.197
G1 X66.661 Y155.396 E4.21439
G1 X66.339 Y155.196 E4.22385
G1 X66.142 Y155.019 E4.23046
G1 X65.657 Y154.512 E4.24796
G1 X65.426 Y154.212 E4.2574
G1 X65.304 Y153.979 E4.26396
G1 X65.025 Y153.33 E4.28159
G1 X64.913 Y152.968 E4.29104
G1 X64.879 Y152.622 E4.29971
G1 X64.831 Y124.389 E5.00399
G1 X64.851 Y124.116 E5.01081
G1 X64.944 Y123.504 E5.02626
G1 X65.04 Y123.137 E5.03572
G1 X65.139 Y122.922 E5.04162
G1 X65.475 Y122.297 E5.05932
G1 X65.688 Y121.984 E5.06877
G1 X65.88 Y121.79 E5.07558
G1 X66.411 Y121.329 E5.09312
G1 X66.722 Y121.112 E5.10258
G1 X66.954 Y121.004 E5.10896
G0 F3600 X67.096 Y121.378
G1 F1800 X67.752 Y121.13 E5.12646
G1 X68.076 Y121.05 E5.13478
G1 X68.246 Y121.04 E5.13903
G1 X131.4 Y121.01 E6.71441
G1 X131.648 Y121.032 E6.72062
G1 X132.34 Y121.156 E6.73816
G1 X132.659 Y121.254 E6.74648
G1 X132.815 Y121.335 E6.75087
G1 X133.421 Y121.7 E6.76852
G1 X133.794 Y122.026 E6.78087
G1 X134.23 Y122.573 E6.79832
G1 X134.465 Y123.01 E6.8107
G1 X134.682 Y123.672 E6.82808
G1 X134.752 Y124.107 E6.83907
G1 X134.768 Y152.268 E7.54155
G1 X134.733 Y152.579 E7.54936
G1 X134.578 Y153.262 E7.56683
G1 X134.466 Y153.576 E7.57514
G1 X134.382 Y153.722 E7.57934
G1 X133.993 Y154.313 E7.59699
G1 X133.778 Y154.568 E7.60531
G1 X133.647 Y154.676 E7.60955
G1 X133.08 Y155.088 E7.62703
G1 X132.788 Y155.25 E7.63536
G1 X132.627 Y155.305 E7.63961
G1 X131.944 Y155.492 E7.65727
G1 X131.574 Y155.542 E7.66658
G1 X68.606 Y155.549 E9.23733
G1 X68.422 Y155.537 E9.24193
G1 X67.887 Y155.466 E9.25539
G1 X67.463 Y155.339 E9.26643
G1 X66.835 Y155.036 E9.28382
G1 X66.431 Y154.743 E9.29627
G1 X65.946 Y154.236 E9.31378
G1 X65.672 Y153.821 E9.32618
G1 X65.393 Y153.172 E9.3438
G1 X65.298 Y152.851 E9.35215
G1 X65.279 Y152.621 E9.35791
G1 X65.231 Y124.388 E10.06219
G1 X65.247 Y124.176 E10.06749
G1 X65.34 Y123.564 E10.08293
G1 X65.491 Y123.111 E10.09484
G1 X65.827 Y122.486 E10.11254
G1 X66.019 Y122.213 E10.12087
G1 X66.142 Y122.092 E10.12517
G1 X66.673 Y121.631 E10.14271
G1 X67.096 Y121.378 E10.15501
G0 F3600 X67.237 Y121.753
G1 F1800 X67.893 Y121.505 E10.1725
G1 X68.247 Y121.44 E10.18148
G1 X131.401 Y121.41 E11.75686
G1 X131.577 Y121.426 E11.76127
G1 X132.269 Y121.55 E11.77881
G1 X132.609 Y121.677 E11.78786
G1 X133.215 Y122.042 E11.80551
G1 X133.481 Y122.276 E11.81435
G1 X133.917 Y122.823 E11.8318
G1 X134.085 Y123.135 E11.84064
G1 X134.302 Y123.797 E11.85802
G1 X134.352 Y124.107 E11.86585
G1 X134.368 Y152.268 E12.56833
G1 X134.343 Y152.49 E12.5739
G1 X134.188 Y153.173 E12.59137
G1 X134.048 Y153.502 E12.60029
G1 X133.659 Y154.093 E12.61794
G1 X133.412 Y154.352 E12.62687
G1 X132.845 Y154.764 E12.64435
G1 X132.521 Y154.92 E12.65332
G1 X131.838 Y155.107 E12.67099
G1 X131.574 Y155.142 E12.67763
G1 X68.606 Y155.149 E14.24837
G1 X68.474 Y155.14 E14.25167
G1 X67.939 Y155.069 E14.26513
G1 X67.636 Y154.979 E14.27302
G1 X67.008 Y154.676 E14.29041
G1 X66.72 Y154.466 E14.2993
G1 X66.235 Y153.959 E14.31681
G1 X66.039 Y153.663 E14.32566
G1 X65.76 Y153.014 E14.34328
G1 X65.679 Y152.621 E14.35329
G1 X65.631 Y124.388 E15.05757
G1 X65.642 Y124.236 E15.06137
G1 X65.735 Y123.624 E15.07681
G1 X65.843 Y123.3 E15.08533
G1 X66.179 Y122.675 E15.10303
G1 X66.404 Y122.394 E15.11201
G1 X66.935 Y121.933 E15.12955
G1 X67.237 Y121.753 E15.13832
G0 F3600 X67.379 Y122.127
G1 F1800 X68.035 Y121.879 E15.15582
G1 X68.247 Y121.84 E15.1612
G1 X131.401 Y121.81 E16.73658
G1 X131.507 Y121.819 E16.73923
G1 X132.199 Y121.943 E16.75677
G1 X132.403 Y122.02 E16.76221
G1 X133.009 Y122.385 E16.77986
G1 X133.168 Y122.525 E16.78514
G1 X133.604 Y123.072 E16.80259
G1 X133.705 Y123.259 E16.80789
G1 X133.922 Y123.921 E16.82527
G1 X133.952 Y124.108 E16.82999
G1 X133.968 Y152.269 E17.53247
G1 X133.953 Y152.402 E17.53581
G1 X133.798 Y153.085 E17.55328
G1 X133.714 Y153.282 E17.55862
G1 X133.325 Y153.873 E17.57627
G1 X133.177 Y154.028 E17.58162
G1 X132.61 Y154.44 E17.5991
G1 X132.415 Y154.534 E17.6045
G1 X131.732 Y154.721 E17.62217
G1 X131.574 Y154.742 E17.62614
G1 X68.606 Y154.749 E19.19689
G1 X68.527 Y154.744 E19.19886
G1 X67.992 Y154.673 E19.21232
G1 X67.81 Y154.618 E19.21707
G1 X67.182 Y154.315 E19.23446
G1 X67.009 Y154.19 E19.23978
G1 X66.524 Y153.683 E19.25729
G1 X66.407 Y153.505 E19.2626
G1 X66.128 Y152.856 E19.28022
G1 X66.079 Y152.62 E19.28624
G1 X66.031 Y124.387 E19.99051
G1 X66.038 Y124.296 E19.99279
G1 X66.131 Y123.684 E20.00823
G1 X66.196 Y123.49 E20.01333
G1 X66.532 Y122.865 E20.03103
G1 X66.667 Y122.696 E20.03643
G1 X67.198 Y122.235 E20.05397
G1 X67.379 Y122.127 E20.05923
G0 F3600 X67.46 Y122.537
G1 F1800 X67.52 Y122.501 E20.06097
G1 X68.176 Y122.253 E20.07847
G1 X68.247 Y122.24 E20.08027
G1 X131.401 Y122.21 E21.65565
G1 X131.436 Y122.213 E21.65653
G1 X132.128 Y122.337 E21.67407
G1 X132.196 Y122.363 E21.67588
G1 X132.802 Y122.728 E21.69353
G1 X132.855 Y122.774 E21.69528
G1 X133.291 Y123.321 E21.71273
G1 X133.325 Y123.384 E21.71451
G1 X133.542 Y124.046 E21.73189
G1 X133.552 Y124.108 E21.73346
G1 X133.568 Y152.269 E22.43594
G1 X133.563 Y152.313 E22.43704
G1 X133.408 Y152.996 E22.45451
G1 X133.38 Y153.062 E22.4563
G1 X132.991 Y153.653 E22.47395
G1 X132.942 Y153.705 E22.47573
G1 X132.375 Y154.117 E22.49322
G1 X132.31 Y154.148 E22.49501
G1 X131.627 Y154.335 E22.51268
G1 X131.574 Y154.342 E22.51401
G1 X68.606 Y154.349 E24.08475
G1 X68.58 Y154.347 E24.08541
G1 X68.045 Y154.276 E24.09887
G1 X67.984 Y154.258 E24.10045
G1 X67.356 Y153.955 E24.11785
G1 X67.298 Y153.913 E24.11963
G1 X66.813 Y153.406 E24.13714
G1 X66.774 Y153.347 E24.1389
G1 X66.495 Y152.698 E24.15652
G1 X66.479 Y152.619 E24.15853
G1 X66.431 Y124.386 E24.86281
G1 X66.433 Y124.356 E24.86356
G1 X66.526 Y123.744 E24.879
G1 X66.548 Y123.679 E24.88071
G1 X66.884 Y123.054 E24.89841
G1 X66.929 Y122.998 E24.90021
G1 X67.46 Y122.537 E24.91775
G0 F3600 X67.899 Y123.204
;TYPE:WALL-INNER
G1 F1800 X68.115 Y123.1 E24.92373
G1 X68.36 Y123.032 E24.93007
G1 X68.622 Y123.009 E24.93663
G1 X73.65 Y123.009 E25.06205
G1 X126.35 Y123.009 E26.37666
G1 X126.365 Y123.009 E26.37704
G1 X131.381 Y123.01 E26.50216
G1 X131.64 Y123.033 E26.50865
G1 X131.885 Y123.1 E26.51498
G1 X132.101 Y123.204 E26.52096
G1 X132.298 Y123.348 E26.52705
G1 X132.47 Y123.527 E26.53324
G1 X132.604 Y123.732 E26.53935
G1 X132.702 Y123.959 E26.54552
G1 X132.756 Y124.196 E26.55158
G1 X132.77 Y124.405 E26.55681
G1 X132.768 Y152.232 E27.25095
G1 X132.734 Y152.481 E27.25722
G1 X132.658 Y152.719 E27.26346
G1 X132.541 Y152.935 E27.26958
G1 X132.388 Y153.127 E27.27571
G1 X132.202 Y153.289 E27.28186
G1 X131.994 Y153.413 E27.2879
G1 X131.772 Y153.497 E27.29382
G1 X131.51 Y153.544 E27.30046
G1 X131.374 Y153.55 E27.30386
G1 X68.49 Y153.544 E28.87251
G1 X68.228 Y153.497 E28.87915
G1 X68.006 Y153.413 E28.88507
G1 X67.798 Y153.289 E28.89111
G1 X67.612 Y153.127 E28.89726
G1 X67.459 Y152.935 E28.90338
G1 X67.342 Y152.719 E28.90951
G1 X67.266 Y152.481 E28.91574
G1 X67.232 Y152.232 E28.92201
G1 X67.231 Y124.401 E29.61626
G1 X67.244 Y124.196 E29.62138
G1 X67.298 Y123.959 E29.62745
G1 X67.396 Y123.732 E29.63362
G1 X67.53 Y123.527 E29.63973
G1 X67.702 Y123.348 E29.64592
G1 X67.899 Y123.204 E29.652
G0 F3600 X67.95 Y123.289
G0 X73.58 Y123.309
G0 X73.65 Y123.379
G1 F1800 X73.65 Y130.179 E29.82163
G1 X126.35 Y130.179 E31.13624
G1 X126.35 Y123.394 E31.30549
G1 X126.35 Y123.379 E31.30586
G1 X73.65 Y123.379 E32.52187
G0 F3600 X74.05 Y123.779
;TYPE:WALL-OUTER
G1 F1800 X74.05 Y129.779 E32.67154
G1 X125.95 Y129.779 E33.96619
G1 X125.95 Y123.779 E34.11586
G1 X74.05 Y123.779 E35.41051
G0 F3600 X73.55 Y123.779
G0 X68.626 Y123.108
G0 X68.608 Y122.609
G1 F1800 X131.393 Y122.61 E36.97669
G1 X131.715 Y122.638 E36.98475
G1 X132.024 Y122.723 E36.99274
G1 X132.305 Y122.859 E37.00053
G1 X132.566 Y123.049 E37.00859
G1 X132.784 Y123.276 E37.01644
G1 X132.957 Y123.54 E37.02431
G1 X133.084 Y123.834 E37.0323
G1 X133.153 Y124.139 E37.0401
G1 X133.17 Y124.393 E37.04645
G1 X133.168 Y152.257 E37.74152
G1 X133.125 Y152.574 E37.7495
G1 X133.028 Y152.875 E37.75739
G1 X132.876 Y153.156 E37.76536
G1 X132.679 Y153.403 E37.77324
G1 X132.439 Y153.613 E37.78119
G1 X132.168 Y153.775 E37.78907
G1 X131.875 Y153.885 E37.79688
G1 X131.554 Y153.943 E37.80501
G1 X131.391 Y153.95 E37.80908
G1 X68.609 Y153.949 E39.37519
G1 X68.446 Y153.943 E39.37926
G1 X68.125 Y153.885 E39.38739
G1 X67.832 Y153.775 E39.3952
G1 X67.561 Y153.613 E39.40308
G1 X67.321 Y153.403 E39.41103
G1 X67.124 Y153.156 E39.41891
G1 X66.972 Y152.875 E39.42688
G1 X66.875 Y152.574 E39.43477
G1 X66.832 Y152.257 E39.44275
G1 X66.831 Y124.392 E40.13785
G1 X66.847 Y124.139 E40.14417
G1 X66.916 Y123.834 E40.15197
G1 X67.043 Y123.54 E40.15996
G1 X67.216 Y123.276 E40.16783
G1 X67.434 Y123.049 E40.17568
G1 X67.695 Y122.859 E40.18374
G1 X67.976 Y122.723 E40.19152
G1 X68.285 Y122.638 E40.19952
G1 X68.608 Y122.609 E40.20761
G0 F3600 X68.882 Y123.188
;TYPE:SKIN
G1 F1800 X73.469 Y127.775 E40.36943
G0 X73.539 Y127.845
G0 F3600 X73.469 Y128.341
G1 F1800 X68.349 Y123.221 E40.55005
G0 X68.279 Y123.151
G0 F3600 X67.951 Y123.388
G1 F1800 X73.469 Y128.906 E40.74471
G0 X73.539 Y128.976
G0 F3600 X73.469 Y129.472
G1 F1800 X67.657 Y123.66 E40.94974
G0 X67.587 Y123.59
G0 F3600 X67.465 Y124.033
G1 F1800 X73.469 Y130.038 E41.16157
G0 X73.539 Y130.108
G0 F3600 X73.789 Y130.357
G1 F1800 X96.797 Y153.365 E41.97324
G0 X96.867 Y153.435
G0 F3600 X97.362 Y153.365
G1 F1800 X74.355 Y130.357 E42.78489
G0 X74.285 Y130.287
G0 F3600 X74.92 Y130.357
G1 F1800 X97.928 Y153.365 E43.59656
G0 X97.998 Y153.435
G0 F3600 X98.494 Y153.365
G1 F1800 X75.486 Y130.357 E44.40823
G0 X75.416 Y130.287
G0 F3600 X76.052 Y130.357
G1 F1800 X99.06 Y153.365 E45.2199
G0 X99.13 Y153.435
G0 F3600 X99.625 Y153.365
G1 F1800 X76.617 Y130.357 E46.03157
G0 X76.547 Y130.287
G0 F3600 X77.183 Y130.357
G1 F1800 X100.191 Y153.365 E46.84324
G0 X100.261 Y153.435
G0 F3600 X100.757 Y153.365
G1 F1800 X77.749 Y130.357 E47.65491
G0 X77.679 Y130.287
G0 F3600 X78.314 Y130.357
G1 F1800 X101.322 Y153.365 E48.46658
G0 X101.392 Y153.435
G0 F3600 X101.888 Y153.365
G1 F1800 X78.88 Y130.357 E49.27824
G0 X78.81 Y130.287
G0 F3600 X79.446 Y130.357
G1 F1800 X102.454 Y153.365 E50.08991
G0 X102.524 Y153.435
G0 F3600 X103.019 Y153.365
G1 F1800 X80.011 Y130.357 E50.90158
G0 X79.941 Y130.287
G0 F3600 X80.577 Y130.357
G1 F1800 X103.586 Y153.366 E51.71329
G0 X103.656 Y153.436
G0 F3600 X104.151 Y153.366
G1 F1800 X81.143 Y130.357 E52.52498
G0 X81.073 Y130.287
G0 F3600 X81.709 Y130.357
G1 F1800 X104.717 Y153.366 E53.33666
G0 X104.787 Y153.436
G0 F3600 X105.283 Y153.366
G1 F1800 X82.274 Y130.357 E54.14837
G0 X82.204 Y130.287
G0 F3600 X82.84 Y130.357
G1 F1800 X105.848 Y153.366 E54.96005
G0 X105.918 Y153.436
G0 F3600 X106.414 Y153.366
G1 F1800 X83.406 Y130.357 E55.77174
G0 X83.336 Y130.287
G0 F3600 X83.971 Y130.357
G1 F1800 X106.98 Y153.366 E56.58345
G0 X107.05 Y153.436
G0 F3600 X107.545 Y153.366
G1 F1800 X84.537 Y130.357 E57.39513
G0 X84.467 Y130.287
G0 F3600 X85.103 Y130.357
G1 F1800 X108.111 Y153.366 E58.20682
G0 X108.181 Y153.436
G0 F3600 X108.677 Y153.366
G1 F1800 X85.668 Y130.357 E59.01852
G0 X85.598 Y130.287
G0 F3600 X86.234 Y130.357
G1 F1800 X109.243 Y153.366 E59.83023
G0 X109.313 Y153.436
G0 F3600 X109.808 Y153.366
G1 F1800 X86.8 Y130.357 E60.64192
G0 X86.73 Y130.287
G0 F3600 X87.365 Y130.357
G1 F1800 X110.374 Y153.366 E61.45362
G0 X110.444 Y153.436
G0 F3600 X110.94 Y153.367
G1 F1800 X87.931 Y130.357 E62.26534
G0 X87.861 Y130.287
G0 F3600 X88.497 Y130.357
G1 F1800 X111.506 Y153.367 E63.07706
G0 X111.576 Y153.437
G0 F3600 X112.072 Y153.367
G1 F1800 X89.062 Y130.357 E63.8888
G0 X88.992 Y130.287
G0 F3600 X89.628 Y130.357
G1 F1800 X112.637 Y153.367 E64.70053
G0 X112.707 Y153.437
G0 F3600 X113.203 Y153.367
G1 F1800 X90.194 Y130.357 E65.51225
G0 X90.124 Y130.287
G0 F3600 X90.759 Y130.357
G1 F1800 X113.769 Y153.367 E66.32399
G0 X113.839 Y153.437
G0 F3600 X114.334 Y153.367
G1 F1800 X91.325 Y130.357 E67.13571
G0 X91.255 Y130.287
G0 F3600 X91.891 Y130.357
G1 F1800 X114.9 Y153.367 E67.94743
G0 X114.97 Y153.437
G0 F3600 X115.466 Y153.367
G1 F1800 X92.457 Y130.357 E68.75916
G0 X92.387 Y130.287
G0 F3600 X93.022 Y130.357
G1 F1800 X116.031 Y153.367 E69.57088
G0 X116.101 Y153.437
G0 F3600 X116.597 Y153.367
G1 F1800 X93.588 Y130.357 E70.3826
G0 X93.518 Y130.287
G0 F3600 X94.154 Y130.357
G1 F1800 X117.163 Y153.367 E71.19432
G0 X117.233 Y153.437
G0 F3600 X117.729 Y153.367
G1 F1800 X94.719 Y130.357 E72.00606
G0 X94.649 Y130.287
G0 F3600 X95.285 Y130.357
G1 F1800 X118.295 Y153.367 E72.8178
G0 X118.365 Y153.437
G0 F3600 X118.861 Y153.367
G1 F1800 X95.851 Y130.357 E73.62954
G0 X95.781 Y130.287
G0 F3600 X96.416 Y130.357
G1 F1800 X119.426 Y153.367 E74.44128
G0 X119.496 Y153.437
G0 F3600 X119.992 Y153.367
G1 F1800 X96.982 Y130.357 E75.25302
G0 X96.912 Y130.287
G0 F3600 X97.548 Y130.357
G1 F1800 X120.558 Y153.367 E76.06476
G0 X120.628 Y153.437
G0 F3600 X121.123 Y153.367
G1 F1800 X98.113 Y130.357 E76.8765
G0 X98.043 Y130.287
G0 F3600 X98.679 Y130.357
G1 F1800 X121.689 Y153.367 E77.68824
G0 X121.759 Y153.437
G0 F3600 X122.255 Y153.367
G1 F1800 X99.245 Y130.357 E78.49998
G0 X99.175 Y130.287
G0 F3600 X99.81 Y130.357
G1 F1800 X122.82 Y153.367 E79.31172
G0 X122.89 Y153.437
G0 F3600 X123.386 Y153.367
G1 F1800 X100.376 Y130.357 E80.12346
G0 X100.306 Y130.287
G0 F3600 X100.942 Y130.357
G1 F1800 X123.952 Y153.367 E80.9352
G0 X124.022 Y153.437
G0 F3600 X124.518 Y153.368
G1 F1800 X101.508 Y130.357 E81.74696
G0 X101.438 Y130.287
G0 F3600 X102.073 Y130.357
G1 F1800 X125.084 Y153.368 E82.55873
G0 X125.154 Y153.438
G0 F3600 X125.65 Y153.368
G1 F1800 X102.639 Y130.357 E83.37051
G0 X102.569 Y130.287
G0 F3600 X103.205 Y130.357
G1 F1800 X126.215 Y153.368 E84.18227
G0 X126.285 Y153.438
G0 F3600 X126.781 Y153.368
G1 F1800 X103.77 Y130.357 E84.99404
G0 X103.7 Y130.287
G0 F3600 X104.336 Y130.357
G1 F1800 X127.347 Y153.368 E85.80582
G0 X127.417 Y153.438
G0 F3600 X127.912 Y153.368
G1 F1800 X104.902 Y130.357 E86.61757
G0 X104.832 Y130.287
G0 F3600 X105.467 Y130.357
G1 F1800 X128.478 Y153.368 E87.42935
G0 X128.548 Y153.438
G0 F3600 X129.044 Y153.368
G1 F1800 X106.033 Y130.357 E88.24112
G0 X105.963 Y130.287
G0 F3600 X106.599 Y130.357
G1 F1800 X129.609 Y153.368 E89.05288
G0 X129.679 Y153.438
G0 F3600 X130.175 Y153.368
G1 F1800 X107.164 Y130.357 E89.86466
G0 X107.094 Y130.287
G0 F3600 X107.73 Y130.357
G1 F1800 X130.741 Y153.368 E90.67643
G0 X130.811 Y153.438
G0 F3600 X131.306 Y153.368
G1 F1800 X108.296 Y130.357 E91.48819
G0 X108.226 Y130.287
G0 F3600 X108.861 Y130.357
G1 F1800 X131.796 Y153.292 E92.29728
