; generated by Slic3r 1.2.9 on 2017-01-27 at 15:30:56

; external perimeters extrusion width = 0.60mm
; perimeters extrusion width = 0.67mm
; infill extrusion width = 0.67mm
; solid infill extrusion width = 0.67mm
; top infill extrusion width = 0.67mm
; support material extrusion width = 0.40mm

M107
M190 S65 ; set bed temperature
M104 S205 ; set temperature
G28 ; home all axes
G1 Z5 F5000 ; lift nozzle
M92 X80
M92 Y80
M92 Z2565

M109 S205 ; wait for temperature to be reached
G21 ; set units to millimeters
G90 ; use absolute coordinates
M82 ; use absolute distances for extrusion
G92 E0
G1 Z0.350 F7800.000
G1 E-0.80000 F2400.00000
G92 E0
G1 X73.395 Y74.347 F7800.000
G1 E0.80000 F2400.00000
G1 X73.632 Y74.135 E0.82889 F1800.000
G1 X74.226 Y73.666 E0.89774
G1 X74.639 Y73.377 E0.94356
G1 X75.527 Y72.865 E1.03679
G1 X76.564 Y72.425 E1.13916
G1 X77.562 Y72.135 E1.23374
G1 X78.210 Y72.020 E1.29354
G1 X79.328 Y71.919 E1.39564
G1 X79.925 Y71.910 E1.44994
G1 X80.229 Y71.925 E1.47758
G1 X81.245 Y72.057 E1.57076 F1800.000
G1 X82.004 Y72.235 E1.64166
G1 X82.500 Y72.381 E1.68865
G1 X83.398 Y72.736 E1.77644
G1 X83.689 Y72.876 E1.80580
G1 X84.586 Y73.391 E1.89991
G1 X85.387 Y73.985 E1.99058
G1 X85.648 Y74.209 E2.02186
G1 X86.418 Y74.983 E2.12110
G1 X86.863 Y75.541 E2.18604
G1 X87.177 Y75.993 E2.23608
G1 X87.666 Y76.812 E2.32281
G1 X87.831 Y77.146 E2.35664
G1 X88.196 Y78.035 E2.44403
G1 X88.427 Y78.847 E2.52082
G1 X88.610 Y79.835 E2.61213
G1 X88.665 Y80.377 E2.66168
G1 X88.682 Y81.034 E2.72147
G1 X88.641 Y81.901 E2.80044
G1 X88.515 Y82.780 E2.88118
G1 X88.287 Y83.658 E2.96365
G1 X87.952 Y84.558 E3.05096
G1 X87.713 Y85.069 E3.10223
G1 X87.355 Y85.733 E3.17085
G1 X87.034 Y86.228 E3.22445
G1 X86.503 Y86.922 E3.30391
G1 X85.814 Y87.639 E3.39433
G1 X85.522 Y87.900 E3.42994
G1 X84.840 Y88.435 E3.50882
G1 X83.914 Y89.004 E3.60759
G1 X83.509 Y89.210 E3.64896
G1 X82.601 Y89.586 E3.73831
G1 X81.623 Y89.868 E3.83085
G1 X81.308 Y89.933 E3.86011
G1 X80.833 Y89.998 E3.90366
G1 X80.171 Y90.054 E3.96410
G1 X79.258 Y90.089 E4.04714
G1 X78.916 Y90.070 E4.07833
G1 X77.895 Y89.936 E4.17194
G1 X76.701 Y89.625 E4.28417
G1 X75.851 Y89.286 E4.36736
G1 X75.476 Y89.107 E4.40517
G1 X74.621 Y88.616 E4.49482
G1 X73.803 Y88.010 E4.58740
G1 X73.498 Y87.743 E4.62421
G1 X72.767 Y87.005 E4.71875
G1 X72.261 Y86.366 E4.79282
G1 X72.005 Y85.992 E4.83407
G1 X71.607 Y85.336 E4.90381
G1 X71.361 Y84.849 E4.95341
G1 X71.086 Y84.205 E5.01706
G1 X70.977 Y83.897 E5.04679
G1 X70.783 Y83.218 E5.11097
G1 X70.610 Y82.323 E5.19391
G1 X70.534 Y81.675 E5.25321
G1 X70.514 Y80.999 E5.31468
G1 X70.551 Y80.150 E5.39194
G1 X70.660 Y79.303 E5.46958
G1 X70.933 Y78.257 E5.56794
G1 X71.026 Y77.976 E5.59478
G1 X71.406 Y77.060 E5.68496
G1 X71.789 Y76.353 E5.75809
G1 X72.105 Y75.848 E5.81228
G1 X72.593 Y75.196 E5.88632
G1 X72.776 Y74.982 E5.91196
G1 X73.353 Y74.390 E5.98711
G1 E5.18711 F2400.00000
G92 E0
G1 X75.038 Y75.974 F7800.000
G1 E0.80000 F2400.00000
G1 X75.648 Y75.490 E0.87075 F1800.000
G1 X75.963 Y75.279 E0.90520
G1 X76.502 Y74.961 E0.96215
G1 X77.264 Y74.629 E1.03775
G1 X78.209 Y74.356 E1.12715
G1 X79.064 Y74.254 E1.20543
G1 X79.482 Y74.227 E1.24357
G1 X79.967 Y74.223 E1.28768
G1 X80.876 Y74.338 E1.37097 F1800.000
G1 X81.448 Y74.480 E1.42455
G1 X81.792 Y74.582 E1.45718
G1 X82.530 Y74.879 E1.52954
G1 X83.253 Y75.282 E1.60480
G1 X83.571 Y75.506 E1.64015
G1 X84.013 Y75.845 E1.69080
G1 X84.184 Y76.029 E1.71366
G1 X84.458 Y76.277 E1.74723
G1 X84.649 Y76.466 E1.77163
G1 X85.154 Y77.111 E1.84616
G1 X85.619 Y77.886 E1.92833
G1 X85.827 Y78.318 E1.97193
G1 X85.981 Y78.699 E2.00926
G1 X86.109 Y79.182 E2.05468
G1 X86.165 Y79.329 E2.06900
G1 X86.290 Y79.950 E2.12661
G1 X86.375 Y80.505 E2.17769
G1 X86.372 Y80.976 E2.22048
G1 X86.350 Y81.154 E2.23684
G1 X86.393 Y81.355 E2.25554
G1 X86.352 Y81.497 E2.26896
G1 X86.270 Y82.219 E2.33500
G1 X86.088 Y82.945 E2.40310
G1 X86.016 Y83.141 E2.42211
G1 X85.994 Y83.272 E2.43418
G1 X85.853 Y83.530 E2.46089
G1 X85.809 Y83.701 E2.47699
G1 X85.498 Y84.330 E2.54078
G1 X85.259 Y84.730 E2.58315
G1 X84.982 Y85.076 E2.62339
G1 X84.896 Y85.270 E2.64276
G1 X84.151 Y86.032 E2.73961
G1 X83.481 Y86.564 E2.81740
G1 X82.594 Y87.087 E2.91102
G1 X81.808 Y87.415 E2.98848
G1 X81.009 Y87.639 E3.06393
G1 X80.643 Y87.693 E3.09756
G1 X79.614 Y87.773 E3.19140
G1 X79.233 Y87.777 E3.22604
G1 X78.365 Y87.674 E3.30555
G1 X77.458 Y87.442 E3.39065
G1 X77.394 Y87.440 E3.39652
G1 X77.286 Y87.372 E3.40808
G1 X76.646 Y87.110 E3.47098
G1 X75.970 Y86.732 E3.54143
G1 X75.190 Y86.160 E3.62941
G1 X74.984 Y85.932 E3.65732
G1 X74.801 Y85.783 E3.67879
G1 X74.550 Y85.537 E3.71076
G1 X74.065 Y84.920 E3.78208
G1 X73.779 Y84.441 E3.83284
G1 X73.639 Y84.248 E3.85455
G1 X73.493 Y83.954 E3.88443
G1 X73.151 Y83.147 E3.96408
G1 X73.137 Y83.011 E3.97651
G1 X73.010 Y82.594 E4.01614
G1 X72.977 Y82.421 E4.03213
G1 X72.935 Y82.325 E4.04171
G1 X72.950 Y82.266 E4.04719
G1 X72.925 Y82.043 E4.06763
G1 X72.888 Y81.924 E4.07892
G1 X72.853 Y81.660 E4.10320
G1 X72.824 Y81.029 E4.16061
G1 X72.863 Y80.200 E4.23604
G1 X72.912 Y80.017 E4.25330
G1 X72.930 Y79.748 E4.27776
G1 X73.168 Y78.848 E4.36248
G1 X73.242 Y78.632 E4.38323
G1 X73.342 Y78.439 E4.40296
G1 X73.462 Y78.112 E4.43468
G1 X73.648 Y77.754 E4.47135
G1 X73.940 Y77.255 E4.52386
G1 X74.277 Y76.839 E4.57264
G1 X74.436 Y76.594 E4.59913
G1 X74.997 Y76.017 E4.67233
G1 E3.87233 F2400.00000
G92 E0
G1 X77.590 Y86.068 F7800.000
G1 E0.80000 F2400.00000
G1 X77.270 Y86.645 E0.86003 F1800.000
G1 X76.937 Y86.513 E0.89264
G1 X76.761 Y86.405 E0.91145
G1 X76.671 Y86.293 E0.92448
G1 X76.544 Y86.290 E0.93601
G1 X76.212 Y86.099 E0.97084
G1 X75.754 Y85.721 E1.02488
G1 X75.635 Y85.685 E1.03619
G1 X75.589 Y85.584 E1.04623
G1 X75.096 Y85.141 E1.10656
G1 X75.050 Y85.028 E1.11769
G1 X74.945 Y84.966 E1.12871
G1 X74.907 Y84.877 E1.13755
G1 X74.802 Y84.774 E1.15091
G1 X74.770 Y84.658 E1.16181
G1 X74.638 Y84.571 E1.17616
G1 X74.585 Y84.435 E1.18945
G1 X74.550 Y84.412 E1.19328
G1 X74.530 Y84.350 E1.19922
G1 X74.496 Y84.322 E1.20325
G1 X74.479 Y84.245 E1.21038
G1 X74.410 Y84.186 E1.21862
G1 X74.389 Y84.125 E1.22446
G1 X74.296 Y84.020 E1.23727
G1 X74.088 Y83.640 E1.27661
G1 X74.068 Y83.540 E1.28591
G1 X74.012 Y83.459 E1.29482
G1 X73.990 Y83.333 E1.30649
G1 X73.926 Y83.254 E1.31569
G1 X73.903 Y83.138 E1.32648
G1 X73.836 Y83.042 E1.33713
G1 X73.815 Y82.895 E1.35069
G1 X73.749 Y82.739 E1.36599
G1 X73.667 Y82.335 E1.40348
G1 X73.645 Y82.321 E1.40586
G1 X73.612 Y82.007 E1.43459
G1 X73.651 Y81.879 E1.44671
G1 X73.510 Y81.718 E1.46614
G1 X73.541 Y81.603 E1.47703
G1 X73.510 Y81.458 E1.49048
G1 X73.498 Y81.216 E1.51255
G1 X73.527 Y81.186 E1.51632
G1 X73.506 Y80.834 E1.54839
G1 X73.523 Y80.807 E1.55122
G1 X73.513 Y80.558 E1.57393
G1 X73.544 Y80.512 E1.57900
G1 X73.538 Y80.308 E1.59753
G1 X73.585 Y80.101 E1.61685
G1 X73.594 Y79.853 E1.63942
G1 X73.640 Y79.769 E1.64814
G1 X73.696 Y79.728 E1.65440
G1 X73.690 Y79.576 E1.66826
G1 X73.709 Y79.440 E1.68073
G1 X73.758 Y79.366 E1.68881
G1 X73.753 Y79.254 E1.69900
G1 X73.818 Y79.070 E1.71674
G1 X73.858 Y79.060 E1.72052
G1 X73.910 Y78.805 E1.74417
G1 X73.962 Y78.728 E1.75263
G1 X73.979 Y78.663 E1.75874
G1 X74.053 Y78.584 E1.76862
G1 X74.048 Y78.491 E1.77706
G1 X74.119 Y78.360 E1.79055
G1 X74.144 Y78.251 E1.80075
G1 X74.285 Y78.208 E1.81422
G1 X74.286 Y78.002 E1.83298
G1 X74.371 Y77.887 E1.84598
G1 X74.393 Y77.793 E1.85472
G1 X74.475 Y77.728 E1.86423
G1 X74.519 Y77.592 E1.87722
G1 X74.943 Y77.060 E1.93905
G1 X75.107 Y76.895 E1.96021
G1 X75.235 Y76.831 E1.97325
G1 X75.237 Y76.741 E1.98142
G1 X75.450 Y76.506 E2.01022
G1 X75.623 Y76.361 E2.03077
G1 X75.676 Y76.352 E2.03566
G1 X75.812 Y76.215 E2.05325
G1 X75.909 Y76.180 E2.06255
G1 X76.015 Y76.043 E2.07829
G1 X76.081 Y76.027 E2.08452
G1 X76.223 Y75.888 E2.10254
G1 X76.366 Y75.902 E2.11562
G1 X76.527 Y75.724 E2.13747
G1 X77.795 Y75.192 E2.26254
G1 X77.796 Y75.164 E2.26507
G1 X78.334 Y75.008 E2.31596
G1 X79.116 Y74.915 E2.38762
G1 X79.860 Y74.889 E2.45531
G1 X79.889 Y74.907 E2.45842
G1 X80.213 Y74.922 E2.48785
G1 X80.275 Y74.951 E2.49411
G1 X80.547 Y74.959 E2.51879
G1 X80.613 Y74.993 E2.52557
G1 X80.775 Y74.996 E2.54029
G1 X81.270 Y75.118 E2.58659
G1 X81.388 Y75.150 E2.59773
G1 X81.502 Y75.212 E2.60958
G1 X81.605 Y75.221 E2.61903
G1 X82.240 Y75.476 E2.68121
G1 X82.377 Y75.566 E2.69611
G1 X82.506 Y75.780 E2.71880
G1 X82.668 Y75.735 E2.73402
G1 X82.741 Y75.789 E2.74234
G1 X82.799 Y75.803 E2.74773
G1 X82.879 Y75.877 E2.75764
G1 X82.988 Y75.907 E2.76792
G1 X83.348 Y76.199 E2.81004
G1 X83.455 Y76.309 E2.82402
G1 X83.544 Y76.310 E2.83203
G1 X83.742 Y76.565 E2.86141
G1 X83.775 Y76.567 E2.86442
G1 X84.108 Y76.867 E2.90516
G1 X84.193 Y77.030 E2.92186
G1 X84.235 Y77.044 E2.92583
G1 X84.413 Y77.247 E2.95043
G1 X84.479 Y77.382 E2.96413
G1 X84.549 Y77.419 E2.97134
G1 X84.590 Y77.545 E2.98331
G1 X84.636 Y77.577 E2.98842
G1 X84.757 Y77.763 E3.00861
G1 X84.759 Y77.827 E3.01446
G1 X84.856 Y77.932 E3.02744
G1 X84.860 Y77.981 E3.03192
G1 X84.940 Y78.065 E3.04244
G1 X85.000 Y78.209 E3.05664
G1 X85.096 Y78.337 E3.07116
G1 X85.139 Y78.521 E3.08839
G1 X85.174 Y78.549 E3.09242
G1 X85.226 Y78.796 E3.11539
G1 X85.346 Y78.941 E3.13253
G1 X85.361 Y79.126 E3.14937
G1 X85.427 Y79.197 E3.15817
G1 X85.450 Y79.370 E3.17403
G1 X85.525 Y79.516 E3.18901
G1 X85.590 Y79.930 E3.22709
G1 X85.646 Y80.104 E3.24372
G1 X85.625 Y80.132 E3.24686
G1 X85.670 Y80.393 E3.27102
G1 X85.623 Y80.449 E3.27766
G1 X85.678 Y80.600 E3.29229
G1 X85.649 Y80.773 E3.30819
G1 X85.794 Y81.013 E3.33373
G1 X85.633 Y81.032 E3.34845
G1 X85.602 Y81.072 E3.35309
G1 X85.668 Y81.206 E3.36666
G1 X85.680 Y81.487 E3.39223
G1 X85.626 Y81.675 E3.41008
G1 X85.635 Y81.885 E3.42920
G1 X85.579 Y82.079 E3.44752
G1 X85.587 Y82.149 E3.45390
G1 X85.557 Y82.197 E3.45903
G1 X85.531 Y82.379 E3.47582
G1 X85.487 Y82.419 E3.48121
G1 X85.482 Y82.562 E3.49424
G1 X85.458 Y82.593 E3.49778
G1 X85.348 Y83.019 E3.53778
G1 X85.005 Y83.444 E3.58748
G1 X85.110 Y83.490 E3.59792
G1 X85.037 Y83.764 E3.62375
G1 X84.951 Y83.837 E3.63402
G1 X84.918 Y83.974 E3.64680
G1 X84.811 Y84.105 E3.66216
G1 X84.797 Y84.188 E3.66987
G1 X84.684 Y84.310 E3.68494
G1 X84.657 Y84.440 E3.69702
G1 X84.285 Y84.864 E3.74834
G1 X84.291 Y84.928 E3.75419
G1 X84.103 Y85.128 E3.77915
G1 X84.017 Y85.167 E3.78769
G1 X83.677 Y85.559 E3.83485
G1 X83.553 Y85.623 E3.84762
G1 X83.500 Y85.708 E3.85668
G1 X83.433 Y85.728 E3.86311
G1 X83.301 Y85.857 E3.87991
G1 X83.201 Y85.899 E3.88971
G1 X83.055 Y86.052 E3.90893
G1 X82.425 Y86.428 E3.97567
G1 X82.241 Y86.502 E3.99362
G1 X81.713 Y86.505 E4.04162
G1 X81.653 Y86.749 E4.06446
G1 X81.540 Y86.799 E4.07568
G1 X81.273 Y86.859 E4.10057
G1 X81.188 Y86.901 E4.10917
G1 X80.948 Y86.941 E4.13126
G1 X80.832 Y86.996 E4.14293
G1 X80.561 Y87.035 E4.16789
G1 X79.639 Y87.107 E4.25197
G1 X79.581 Y87.088 E4.25750
G1 X79.238 Y87.112 E4.28877
G1 X78.505 Y87.024 E4.35585
G1 X77.806 Y86.849 E4.42142
G1 X77.606 Y86.126 E4.48966
G1 X77.303 Y85.789 F7800.000
G1 E3.68966 F2400.00000
G92 E0
G1 X81.224 Y85.884 F7800.000
G1 E0.80000 F2400.00000
G1 X81.138 Y86.231 E0.83248 F1800.000
G1 X80.996 Y86.299 E0.84685
G1 X80.758 Y86.340 E0.86878
G1 X80.649 Y86.391 E0.87971
G1 X79.716 Y86.474 E0.96491
G1 X79.660 Y86.456 E0.97025
G1 X79.253 Y86.485 E1.00738
G1 X78.401 Y86.382 E1.08541
G1 X79.838 Y84.569 E1.29574
G1 X80.419 Y83.249 E1.42693
G1 X80.706 Y82.995 E1.46177
G1 X80.575 Y82.225 E1.53286
G1 X80.222 Y81.539 E1.60299
G1 X79.007 Y81.504 E1.71350
G1 X79.264 Y79.828 E1.86763
G1 X79.399 Y79.695 E1.88488
G1 X79.310 Y79.526 E1.90223
G1 X79.322 Y79.448 E1.90937
G1 X79.274 Y79.456 E1.91384
G1 X78.442 Y77.870 E2.07675
G1 X78.417 Y77.889 E2.07964
G1 X77.766 Y77.395 E2.15392
G1 X77.403 Y77.069 E2.19833
G1 X77.438 Y76.020 E2.29376
G1 X78.216 Y75.693 E2.37059
G1 X78.459 Y75.623 E2.39350
G1 X79.164 Y75.539 E2.45811
G1 X79.656 Y75.521 E2.50286
G1 X80.063 Y75.541 E2.53996
G1 X80.145 Y75.578 E2.54813
G1 X80.377 Y75.574 E2.56922
G1 X80.458 Y75.615 E2.57749
G1 X80.693 Y75.619 E2.59884
G1 X81.152 Y75.733 E2.64183
G1 X81.316 Y75.824 E2.65886
G1 X81.459 Y75.836 E2.67189
G1 X81.923 Y76.022 E2.71733
G1 X82.216 Y76.508 E2.76890
G1 X82.518 Y76.424 E2.79739
G1 X82.695 Y76.474 E2.81408
G1 X82.927 Y76.662 E2.84120
G1 X83.190 Y76.931 E2.87544
G1 X83.236 Y76.931 E2.87958
G1 X83.419 Y77.167 E2.90676
G1 X83.515 Y77.174 E2.91551
G1 X83.607 Y77.256 E2.92666
G1 X83.756 Y77.542 E2.95600
G1 X83.883 Y77.584 E2.96812
G1 X84.006 Y77.839 E2.99384
G1 X84.033 Y77.853 E2.99658
G1 X84.059 Y77.932 E3.00414
G1 X84.138 Y77.989 E3.01307
G1 X84.141 Y78.080 E3.02130
G1 X84.252 Y78.199 E3.03609
G1 X84.256 Y78.251 E3.04084
G1 X84.407 Y78.412 E3.06090
G1 X84.495 Y78.621 E3.08153
G1 X84.526 Y78.642 E3.08491
G1 X84.581 Y78.878 E3.10699
G1 X84.609 Y78.900 E3.11023
G1 X84.700 Y79.331 E3.15027
G1 X84.833 Y79.476 E3.16818
G1 X84.845 Y79.559 E3.17584
G1 X84.923 Y79.712 E3.19150
G1 X85.005 Y80.212 E3.23752
G1 X84.912 Y80.322 E3.25060
G1 X85.023 Y80.628 E3.28023
G1 X84.944 Y80.897 E3.30574
G1 X84.867 Y80.995 E3.31702
G1 X85.059 Y81.384 E3.35651
G1 X84.997 Y81.601 E3.37699
G1 X85.006 Y81.811 E3.39613
G1 X84.930 Y82.079 E3.42150
G1 X84.871 Y82.132 E3.42870
G1 X84.862 Y82.388 E3.45196
G1 X84.787 Y82.719 E3.48288
G1 X84.002 Y83.692 E3.59651
G1 X84.290 Y83.816 E3.62501
G1 X84.107 Y84.013 E3.64937
G1 X84.079 Y84.152 E3.66228
G1 X83.612 Y84.664 E3.72531
G1 X83.287 Y85.058 E3.77172
G1 X83.111 Y85.149 E3.78968
G1 X82.948 Y85.328 E3.81177
G1 X82.840 Y85.374 E3.82243
G1 X82.663 Y85.558 E3.84565
G1 X82.128 Y85.877 E3.90229
G1 X81.284 Y85.884 E3.97899
G1 E3.17899 F2400.00000
G92 E0
G1 X80.460 Y80.613 F7800.000
G1 E0.80000 F2400.00000
G1 X80.694 Y80.928 E0.83569 F1800.000
G1 X79.732 Y80.900 E0.92328
G1 X79.850 Y80.128 E0.99431
G1 X80.167 Y79.815 E1.03483
G1 X79.959 Y79.418 E1.07557
G1 X80.070 Y78.698 E1.14181
G1 X79.619 Y78.769 E1.18331
G1 X79.408 Y78.339 E1.22686
G1 X78.642 Y76.906 E1.37458
G1 X78.406 Y77.096 E1.40215
G1 X78.165 Y76.913 E1.42966
G1 X78.037 Y76.799 E1.44527
G1 X78.049 Y76.441 E1.47782
G1 X78.425 Y76.283 E1.51492
G1 X78.583 Y76.237 E1.52989
G1 X79.212 Y76.162 E1.58747
G1 X79.652 Y76.147 E1.62751
G1 X79.914 Y76.159 E1.65137
G1 X80.015 Y76.205 E1.66147
G1 X80.234 Y76.201 E1.68131
G1 X80.304 Y76.237 E1.68844
G1 X80.611 Y76.243 E1.71642
G1 X80.920 Y76.319 E1.74530
G1 X81.130 Y76.435 E1.76716
G1 X81.312 Y76.450 E1.78377
G1 X81.496 Y76.524 E1.80178
G1 X81.926 Y77.235 E1.87734
G1 X82.468 Y77.086 E1.92842
G1 X82.940 Y77.568 E1.98973
G1 X83.097 Y77.769 E2.01296
G1 X83.173 Y77.775 E2.01991
G1 X83.562 Y78.517 E2.09610
G1 X82.236 Y78.078 E2.22309
G1 X81.671 Y79.823 E2.38984
G1 X81.594 Y79.903 E2.39996
G1 X81.584 Y79.992 E2.40810
G1 X80.512 Y80.584 E2.51940
G1 E1.71940 F2400.00000
G92 E0
G1 X82.043 Y83.894 F7800.000
G1 E0.80000 F2400.00000
G1 X83.436 Y82.879 E0.95670 F1800.000
G1 X83.662 Y83.118 E0.98659
G1 X82.999 Y83.939 E1.08262
G1 X83.281 Y84.061 E1.11055
G1 X82.896 Y84.556 E1.16758
G1 X82.670 Y84.674 E1.19073
G1 X82.592 Y84.800 E1.20425
G1 X82.478 Y84.849 E1.21548
G1 X82.271 Y85.064 E1.24270
G1 X81.953 Y85.254 E1.27631
G1 X80.736 Y85.263 E1.38705
G1 X80.623 Y85.712 E1.42912
G1 X80.423 Y85.792 E1.44877
G1 X79.616 Y85.855 E1.52239
G1 X80.447 Y84.807 E1.64404
G1 X80.454 Y84.707 E1.65315
G1 X80.935 Y83.627 E1.76057
G1 X81.381 Y83.234 E1.81470
G1 X81.269 Y82.575 E1.87549
G1 X81.610 Y82.493 E1.90743
G1 X82.025 Y83.837 E2.03530
G1 E1.23530 F2400.00000
G92 E0
G1 X82.721 Y81.854 F7800.000
G1 E0.80000 F2400.00000
G1 X82.564 Y81.345 E0.84839 F1800.000
G1 X82.318 Y81.015 E0.88589
G1 X82.600 Y80.859 E0.91521
G1 X82.756 Y80.735 E0.93333
G1 X82.787 Y80.466 E0.95795
G1 X82.869 Y80.380 E0.96874
G1 X82.826 Y80.315 E0.97591
G1 X83.038 Y79.660 E1.03848
G1 X83.597 Y79.845 E1.09201
G1 X83.819 Y80.294 E1.13757
G1 X83.617 Y80.535 E1.16616
G1 X83.751 Y80.739 E1.18836
G1 X83.507 Y80.976 E1.21933
G1 X83.339 Y81.404 E1.26112
G1 X82.769 Y81.818 E1.32517
G1 X82.354 Y82.013 F7800.000
G1 X82.382 Y82.874 F7800.000
G1 X81.999 Y81.632 E1.44333 F1800.000
G1 X81.389 Y80.814 E1.53615
G1 X82.142 Y80.398 E1.61441
G1 X82.191 Y80.185 E1.63428
G1 X82.221 Y80.153 E1.63832
G1 X82.637 Y78.869 E1.76097
G1 X84.041 Y79.334 E1.89543
