;FLAVOR:RepRap
;TIME:4513
;Generated with Cura_SteamEngine 2.3.1
G21 ; set units to millimeters
G90 ; use absolute positioning
M82 ; absolute extrusion mode
G28 W ; home all without mesh bed level
G80 ; mesh bed leveling
M104 S180 ; set extruder temp
M140 S55 ; set bed temp
M190 S55 ; wait for bed temp
M109 S180 ; wait for extruder temp
G92 E0.0 ; reset extruder distance position
G1 Y-3.0 F1000.0 ; go outside print area
G1 X60.0 E9.0 F1000.0 ; intro line
G1 X100.0 E21.5 F1000.0 ; intro line
G92 E0.0 ; reset extruder distance position
;LAYER_COUNT:111
;LAYER:0
M107
G1 F2100 E-0.8
G0 F3600 X127.559 Y39.475 Z.15
G0 X127.452 Y40.001
;TYPE:SKIRT
G1 F2100 E0
G1 F1800 X127.559 Y39.475 E0.01339
G1 X127.743 Y38.972 E0.02675
G1 X128 Y38.501 E0.04013
G1 X128.323 Y38.073 E0.05351
G1 X128.707 Y37.699 E0.06688
G1 X129.142 Y37.385 E0.08026
G1 X129.619 Y37.14 E0.09364
G1 X130.127 Y36.968 E0.10702
G1 X130.655 Y36.874 E0.1204
G1 X131.024 Y36.855 E0.12961
G1 X137.598 Y36.856 E0.2936
G1 X137.699 Y36.857 E0.29612
G1 X143.545 Y37.023 E0.44201
G1 X150.318 Y36.983 E0.61097
G1 X152.855 Y36.88 E0.67431
G1 X158.299 Y36.461 E0.81051
G1 X164.713 Y35.571 E0.97204
G1 X164.98 Y35.544 E0.97873
G1 X167.992 Y35.353 E1.05402
G1 X168.223 Y35.346 E1.05978
G1 X179.835 Y35.356 E1.34945
G1 X180.37 Y35.396 E1.36283
G1 X180.893 Y35.516 E1.37621
G1 X181.392 Y35.712 E1.38959
G1 X181.857 Y35.979 E1.40296
G1 X182.276 Y36.313 E1.41633
G1 X182.642 Y36.706 E1.42973
G1 X182.945 Y37.148 E1.44309
G1 X183.179 Y37.63 E1.45646
G1 X183.339 Y38.142 E1.46984
G1 X183.421 Y38.672 E1.48322
G1 X183.432 Y38.948 E1.49011
G1 X183.443 Y44.151 E1.6199
G1 X183.442 Y44.247 E1.62229
G1 X183.277 Y51 E1.7908
G1 X183.441 Y56.374 E1.92492
G1 X183.443 Y56.491 E1.92783
G1 X183.433 Y61.655 E2.05665
G1 X183.392 Y62.19 E2.07004
G1 X183.272 Y62.712 E2.0834
G1 X183.076 Y63.211 E2.09677
G1 X182.808 Y63.676 E2.11016
G1 X182.473 Y64.095 E2.12354
G1 X182.08 Y64.46 E2.13692
G1 X181.638 Y64.763 E2.15029
G1 X181.155 Y64.996 E2.16366
G1 X180.643 Y65.156 E2.17705
G1 X179.845 Y65.248 E2.19708
G1 X167.35 Y65.29 E2.50877
G1 X166.903 Y65.264 E2.51994
G1 X157.037 Y64.062 E2.76787
G1 X151.617 Y63.71 E2.90336
G1 X147.506 Y63.623 E3.00593
G1 X140.704 Y63.663 E3.17561
G1 X137.922 Y63.778 E3.24507
G1 X137.778 Y63.781 E3.24866
G1 X131.032 Y63.79 E3.41694
G1 X130.497 Y63.751 E3.43032
G1 X129.974 Y63.633 E3.4437
G1 X129.474 Y63.438 E3.45708
G1 X129.009 Y63.171 E3.47046
G1 X128.588 Y62.838 E3.48385
G1 X128.222 Y62.447 E3.49721
G1 X127.918 Y62.005 E3.51059
G1 X127.683 Y61.523 E3.52397
G1 X127.522 Y61.011 E3.53736
G1 X127.455 Y60.635 E3.54688
G1 X126.841 Y55.71 E3.67069
G1 X126.312 Y52.483 E3.75226
G1 X126.265 Y51.898 E3.7669
G1 X126.267 Y48.73 E3.84593
G1 X126.317 Y48.132 E3.8609
G1 X126.724 Y45.724 E3.92182
G1 X127.452 Y40.001 E4.06573
G0 F3600 X127.849 Y40.051
G1 F1800 X127.952 Y39.556 E4.07834
G1 X128.132 Y39.084 E4.09094
G1 X128.384 Y38.646 E4.10355
G1 X128.702 Y38.253 E4.11616
G1 X129.077 Y37.914 E4.12877
G1 X129.502 Y37.64 E4.14138
G1 X129.964 Y37.435 E4.15399
G1 X130.453 Y37.306 E4.1666
G1 X131.023 Y37.255 E4.18088
G1 X137.597 Y37.256 E4.34487
G1 X137.688 Y37.257 E4.34714
G1 X143.536 Y37.423 E4.49308
G1 X150.337 Y37.383 E4.66273
G1 X152.845 Y37.281 E4.72535
G1 X158.353 Y36.857 E4.86315
G1 X164.768 Y35.967 E5.0247
G1 X165.005 Y35.943 E5.03065
G1 X168.017 Y35.752 E5.10593
G1 X168.223 Y35.746 E5.11107
G1 X179.835 Y35.756 E5.40074
G1 X180.339 Y35.796 E5.41335
G1 X180.83 Y35.916 E5.42596
G1 X181.296 Y36.111 E5.43856
G1 X181.726 Y36.377 E5.45117
G1 X182.109 Y36.707 E5.46378
G1 X182.435 Y37.094 E5.4764
G1 X182.695 Y37.527 E5.489
G1 X182.885 Y37.996 E5.50163
G1 X182.998 Y38.489 E5.51424
G1 X183.032 Y38.949 E5.52575
G1 X183.043 Y44.152 E5.65554
G1 X183.042 Y44.237 E5.65766
G1 X182.877 Y50.985 E5.82604
G1 X183.042 Y56.387 E5.96086
G1 X183.043 Y56.49 E5.96342
G1 X183.033 Y61.654 E6.09224
G1 X182.992 Y62.158 E6.10486
G1 X182.872 Y62.649 E6.11746
G1 X182.677 Y63.115 E6.13006
G1 X182.41 Y63.545 E6.14269
G1 X182.079 Y63.927 E6.1553
G1 X181.692 Y64.253 E6.16792
G1 X181.259 Y64.513 E6.18052
G1 X180.79 Y64.702 E6.19313
G1 X180.297 Y64.814 E6.20575
G1 X179.844 Y64.848 E6.21708
G1 X167.349 Y64.89 E6.52877
G1 X166.951 Y64.867 E6.53871
G1 X157.075 Y63.664 E6.78689
G1 X151.629 Y63.311 E6.92303
G1 X147.512 Y63.223 E7.02575
G1 X140.685 Y63.263 E7.19605
G1 X137.906 Y63.378 E7.26544
G1 X137.777 Y63.381 E7.26865
G1 X131.031 Y63.39 E7.43693
G1 X130.527 Y63.351 E7.44954
G1 X130.036 Y63.233 E7.46214
G1 X129.569 Y63.038 E7.47476
G1 X129.138 Y62.773 E7.48739
G1 X128.755 Y62.444 E7.49998
G1 X128.429 Y62.058 E7.51258
G1 X128.167 Y61.625 E7.52521
G1 X127.977 Y61.157 E7.53781
G1 X127.852 Y60.586 E7.55239
G1 X127.237 Y55.645 E7.67659
G1 X126.707 Y52.418 E7.75817
G1 X126.665 Y51.898 E7.77118
G1 X126.667 Y48.73 E7.85021
G1 X126.712 Y48.198 E7.86353
G1 X127.119 Y45.791 E7.92442
G1 X127.849 Y40.051 E8.06876
G0 F3600 X131.198 Y40.646
;TYPE:SUPPORT
G1 F1800 X137.552 Y40.646 E8.22726
G1 X137.91 Y40.823 E8.23722
G1 X153.107 Y40.823 E8.61632
G1 X153.465 Y40.646 E8.62628
G1 X155.412 Y40.646 E8.67485
G1 X155.412 Y40.768 E8.67789
G1 X155.865 Y41.143 E8.69256
G1 X165.257 Y39.323 E8.9312
G1 X167.019 Y39.323 E8.97515
G1 X167.377 Y39.146 E8.98512
G1 X168.325 Y39.146 E9.00877
G1 X167.949 Y39.522 E9.02203
G1 X167.949 Y44.5 E9.14621
G1 X167.519 Y44.5 E9.15693
G1 X167.161 Y44.323 E9.16689
G1 X163.635 Y44.323 E9.25485
G1 X163.236 Y44.722 E9.26893
G1 X163.236 Y55.924 E9.54836
G1 X163.635 Y56.323 E9.56244
G1 X167.161 Y56.323 E9.65039
G1 X167.519 Y56.146 E9.66036
G1 X167.949 Y56.146 E9.67108
G1 X167.947 Y61.124 E9.79526
G1 X168.323 Y61.5 E9.80852
G1 X167.377 Y61.5 E9.83212
G1 X167.02 Y61.32 E9.8421
G1 X165.296 Y61.32 E9.8851
G1 X155.865 Y59.498 E10.12471
G1 X155.412 Y59.873 E10.13938
G1 X155.412 Y60 E10.14255
G1 X153.465 Y60 E10.19111
G1 X153.107 Y59.823 E10.20108
G1 X137.91 Y59.823 E10.58017
G1 X137.552 Y60 E10.59013
G1 X131.198 Y60 E10.74863
G1 X131.198 Y52.111 E10.94542
G1 X130.799 Y51.712 E10.9595
G1 X130.056 Y51.712 E10.97803
G1 X130.056 Y48.863 E11.0491
G1 X130.383 Y48.536 E11.06064
G1 X130.383 Y48.386 E11.06438
G1 X130.799 Y48.386 E11.07476
G1 X131.198 Y47.987 E11.08883
G1 X131.198 Y40.646 E11.27195
G1 F2100 E10.47195
G0 F3600 X171.685 Y44.976
G0 X175.837 Y44.976
G0 X175.849 Y39.146
G0 X175.587 Y39.146
G1 F2100 E11.27195
G1 F1800 X179.643 Y39.146 E11.37313
G1 X179.643 Y44.426 E11.50484
G1 X179.642 Y44.5 E11.50669
G1 X175.587 Y44.5 E11.60784
G1 X175.963 Y44.124 E11.6211
G1 X175.963 Y39.522 E11.7359
G1 X175.587 Y39.146 E11.74917
G1 F2100 E10.94917
G0 F3600 X175.849 Y39.146
G0 X175.963 Y56.522
G1 F2100 E11.74917
G1 F1800 X175.587 Y56.146 E11.76243
G1 X179.643 Y56.146 E11.86361
G1 X179.643 Y61.426 E11.99532
G1 X179.642 Y61.5 E11.99716
G1 X175.587 Y61.5 E12.09832
G1 X175.963 Y61.124 E12.11158
G1 X175.963 Y56.522 E12.22638
G1 F2100 E11.42638
G0 F3600 X176.123 Y58.652
G1 F2100 E12.22638
G1 F1800 X179.483 Y58.652 E12.31019
G1 F2100 E11.51019
G0 F3600 X178.622 Y56.306
G1 F2100 E12.31019
G1 F1800 X178.622 Y61.34 E12.43577
G1 F2100 E11.63577
G0 F3600 X179.483 Y61.318
G1 F2100 E12.43577
G1 F1800 X176.034 Y61.318 E12.5218
G1 F2100 E11.7218
G0 F3600 X175.837 Y55.67
G0 X171.686 Y55.67
G0 X167.875 Y61.318
G1 F2100 E12.5218
G1 F1800 X167.372 Y61.318 E12.53435
G1 F2100 E11.73435
G0 F3600 X165.292 Y61.155
G1 F2100 E12.53435
G1 F1800 X165.292 Y56.483 E12.65089
G1 F2100 E11.85089
G0 F3600 X163.076 Y55.986
G1 F2100 E12.65089
G1 F1800 X131.358 Y55.986 E13.4421
G1 F2100 E12.6421
G0 F3600 X131.358 Y53.32
G1 F2100 E13.4421
G1 F1800 X163.076 Y53.32 E14.23331
G1 F2100 E13.43331
G0 F3600 X163.076 Y50.654
G1 F2100 E14.23331
G1 F1800 X130.216 Y50.654 E15.05301
G1 F2100 E14.25301
G0 F3600 X130.634 Y51.552
G1 F2100 E15.05301
G1 F1800 X130.634 Y48.546 E15.12799
G1 F2100 E14.32799
G0 F3600 X131.358 Y47.988
G1 F2100 E15.12799
G1 F1800 X163.076 Y47.988 E15.9192
G1 F2100 E15.1192
G0 F3600 X163.076 Y45.322
G1 F2100 E15.9192
G1 F1800 X131.358 Y45.322 E16.71041
G1 F2100 E15.91041
G0 F3600 X131.358 Y42.656
G1 F2100 E16.71041
G1 F1800 X167.789 Y42.656 E17.61918
G1 F2100 E16.81918
G0 F3600 X167.789 Y39.99
G1 F2100 E17.61918
G1 F1800 X162.655 Y39.99 E17.74725
G0 F3600 X162.626 Y39.996
G1 F1800 X162.626 Y60.64 E18.26222
G1 F2100 E17.46222
G0 F3600 X159.96 Y60.125
G1 F2100 E18.26222
G1 F1800 X159.96 Y40.513 E18.75144
G1 F2100 E17.95144
G0 F3600 X157.294 Y41.029
G1 F2100 E18.75144
G1 F1800 X157.294 Y59.61 E19.21495
G1 F2100 E18.41495
G0 F3600 X154.628 Y59.84
G1 F2100 E19.21495
G1 F1800 X154.628 Y40.806 E19.68975
G1 F2100 E18.88975
G0 F3600 X151.962 Y40.983
G1 F2100 E19.68975
G1 F1800 X151.962 Y59.663 E20.15573
G1 F2100 E19.35573
G0 F3600 X149.296 Y59.663
G1 F2100 E20.15573
G1 F1800 X149.296 Y40.983 E20.6217
G1 F2100 E19.8217
G0 F3600 X146.63 Y40.983
G1 F2100 E20.6217
G1 F1800 X146.63 Y59.663 E21.08768
G1 F2100 E20.28768
G0 F3600 X143.964 Y59.663
G1 F2100 E21.08768
G1 F1800 X143.964 Y40.983 E21.55365
G1 F2100 E20.75365
G0 F3600 X141.298 Y40.983
G1 F2100 E21.55365
G1 F1800 X141.298 Y59.663 E22.01962
G1 F2100 E21.21962
G0 F3600 X138.632 Y59.663
G1 F2100 E22.01962
G1 F1800 X138.632 Y40.983 E22.4856
G1 F2100 E21.6856
G0 F3600 X135.966 Y40.806
G1 F2100 E22.4856
G1 F1800 X135.966 Y59.84 E22.9604
G1 F2100 E22.1604
G0 F3600 X133.3 Y59.84
G1 F2100 E22.9604
G1 F1800 X133.3 Y40.806 E23.43521
G0 F3600 X131.358 Y58.652
G1 F1800 X167.788 Y58.652 E24.34396
G0 F3600 X165.292 Y44.163
G1 F1800 X165.292 Y39.483 E24.4607
G1 F2100 E23.6607
G0 F3600 X171.685 Y44.976
G0 X175.837 Y44.976
G0 X176.123 Y39.99
G1 F2100 E24.4607
G1 F1800 X179.483 Y39.99 E24.54452
G1 F2100 E23.74452
G0 F3600 X178.622 Y39.306
G1 F2100 E24.54452
G1 F1800 X178.622 Y44.34 E24.67009
G1 F2100 E23.87009
G0 F3600 X179.483 Y42.656
G1 F2100 E24.67009
G1 F1800 X176.123 Y42.656 E24.75391
G1 F2100 E23.95391
G0 F3600 X174.544 Y42.656
G0 X174.484 Y40.123
G0 X174.584 Y40.123
;TYPE:WALL-INNER
G1 F2100 E24.75391
G1 F1800 X174.584 Y43.723 E24.84371
G1 X172.938 Y43.723 E24.88477
G1 X172.938 Y43.268 E24.89612
G1 X172.702 Y40.14 E24.97437
G1 X172.686 Y39.926 E24.97972
G1 X172.9 Y39.926 E24.9831
G1 X172.901 Y39.926 E24.98313
G1 X174.384 Y39.923 E25.02012
G1 X174.584 Y39.923 E25.02511
G1 X174.584 Y40.123 E25.02834
G0 F3600 X174.984 Y39.723
;TYPE:WALL-OUTER
G1 F1800 X174.984 Y44.123 E25.1381
G1 X172.538 Y44.123 E25.19911
G1 X172.538 Y43.283 E25.22007
G1 X172.271 Y39.74 E25.3087
G1 X172.255 Y39.526 E25.31405
G1 X172.469 Y39.526 E25.31743
G1 X172.47 Y39.526 E25.31746
G1 X174.784 Y39.523 E25.37518
G1 X174.984 Y39.523 E25.38017
G1 X174.984 Y39.723 E25.3834
G0 F3600 X174.514 Y39.993
G0 X174.403 Y40.336
;TYPE:SKIN
G1 F1800 X174.171 Y40.103 E25.3916
G0 F3600 X173.606 Y40.104
G1 F1800 X174.403 Y40.901 E25.41972
G0 X174.473 Y40.971
G0 F3600 X174.403 Y41.467
G1 F1800 X173.042 Y40.106 E25.46773
G0 X172.972 Y40.036
G0 F3600 X172.91 Y40.54
G1 F1800 X174.403 Y42.033 E25.5204
G0 X174.473 Y42.103
G0 F3600 X174.403 Y42.598
G1 F1800 X172.957 Y41.152 E25.57141
G0 X172.887 Y41.082
G0 F3600 X173.003 Y41.764
G1 F1800 X174.403 Y43.164 E25.6208
G0 X174.473 Y43.234
G0 F3600 X174.216 Y43.542
G1 F1800 X173.05 Y42.376 E25.66194
G0 X172.98 Y42.306
G0 F3600 X173.096 Y42.988
G1 F1800 X173.65 Y43.542 E25.68148
G0 F3600 X173.65 Y43.323
G1 F2100 E24.88148
G0 F3600 X173.036 Y43.683
G0 X173.036 Y44.988
G0 X173.036 Y55.658
G0 X173.036 Y56.963
G0 X173.036 Y57.38
G0 X172.937 Y57.377
;TYPE:WALL-INNER
G1 F2100 E25.68148
G1 F1800 X172.938 Y56.923 E25.6928
G1 X174.584 Y56.923 E25.73386
G1 X174.584 Y60.522 E25.82364
G1 X174.584 Y60.722 E25.82863
G1 X174.384 Y60.722 E25.83186
G1 X172.902 Y60.72 E25.86883
G1 X172.901 Y60.72 E25.86885
G1 X172.687 Y60.72 E25.87419
G1 X172.703 Y60.506 E25.87758
G1 X172.937 Y57.377 E25.95585
G0 F3600 X172.537 Y57.362
;TYPE:WALL-OUTER
G1 F1800 X172.538 Y56.523 E25.97678
G1 X174.984 Y56.523 E26.0378
G1 X174.984 Y60.923 E26.14756
G1 X174.984 Y61.123 E26.15255
G1 X174.784 Y61.123 E26.15578
G1 X172.471 Y61.119 E26.21347
G1 X172.47 Y61.119 E26.2135
G1 X172.256 Y61.119 E26.21884
G1 X172.272 Y60.905 E26.22223
G1 X172.537 Y57.362 E26.31085
G0 F3600 X173.116 Y57.15
;TYPE:SKIN
G1 F1800 X174.403 Y58.438 E26.35627
G0 X174.473 Y58.508
G0 F3600 X174.403 Y59.003
G1 F1800 X173.092 Y57.692 E26.40252
G0 X173.022 Y57.622
G0 F3600 X173.053 Y58.218
G1 F1800 X174.403 Y59.569 E26.45017
G0 X174.473 Y59.639
G0 F3600 X174.403 Y60.135
G1 F1800 X173.013 Y58.745 E26.4992
G0 X172.943 Y58.675
G0 F3600 X172.973 Y59.271
G1 F1800 X174.243 Y60.541 E26.544
G0 X174.313 Y60.611
G0 F3600 X173.677 Y60.54
G1 F1800 X172.934 Y59.797 E26.57022
G0 X172.864 Y59.727
G0 F3600 X172.894 Y60.323
G1 F1800 X173.111 Y60.539 E26.57785
G0 F3600 X174.403 Y57.872
G1 F1800 X173.634 Y57.103 E26.60498
G0 X173.564 Y57.033
G0 F3600 X174.199 Y57.103
G1 F1800 X174.403 Y57.306 E26.61216
G0 F3600 X174.184 Y57.323
;TIME_ELAPSED:51.460065
;LAYER:1
M106 S255
G1 F2100 E25.81216
G0 F5400 X174.184 Y57.323 Z.3
G0 X175.435 Y56.951
G0 X176.463 Y56.455
;TYPE:SUPPORT
G1 F2100 E26.61216
G1 F2700 X176.531 Y56.522 E26.61454
G1 X176.531 Y61.124 E26.72934
G1 X176.463 Y61.191 E26.73172
G1 X176.463 Y61.5 E26.73943
G1 X178.622 Y61.5 E26.79329
G1 X179.642 Y61.5 E26.81873
G1 X179.643 Y61.432 E26.82043
G1 X179.643 Y56.146 E26.95229
G1 X178.622 Y56.146 E26.97775
G1 X178.622 Y61.5 E27.11131
G0 F5400 X178.622 Y56.146
G1 F2700 X176.463 Y56.146 E27.16517
G1 X176.463 Y56.455 E27.17288
G1 F2100 E26.37288
G0 F5400 X176.728 Y56.455
G0 X176.716 Y55.67
G0 X167.196 Y55.67
G0 X133.237 Y60
G1 F2100 E27.17288
G1 F2700 X132.861 Y59.624 E27.18614
G1 X132.861 Y41.022 E27.65017
G1 X133.237 Y40.646 E27.66343
G1 X131.198 Y40.646 E27.7143
G1 X131.198 Y47.987 E27.89742
G1 X130.799 Y48.386 E27.91149
G1 X130.634 Y48.386 E27.91561
G1 X130.634 Y51.712 E27.99858
G1 X130.056 Y51.712 E28.013
G1 X130.056 Y48.863 E28.08406
G1 X130.383 Y48.536 E28.0956
G1 X130.383 Y48.386 E28.09934
G1 X130.634 Y48.386 E28.1056
G0 F5400 X130.634 Y51.712
G1 F2700 X130.799 Y51.712 E28.10972
G1 X131.198 Y52.111 E28.12379
G1 X131.198 Y60 E28.32059
G1 X133.237 Y60 E28.37145
G1 F2100 E27.57145
G0 F5400 X176.463 Y44.988
G0 X176.463 Y44.5
G1 F2100 E28.37145
G1 F2700 X178.622 Y44.5 E28.42531
G1 X179.642 Y44.5 E28.45075
G1 X179.643 Y44.432 E28.45245
G1 X179.643 Y39.146 E28.58431
G1 X178.622 Y39.146 E28.60978
G1 X178.622 Y44.5 E28.74333
G1 F2100 E27.94333
G0 F5400 X176.531 Y44.124
G1 F2100 E28.74333
G1 F2700 X176.463 Y44.191 E28.74571
G1 X176.463 Y44.5 E28.75342
G0 F5400 X176.531 Y44.124
G1 F2700 X176.531 Y39.522 E28.86822
G1 X176.463 Y39.455 E28.8706
G1 X176.463 Y39.146 E28.87831
G1 X178.622 Y39.146 E28.93216
G1 F2100 E28.13216
G0 F5400 X175.435 Y55.658
G0 X175.435 Y56.951
G0 X175.393 Y56.993
G0 X175.463 Y56.923
;TYPE:WALL-INNER
G1 F2100 E28.93216
G1 F3300 X175.463 Y60.723 E29.02696
G1 X168.599 Y60.723 E29.19818
G1 X168.598 Y60.723 E29.1982
G1 X168.384 Y60.723 E29.20354
G1 X168.4 Y60.509 E29.20693
G1 X168.448 Y59.867 E29.22299
G1 X168.449 Y56.923 E29.29643
G1 X175.463 Y56.923 E29.47139
G0 F5400 X175.863 Y56.523
;TYPE:WALL-OUTER
G1 F2100 X175.863 Y61.123 E29.58614
G1 X168.168 Y61.123 E29.77809
G1 X168.167 Y61.123 E29.77812
G1 X167.953 Y61.123 E29.78346
G1 X167.969 Y60.909 E29.78685
G1 X168.048 Y59.852 E29.81329
G1 X168.049 Y56.523 E29.89633
G1 X175.863 Y56.523 E30.09125
G0 F5400 X175.393 Y56.993
G0 X175.281 Y57.214
;TYPE:SKIN
G1 F1800 X171.953 Y60.543 E30.20867
G0 X171.883 Y60.613
G0 F5400 X171.387 Y60.543
G1 F1800 X174.827 Y57.103 E30.33003
G0 X174.897 Y57.033
G0 F5400 X174.262 Y57.103
G1 F1800 X170.822 Y60.543 E30.45138
G0 X170.752 Y60.613
G0 F5400 X170.256 Y60.543
G1 F1800 X173.696 Y57.103 E30.57274
G0 X173.766 Y57.033
G0 F5400 X173.13 Y57.103
G1 F1800 X169.69 Y60.543 E30.69409
G0 X169.62 Y60.613
G0 F5400 X169.125 Y60.543
G1 F1800 X172.565 Y57.103 E30.81545
G0 X172.635 Y57.033
G0 F5400 X171.999 Y57.103
G1 F1800 X168.577 Y60.524 E30.93615
G0 X168.507 Y60.594
G0 F5400 X168.624 Y59.912
G1 F1800 X171.433 Y57.103 E31.03525
G0 X171.503 Y57.033
G0 F5400 X170.868 Y57.103
G1 F1800 X168.627 Y59.343 E31.11429
G0 X168.557 Y59.413
G0 F5400 X168.627 Y58.777
G1 F1800 X170.302 Y57.103 E31.17336
G0 X170.372 Y57.033
